%
(Header)
(Generated by gcodetools from Inkscape.)
(Using default header. To add your own header create file "header" in the output dir.)
M3
(Header end.)
G21 (All units in mm)

(Start cutting path id: path3673)
(Change tool to Cylindrical cutter)

G00 Z2.000000
G00 X-19.063253 Y101.900900

G01 Z-3.100000 F100.0(Penetrate)
G01 X20.110888 Y101.900900 Z-3.100000 F500.000000
G00 Z2.000000

(End cutting path id: path3673)


(Start cutting path id: path3671)
(Change tool to Cylindrical cutter)

G00 Z2.000000
G00 X-1.476206 Y80.050900

G01 Z-3.100000 F100.0(Penetrate)
G01 X-6.519633 Y80.050900 Z-3.100000 F500.000000
G01 X-6.519593 Y98.400900 Z-3.100000
G01 X-1.476161 Y98.400900 Z-3.100000
G01 X-1.476206 Y80.050900 Z-3.100000
G00 Z2.000000

(End cutting path id: path3671)


(Start cutting path id: path3669)
(Change tool to Cylindrical cutter)

G00 Z2.000000
G00 X7.567294 Y80.050900

G01 Z-3.100000 F100.0(Penetrate)
G01 X2.523864 Y80.050900 Z-3.100000 F500.000000
G01 X2.523910 Y98.400900 Z-3.100000
G01 X7.567339 Y98.400900 Z-3.100000
G01 X7.567294 Y80.050900 Z-3.100000
G00 Z2.000000

(End cutting path id: path3669)


(Start cutting path id: path3667)
(Change tool to Cylindrical cutter)

G00 Z2.000000
G00 X16.610794 Y80.050900

G01 Z-3.100000 F100.0(Penetrate)
G01 X11.567364 Y80.050900 Z-3.100000 F500.000000
G01 X11.567410 Y98.400900 Z-3.100000
G01 X16.610839 Y98.400900 Z-3.100000
G01 X16.610794 Y80.050900 Z-3.100000
G00 Z2.000000

(End cutting path id: path3667)


(Start cutting path id: path3665)
(Change tool to Cylindrical cutter)

G00 Z2.000000
G00 X16.610709 Y45.925720

G01 Z-3.100000 F100.0(Penetrate)
G01 X16.610696 Y40.884020 Z-3.100000 F500.000000
G01 X11.567196 Y40.884090 Z-3.100000
G01 X11.567209 Y45.925790 Z-3.100000
G01 X16.610709 Y45.925720 Z-3.100000
G00 Z2.000000

(End cutting path id: path3665)


(Start cutting path id: path3663)
(Change tool to Cylindrical cutter)

G00 Z2.000000
G00 X11.567276 Y73.050490

G01 Z-3.100000 F100.0(Penetrate)
G01 X11.567264 Y68.008990 Z-3.100000 F500.000000
G01 X16.610764 Y68.008920 Z-3.100000
G01 X16.610776 Y73.050420 Z-3.100000
G01 X11.567276 Y73.050490 Z-3.100000
G00 Z2.000000

(End cutting path id: path3663)


(Start cutting path id: path3661)
(Change tool to Cylindrical cutter)

G00 Z2.000000
G00 X2.523776 Y73.050620

G01 Z-3.100000 F100.0(Penetrate)
G01 X7.567276 Y73.050550 Z-3.100000 F500.000000
G01 X7.567264 Y68.009050 Z-3.100000
G01 X2.523764 Y68.009120 Z-3.100000
G01 X2.523776 Y73.050620 Z-3.100000
G00 Z2.000000

(End cutting path id: path3661)


(Start cutting path id: path3659)
(Change tool to Cylindrical cutter)

G00 Z2.000000
G00 X-6.519723 Y73.050750

G01 Z-3.100000 F100.0(Penetrate)
G01 X-1.476224 Y73.050680 Z-3.100000 F500.000000
G01 X-1.476236 Y68.009180 Z-3.100000
G01 X-6.519733 Y68.009250 Z-3.100000
G01 X-6.519723 Y73.050750 Z-3.100000
G00 Z2.000000

(End cutting path id: path3659)


(Start cutting path id: path3657)
(Change tool to Cylindrical cutter)

G00 Z2.000000
G00 X-15.563233 Y68.009380

G01 Z-3.100000 F100.0(Penetrate)
G01 X-10.519733 Y68.009310 Z-3.100000 F500.000000
G01 X-10.519723 Y73.050810 Z-3.100000
G01 X-15.563223 Y73.050880 Z-3.100000
G01 X-15.563233 Y70.530130 Z-3.100000
G01 X-15.563233 Y68.009380 Z-3.100000
G00 Z2.000000

(End cutting path id: path3657)


(Start cutting path id: path3655)
(Change tool to Cylindrical cutter)

G00 Z2.000000
G00 X-15.563243 Y64.009380

G01 Z-3.100000 F100.0(Penetrate)
G01 X-15.563263 Y58.967780 Z-3.100000 F500.000000
G01 X-10.519763 Y58.967710 Z-3.100000
G01 X-10.519743 Y64.009310 Z-3.100000
G01 X-15.563243 Y64.009380 Z-3.100000
G00 Z2.000000

(End cutting path id: path3655)


(Start cutting path id: path3653)
(Change tool to Cylindrical cutter)

G00 Z2.000000
G00 X-6.519743 Y64.009250

G01 Z-3.100000 F100.0(Penetrate)
G01 X-6.519763 Y58.967650 Z-3.100000 F500.000000
G01 X-1.476259 Y58.967580 Z-3.100000
G01 X-1.476246 Y64.009180 Z-3.100000
G01 X-6.519743 Y64.009250 Z-3.100000
G00 Z2.000000

(End cutting path id: path3653)


(Start cutting path id: path3651)
(Change tool to Cylindrical cutter)

G00 Z2.000000
G00 X2.523754 Y64.009120

G01 Z-3.100000 F100.0(Penetrate)
G01 X2.523741 Y58.967520 Z-3.100000 F500.000000
G01 X7.567241 Y58.967450 Z-3.100000
G01 X7.567254 Y64.009050 Z-3.100000
G01 X2.523754 Y64.009120 Z-3.100000
G00 Z2.000000

(End cutting path id: path3651)


(Start cutting path id: path3649)
(Change tool to Cylindrical cutter)

G00 Z2.000000
G00 X7.567225 Y52.446650

G01 Z-3.100000 F100.0(Penetrate)
G01 X7.567231 Y54.967450 Z-3.100000 F500.000000
G01 X2.523802 Y54.967520 Z-3.100000
G01 X2.523789 Y49.925920 Z-3.100000
G01 X7.567219 Y49.925850 Z-3.100000
G01 X7.567225 Y52.446650 Z-3.100000
G00 Z2.000000

(End cutting path id: path3649)


(Start cutting path id: path3647)
(Change tool to Cylindrical cutter)

G00 Z2.000000
G00 X16.610754 Y64.008920

G01 Z-3.100000 F100.0(Penetrate)
G01 X16.610741 Y58.967320 Z-3.100000 F500.000000
G01 X11.567241 Y58.967390 Z-3.100000
G01 X11.567254 Y64.008990 Z-3.100000
G01 X16.610754 Y64.008920 Z-3.100000
G00 Z2.000000

(End cutting path id: path3647)


(Start cutting path id: path3645)
(Change tool to Cylindrical cutter)

G00 Z2.000000
G00 X16.610731 Y54.967320

G01 Z-3.100000 F100.0(Penetrate)
G01 X16.610719 Y49.925720 Z-3.100000 F500.000000
G01 X11.567219 Y49.925790 Z-3.100000
G01 X11.567231 Y54.967390 Z-3.100000
G01 X16.610731 Y54.967320 Z-3.100000
G00 Z2.000000

(End cutting path id: path3645)


(Start cutting path id: path3643)
(Change tool to Cylindrical cutter)

G00 Z2.000000
G00 X-1.476275 Y52.446780

G01 Z-3.100000 F100.0(Penetrate)
G01 X-1.476269 Y54.967580 Z-3.100000 F500.000000
G01 X-6.519703 Y54.967650 Z-3.100000
G01 X-6.519713 Y49.926050 Z-3.100000
G01 X-1.476281 Y49.925980 Z-3.100000
G01 X-1.476275 Y52.446780 Z-3.100000
G00 Z2.000000

(End cutting path id: path3643)


(Start cutting path id: path3641)
(Change tool to Cylindrical cutter)

G00 Z2.000000
G00 X-10.519773 Y54.967710

G01 Z-3.100000 F100.0(Penetrate)
G01 X-15.563273 Y54.967780 Z-3.100000 F500.000000
G01 X-15.563273 Y52.446980 Z-3.100000
G01 X-15.563283 Y49.926180 Z-3.100000
G01 X-10.519783 Y49.926110 Z-3.100000
G01 X-10.519773 Y52.446910 Z-3.100000
G01 X-10.519773 Y54.967710 Z-3.100000
G00 Z2.000000

(End cutting path id: path3641)


(Start cutting path id: path3639)
(Change tool to Cylindrical cutter)

G00 Z2.000000
G00 X-10.519793 Y45.926110

G01 Z-3.100000 F100.0(Penetrate)
G01 X-10.519803 Y40.884410 Z-3.100000 F500.000000
G01 X-15.563303 Y40.884480 Z-3.100000
G01 X-15.563293 Y45.926180 Z-3.100000
G01 X-10.519793 Y45.926110 Z-3.100000
G00 Z2.000000

(End cutting path id: path3639)


(Start cutting path id: path3637)
(Change tool to Cylindrical cutter)

G00 Z2.000000
G00 X-1.476291 Y45.925980

G01 Z-3.100000 F100.0(Penetrate)
G01 X-6.519793 Y45.926050 Z-3.100000 F500.000000
G01 X-6.519803 Y40.884350 Z-3.100000
G01 X-1.476304 Y40.884280 Z-3.100000
G01 X-1.476291 Y45.925980 Z-3.100000
G00 Z2.000000

(End cutting path id: path3637)


(Start cutting path id: path3635)
(Change tool to Cylindrical cutter)

G00 Z2.000000
G00 X7.567209 Y45.925850

G01 Z-3.100000 F100.0(Penetrate)
G01 X2.523709 Y45.925920 Z-3.100000 F500.000000
G01 X2.523696 Y40.884220 Z-3.100000
G01 X7.567196 Y40.884150 Z-3.100000
G01 X7.567209 Y45.925850 Z-3.100000
G00 Z2.000000

(End cutting path id: path3635)


(Start cutting path id: path3633)
(Change tool to Cylindrical cutter)

G00 Z2.000000
G00 X-10.519703 Y80.050900

G01 Z-3.100000 F100.0(Penetrate)
G01 X-15.563203 Y80.050900 Z-3.100000 F500.000000
G01 X-15.563163 Y98.400900 Z-3.100000
G01 X-10.519663 Y98.400900 Z-3.100000
G01 X-10.519703 Y80.050900 Z-3.100000
G00 Z2.000000

(End cutting path id: path3633)


(Start cutting path id: path3631)
(Change tool to Cylindrical cutter)

G00 Z2.000000
G00 X41.460888 Y68.509430

G01 Z-3.100000 F100.0(Penetrate)
G01 X24.110888 Y68.509600 Z-3.100000 F500.000000
G01 X24.110888 Y72.550210 Z-3.100000
G01 X41.460888 Y72.550040 Z-3.100000
G01 X41.460888 Y68.509430 Z-3.100000
G00 Z2.000000

(End cutting path id: path3631)


(Start cutting path id: path3629)
(Change tool to Cylindrical cutter)

G00 Z2.000000
G00 X41.460888 Y63.509840

G01 Z-3.100000 F100.0(Penetrate)
G01 X41.460888 Y59.468240 Z-3.100000 F500.000000
G01 X24.110888 Y59.468410 Z-3.100000
G01 X24.110888 Y63.510010 Z-3.100000
G01 X41.460888 Y63.509840 Z-3.100000
G00 Z2.000000

(End cutting path id: path3629)


(Start cutting path id: path3627)
(Change tool to Cylindrical cutter)

G00 Z2.000000
G00 X41.460888 Y54.468240

G01 Z-3.100000 F100.0(Penetrate)
G01 X41.460888 Y50.426230 Z-3.100000 F500.000000
G01 X24.110888 Y50.426400 Z-3.100000
G01 X24.110888 Y54.468410 Z-3.100000
G01 X41.460888 Y54.468240 Z-3.100000
G00 Z2.000000

(End cutting path id: path3627)


(Start cutting path id: path3625)
(Change tool to Cylindrical cutter)

G00 Z2.000000
G00 X41.460888 Y41.384940

G01 Z-3.100000 F100.0(Penetrate)
G01 X24.110888 Y41.385110 Z-3.100000 F500.000000
G01 X24.110888 Y45.426810 Z-3.100000
G01 X41.460888 Y45.426640 Z-3.100000
G01 X41.460888 Y41.384940 Z-3.100000
G00 Z2.000000

(End cutting path id: path3625)


(Start cutting path id: path3623)
(Change tool to Cylindrical cutter)

G00 Z2.000000
G00 X45.960888 Y37.384290

G01 Z-3.100000 F100.0(Penetrate)
G01 X45.960888 Y76.550020 Z-3.100000 F500.000000
G00 Z2.000000

(End cutting path id: path3623)


(Start cutting path id: path3621)
(Change tool to Cylindrical cutter)

G00 Z2.000000
G00 X-44.913253 Y76.550900

G01 Z-3.100000 F100.0(Penetrate)
G01 X-44.913253 Y37.383990 Z-3.100000 F500.000000
G00 Z2.000000

(End cutting path id: path3621)


(Start cutting path id: path3619)
(Change tool to Cylindrical cutter)

G00 Z2.000000
G00 X-23.063000 Y68.510160

G01 Z-3.100000 F100.0(Penetrate)
G01 X-40.413000 Y68.510340 Z-3.100000 F500.000000
G01 X-40.413000 Y72.550800 Z-3.100000
G01 X-23.063000 Y72.550620 Z-3.100000
G01 X-23.063000 Y68.510160 Z-3.100000
G00 Z2.000000

(End cutting path id: path3619)


(Start cutting path id: path3617)
(Change tool to Cylindrical cutter)

G00 Z2.000000
G00 X-23.063000 Y59.468970

G01 Z-3.100000 F100.0(Penetrate)
G01 X-23.063000 Y63.510420 Z-3.100000 F500.000000
G01 X-40.413000 Y63.510600 Z-3.100000
G01 X-40.413000 Y59.469150 Z-3.100000
G01 X-23.063000 Y59.468970 Z-3.100000
G00 Z2.000000

(End cutting path id: path3617)


(Start cutting path id: path3615)
(Change tool to Cylindrical cutter)

G00 Z2.000000
G00 X-23.063000 Y50.426960

G01 Z-3.100000 F100.0(Penetrate)
G01 X-23.063000 Y54.468820 Z-3.100000 F500.000000
G01 X-40.413000 Y54.469000 Z-3.100000
G01 X-40.413000 Y50.427140 Z-3.100000
G01 X-23.063000 Y50.426960 Z-3.100000
G00 Z2.000000

(End cutting path id: path3615)


(Start cutting path id: path3613)
(Change tool to Cylindrical cutter)

G00 Z2.000000
G00 X-40.413000 Y41.385850

G01 Z-3.100000 F100.0(Penetrate)
G01 X-40.413000 Y45.427400 Z-3.100000 F500.000000
G01 X-23.063000 Y45.427220 Z-3.100000
G01 X-23.063000 Y41.385670 Z-3.100000
G01 X-40.413000 Y41.385850 Z-3.100000
G00 Z2.000000

(End cutting path id: path3613)


(Start cutting path id: path3611)
(Change tool to Cylindrical cutter)

G00 Z2.000000
G00 X-15.563363 Y15.533990

G01 Z-3.100000 F100.0(Penetrate)
G01 X-10.519863 Y15.533990 Z-3.100000 F500.000000
G01 X-10.519823 Y33.883990 Z-3.100000
G01 X-15.563323 Y33.883990 Z-3.100000
G01 X-15.563363 Y15.533990 Z-3.100000
G00 Z2.000000

(End cutting path id: path3611)


(Start cutting path id: path3609)
(Change tool to Cylindrical cutter)

G00 Z2.000000
G00 X-6.519793 Y15.533990

G01 Z-3.100000 F100.0(Penetrate)
G01 X-6.519753 Y33.883990 Z-3.100000 F500.000000
G01 X-1.476321 Y33.883990 Z-3.100000
G01 X-1.476367 Y15.533990 Z-3.100000
G01 X-6.519793 Y15.533990 Z-3.100000
G00 Z2.000000

(End cutting path id: path3609)


(Start cutting path id: path3607)
(Change tool to Cylindrical cutter)

G00 Z2.000000
G00 X2.523704 Y15.533990

G01 Z-3.100000 F100.0(Penetrate)
G01 X7.567133 Y15.533990 Z-3.100000 F500.000000
G01 X7.567179 Y33.883990 Z-3.100000
G01 X2.523749 Y33.883990 Z-3.100000
G01 X2.523704 Y15.533990 Z-3.100000
G00 Z2.000000

(End cutting path id: path3607)


(Start cutting path id: path3605)
(Change tool to Cylindrical cutter)

G00 Z2.000000
G00 X11.567204 Y15.533990

G01 Z-3.100000 F100.0(Penetrate)
G01 X11.567249 Y33.883990 Z-3.100000 F500.000000
G01 X16.610679 Y33.883990 Z-3.100000
G01 X16.610633 Y15.533990 Z-3.100000
G01 X11.567204 Y15.533990 Z-3.100000
G00 Z2.000000

(End cutting path id: path3605)


(Start cutting path id: path3603)
(Change tool to Cylindrical cutter)

G00 Z2.000000
G00 X-19.063313 Y11.533990

G01 Z-3.100000 F100.0(Penetrate)
G01 X20.110888 Y11.533990 Z-3.100000 F500.000000
G00 Z2.000000

(End cutting path id: path3603)


(Footer)
M5
G00 X0.0000 Y0.0000
M2
(Using default footer. To add your own footer create file "footer" in the output dir.)
(end)
%