%
(Header)
(Generated by gcodetools from Inkscape.)
(Using default header. To add your own header create file "header" in the output dir.)
M3
(Header end.)
G21 (All units in mm)

(Start cutting path id: path1469)
(Change tool to Cylindrical cutter)

G00 Z1.000000
G00 X-19.561625 Y101.412480

G01 Z-3.000000 F100.0(Penetrate)
G01 X-19.561625 Y76.061940 Z-3.000000 F400.000000
G01 X-44.911625 Y76.061600 Z-3.000000
G00 Z1.000000

(End cutting path id: path1469)


(Start cutting path id: path1467)
(Change tool to Cylindrical cutter)

G00 Z1.000000
G00 X19.612514 Y101.412480

G01 Z-3.000000 F100.0(Penetrate)
G01 X19.612514 Y76.062480 Z-3.000000 F400.000000
G01 X44.962514 Y76.062480 Z-3.000000
G00 Z1.000000

(End cutting path id: path1467)


(Start cutting path id: path1465)
(Change tool to Cylindrical cutter)

G00 Z1.000000
G00 X-19.561625 Y11.545560

G01 Z-3.000000 F100.0(Penetrate)
G01 X-19.561625 Y36.895870 Z-3.000000 F400.000000
G01 X-44.911625 Y36.895870 Z-3.000000
G00 Z1.000000

(End cutting path id: path1465)


(Start cutting path id: path1463)
(Change tool to Cylindrical cutter)

G00 Z1.000000
G00 X44.962514 Y36.895560

G01 Z-3.000000 F100.0(Penetrate)
G01 X19.612571 Y36.895560 Z-3.000000 F400.000000
G01 X19.612571 Y11.545560 Z-3.000000
G00 Z1.000000

(End cutting path id: path1463)


(Footer)
M5
G00 X0.0000 Y0.0000
M2
(Using default footer. To add your own footer create file "footer" in the output dir.)
(end)
%