%
(Header)
(Generated by gcodetools from Inkscape.)
(Using default header. To add your own header create file "header" in the output dir.)
M3
(Header end.)
G21 (All units in mm)

(Start cutting path id: path3683)
(Change tool to Cylindrical cutter)

G00 Z2.000000
G00 X19.060888 Y101.900900

G01 Z-3.000000 F100.0(Penetrate)
G01 X19.060888 Y76.550370 Z-3.000000 F400.000000
G01 X44.410888 Y76.550020 Z-3.000000
G00 Z2.000000

(End cutting path id: path3683)


(Start cutting path id: path3681)
(Change tool to Cylindrical cutter)

G00 Z2.000000
G00 X-20.113253 Y101.900900

G01 Z-3.000000 F100.0(Penetrate)
G01 X-20.113253 Y76.550900 Z-3.000000 F400.000000
G01 X-45.463253 Y76.550900 Z-3.000000
G00 Z2.000000

(End cutting path id: path3681)


(Start cutting path id: path3679)
(Change tool to Cylindrical cutter)

G00 Z2.000000
G00 X19.060888 Y12.033990

G01 Z-3.000000 F100.0(Penetrate)
G01 X19.060888 Y37.384290 Z-3.000000 F400.000000
G01 X44.410888 Y37.384290 Z-3.000000
G00 Z2.000000

(End cutting path id: path3679)


(Start cutting path id: path3677)
(Change tool to Cylindrical cutter)

G00 Z2.000000
G00 X-45.463253 Y37.383990

G01 Z-3.000000 F100.0(Penetrate)
G01 X-20.113313 Y37.383990 Z-3.000000 F400.000000
G01 X-20.113313 Y12.033990 Z-3.000000
G00 Z2.000000

(End cutting path id: path3677)


(Footer)
M5
G00 X0.0000 Y0.0000
M2
(Using default footer. To add your own footer create file "footer" in the output dir.)
(end)
%