%
(Header)
(Generated by gcodetools from Inkscape.)
(Using default header. To add your own header create file "header" in the output dir.)
M3
(Header end.)
G21 (All units in mm)

(Start cutting path id: path11139)
(Change tool to Cylindrical cutter)

G00 Z2.000000
G00 X4.581747 Y22.563000

G01 Z-1.000000 F20.0(Penetrate)
G01 X-9.418253 Y22.563000 Z-1.000000 F100.000000
G00 Z2.000000

(End cutting path id: path11139)


(Start cutting path id: path11139)
(Change tool to Cylindrical cutter)

G00 Z2.000000
G00 X4.581747 Y22.563000

G01 Z-2.000000 F20.0(Penetrate)
G01 X-9.418253 Y22.563000 Z-2.000000 F100.000000
G00 Z2.000000

(End cutting path id: path11139)


(Start cutting path id: path11139)
(Change tool to Cylindrical cutter)

G00 Z2.000000
G00 X4.581747 Y22.563000

G01 Z-3.000000 F20.0(Penetrate)
G01 X-9.418253 Y22.563000 Z-3.000000 F100.000000
G00 Z2.000000

(End cutting path id: path11139)


(Start cutting path id: path11137)
(Change tool to Cylindrical cutter)

G00 Z2.000000
G00 X-27.118249 Y22.563000

G01 Z-1.000000 F20.0(Penetrate)
G01 X-41.818249 Y22.563000 Z-1.000000 F100.000000
G00 Z2.000000

(End cutting path id: path11137)


(Start cutting path id: path11137)
(Change tool to Cylindrical cutter)

G00 Z2.000000
G00 X-27.118249 Y22.563000

G01 Z-2.000000 F20.0(Penetrate)
G01 X-41.818249 Y22.563000 Z-2.000000 F100.000000
G00 Z2.000000

(End cutting path id: path11137)


(Start cutting path id: path11137)
(Change tool to Cylindrical cutter)

G00 Z2.000000
G00 X-27.118249 Y22.563000

G01 Z-3.000000 F20.0(Penetrate)
G01 X-41.818249 Y22.563000 Z-3.000000 F100.000000
G00 Z2.000000

(End cutting path id: path11137)


(Footer)
M5
G00 X0.0000 Y0.0000
M2
(Using default footer. To add your own footer create file "footer" in the output dir.)
(end)
%