%
(Header)
(Generated by gcodetools from Inkscape.)
(Using default header. To add your own header create file "header" in the output dir.)
M3
(Header end.)
G21 (All units in mm)

(Start cutting path id: path11161)
(Change tool to Cylindrical cutter)

G00 Z2.000000
G00 X5.081747 Y22.563000

G01 Z-1.500000 F20.0(Penetrate)
G01 X5.081747 Y7.063000 Z-1.500000 F100.000000
G01 X-9.418253 Y7.063000 Z-1.500000
G01 X-27.118249 Y7.063000 Z-1.500000
G01 X-42.318249 Y7.063000 Z-1.500000
G01 X-42.318249 Y22.563000 Z-1.500000
G00 Z2.000000

(End cutting path id: path11161)


(Start cutting path id: path11161)
(Change tool to Cylindrical cutter)

G00 Z2.000000
G00 X5.081747 Y22.563000

G01 Z-3.000000 F20.0(Penetrate)
G01 X5.081747 Y7.063000 Z-3.000000 F100.000000
G01 X-9.418253 Y7.063000 Z-3.000000
G01 X-27.118249 Y7.063000 Z-3.000000
G01 X-42.318249 Y7.063000 Z-3.000000
G01 X-42.318249 Y22.563000 Z-3.000000
G00 Z2.000000

(End cutting path id: path11161)


(Start cutting path id: path11159)
(Change tool to Cylindrical cutter)

G00 Z2.000000
G00 X43.829882 Y7.063000

G01 Z-1.500000 F20.0(Penetrate)
G01 X43.829882 Y23.063000 Z-1.500000 F100.000000
G01 X28.929882 Y23.063000 Z-1.500000
G01 X18.429886 Y23.063000 Z-1.500000
G01 X18.429886 Y7.063000 Z-1.500000
G01 X28.929882 Y7.063000 Z-1.500000
G01 X43.829882 Y7.063000 Z-1.500000
G00 Z2.000000

(End cutting path id: path11159)


(Start cutting path id: path11159)
(Change tool to Cylindrical cutter)

G00 Z2.000000
G00 X43.829882 Y7.063000

G01 Z-3.000000 F20.0(Penetrate)
G01 X43.829882 Y23.063000 Z-3.000000 F100.000000
G01 X28.929882 Y23.063000 Z-3.000000
G01 X18.429886 Y23.063000 Z-3.000000
G01 X18.429886 Y7.063000 Z-3.000000
G01 X28.929882 Y7.063000 Z-3.000000
G01 X43.829882 Y7.063000 Z-3.000000
G00 Z2.000000

(End cutting path id: path11159)


(Start cutting path id: path11157)
(Change tool to Cylindrical cutter)

G00 Z2.000000
G00 X-26.618249 Y22.563000

G01 Z-1.500000 F20.0(Penetrate)
G01 X-26.618249 Y20.063000 Z-1.500000 F100.000000
G01 X-9.918253 Y20.063000 Z-1.500000
G00 Z2.000000

(End cutting path id: path11157)


(Start cutting path id: path11157)
(Change tool to Cylindrical cutter)

G00 Z2.000000
G00 X-26.618249 Y22.563000

G01 Z-3.000000 F20.0(Penetrate)
G01 X-26.618249 Y20.063000 Z-3.000000 F100.000000
G01 X-9.918253 Y20.063000 Z-3.000000
G00 Z2.000000

(End cutting path id: path11157)


(Start cutting path id: path11155)
(Change tool to Cylindrical cutter)

G00 Z2.000000
G00 X9.316416 Y1.253970

G01 Z-1.500000 F20.0(Penetrate)
G01 X14.889956 Y1.253500 Z-1.500000 F100.000000
G01 X14.890426 Y6.827040 Z-1.500000
G01 X9.316896 Y6.827520 Z-1.500000
G01 X9.316416 Y1.253970 Z-1.500000
G00 Z2.000000

(End cutting path id: path11155)


(Start cutting path id: path11155)
(Change tool to Cylindrical cutter)

G00 Z2.000000
G00 X9.316416 Y1.253970

G01 Z-3.000000 F20.0(Penetrate)
G01 X14.889956 Y1.253500 Z-3.000000 F100.000000
G01 X14.890426 Y6.827040 Z-3.000000
G01 X9.316896 Y6.827520 Z-3.000000
G01 X9.316416 Y1.253970 Z-3.000000
G00 Z2.000000

(End cutting path id: path11155)


(Start cutting path id: path11153)
(Change tool to Cylindrical cutter)

G00 Z2.000000
G00 X10.454026 Y11.264230

G01 Z-1.500000 F20.0(Penetrate)
G01 X10.454396 Y15.701020 Z-1.500000 F100.000000
G01 X14.891156 Y15.700640 Z-1.500000
G01 X14.890776 Y11.263860 Z-1.500000
G00 Z2.000000

(End cutting path id: path11153)


(Start cutting path id: path11153)
(Change tool to Cylindrical cutter)

G00 Z2.000000
G00 X10.454026 Y11.264230

G01 Z-3.000000 F20.0(Penetrate)
G01 X10.454396 Y15.701020 Z-3.000000 F100.000000
G01 X14.891156 Y15.700640 Z-3.000000
G01 X14.890776 Y11.263860 Z-3.000000
G00 Z2.000000

(End cutting path id: path11153)


(Start cutting path id: path11151)
(Change tool to Cylindrical cutter)

G00 Z2.000000
G00 X14.890426 Y6.827040

G01 Z-1.500000 F20.0(Penetrate)
G01 X14.890776 Y11.263860 Z-1.500000 F100.000000
G01 X10.454026 Y11.264230 Z-1.500000
G01 X10.453646 Y6.827400 Z-1.500000
G00 Z2.000000

(End cutting path id: path11151)


(Start cutting path id: path11151)
(Change tool to Cylindrical cutter)

G00 Z2.000000
G00 X14.890426 Y6.827040

G01 Z-3.000000 F20.0(Penetrate)
G01 X14.890776 Y11.263860 Z-3.000000 F100.000000
G01 X10.454026 Y11.264230 Z-3.000000
G01 X10.453646 Y6.827400 Z-3.000000
G00 Z2.000000

(End cutting path id: path11151)


(Start cutting path id: path11149)
(Change tool to Cylindrical cutter)

G00 Z2.000000
G00 X10.454396 Y15.701050

G01 Z-1.500000 F20.0(Penetrate)
G01 X10.454766 Y20.137780 Z-1.500000 F100.000000
G01 X14.891546 Y20.137420 Z-1.500000
G01 X14.891196 Y15.700640 Z-1.500000
G00 Z2.000000

(End cutting path id: path11149)


(Start cutting path id: path11149)
(Change tool to Cylindrical cutter)

G00 Z2.000000
G00 X10.454396 Y15.701050

G01 Z-3.000000 F20.0(Penetrate)
G01 X10.454766 Y20.137780 Z-3.000000 F100.000000
G01 X14.891546 Y20.137420 Z-3.000000
G01 X14.891196 Y15.700640 Z-3.000000
G00 Z2.000000

(End cutting path id: path11149)


(Start cutting path id: path11147)
(Change tool to Cylindrical cutter)

G00 Z2.000000
G00 X10.454766 Y20.137800

G01 Z-1.500000 F20.0(Penetrate)
G01 X10.455136 Y24.574590 Z-1.500000 F100.000000
G01 X14.891926 Y24.574210 Z-1.500000
G01 X14.891546 Y20.137420 Z-1.500000
G00 Z2.000000

(End cutting path id: path11147)


(Start cutting path id: path11147)
(Change tool to Cylindrical cutter)

G00 Z2.000000
G00 X10.454766 Y20.137800

G01 Z-3.000000 F20.0(Penetrate)
G01 X10.455136 Y24.574590 Z-3.000000 F100.000000
G01 X14.891926 Y24.574210 Z-3.000000
G01 X14.891546 Y20.137420 Z-3.000000
G00 Z2.000000

(End cutting path id: path11147)


(Start cutting path id: path11145)
(Change tool to Cylindrical cutter)

G00 Z2.000000
G00 X14.891926 Y24.574210

G01 Z-1.500000 F20.0(Penetrate)
G01 X14.892316 Y29.147760 Z-1.500000 F100.000000
G01 X10.318786 Y29.148150 Z-1.500000
G01 X10.318396 Y24.574600 Z-1.500000
G01 X10.455136 Y24.574590 Z-1.500000
G00 Z2.000000

(End cutting path id: path11145)


(Start cutting path id: path11145)
(Change tool to Cylindrical cutter)

G00 Z2.000000
G00 X14.891926 Y24.574210

G01 Z-3.000000 F20.0(Penetrate)
G01 X14.892316 Y29.147760 Z-3.000000 F100.000000
G01 X10.318786 Y29.148150 Z-3.000000
G01 X10.318396 Y24.574600 Z-3.000000
G01 X10.455136 Y24.574590 Z-3.000000
G00 Z2.000000

(End cutting path id: path11145)


(Start cutting path id: path11143)
(Change tool to Cylindrical cutter)

G00 Z2.000000
G00 X14.892316 Y29.147760

G01 Z-1.500000 F20.0(Penetrate)
G01 X14.892706 Y33.721690 Z-1.500000 F100.000000
G01 X10.319176 Y33.722080 Z-1.500000
G01 X10.318786 Y29.148150 Z-1.500000
G00 Z2.000000

(End cutting path id: path11143)


(Start cutting path id: path11143)
(Change tool to Cylindrical cutter)

G00 Z2.000000
G00 X14.892316 Y29.147760

G01 Z-3.000000 F20.0(Penetrate)
G01 X14.892706 Y33.721690 Z-3.000000 F100.000000
G01 X10.319176 Y33.722080 Z-3.000000
G01 X10.318786 Y29.148150 Z-3.000000
G00 Z2.000000

(End cutting path id: path11143)


(Footer)
M5
G00 X0.0000 Y0.0000
M2
(Using default footer. To add your own footer create file "footer" in the output dir.)
(end)
%