%
(Header)
(Generated by gcodetools from Inkscape.)
(Using default header. To add your own header create file "header" in the output dir.)
M3
(Header end.)
G21 (All units in mm)

(Start cutting path id: path4200-2)
(Change tool to Cylindrical cutter)

G00 Z2.000000
G00 X-17.060499 Y72.314210

G01 Z-3.000000 F100.0(Penetrate)
G01 X-17.060499 Y81.781170 Z-3.000000 F400.000000
G00 Z2.000000

(End cutting path id: path4200-2)


(Start cutting path id: path4172)
(Change tool to Cylindrical cutter)

G00 Z2.000000
G00 X-33.886324 Y22.170840

G01 Z-3.000000 F100.0(Penetrate)
G01 X-15.886544 Y22.170840 Z-3.000000 F400.000000
G00 Z2.000000

(End cutting path id: path4172)


(Footer)
M5
G00 X0.0000 Y0.0000
M2
(Using default footer. To add your own footer create file "footer" in the output dir.)
(end)
%