%
(Header)
(Generated by gcodetools from Inkscape.)
(Using default header. To add your own header create file "header" in the output dir.)
M3
(Header end.)
G21 (All units in mm)

(Start cutting path id: path4200-7)
(Change tool to Cylindrical cutter)

G00 Z2.000000
G00 X-30.982021 Y18.405430

G01 Z-3.000000 F100.0(Penetrate)
G01 X-21.515063 Y18.405430 Z-3.000000 F500.000000
G00 Z2.000000

(End cutting path id: path4200-7)


(Start cutting path id: path4922)
(Change tool to Cylindrical cutter)

G00 Z2.000000
G00 X-31.891975 Y82.297860

G01 Z-3.000000 F100.0(Penetrate)
G01 X-21.532104 Y82.297860 Z-3.000000 F500.000000
G00 Z2.000000

(End cutting path id: path4922)


(Start cutting path id: path4922)
(Change tool to Cylindrical cutter)

G00 Z2.000000
G00 X-31.892768 Y94.214270

G01 Z-3.000000 F100.0(Penetrate)
G01 X-31.891975 Y82.297860 Z-3.000000 F500.000000
G00 Z2.000000

(End cutting path id: path4922)


(Start cutting path id: path4922)
(Change tool to Cylindrical cutter)

G00 Z2.000000
G00 X-21.532138 Y94.214270

G01 Z-3.000000 F100.0(Penetrate)
G01 X-31.892768 Y94.214270 Z-3.000000 F500.000000
G00 Z2.000000

(End cutting path id: path4922)


(Start cutting path id: path4200)
(Change tool to Cylindrical cutter)

G00 Z2.000000
G00 X-8.481583 Y94.133240

G01 Z-3.000000 F100.0(Penetrate)
G01 X0.985375 Y94.133240 Z-3.000000 F500.000000
G00 Z2.000000

(End cutting path id: path4200)


(Start cutting path id: path4188)
(Change tool to Cylindrical cutter)

G00 Z2.000000
G00 X-6.370579 Y59.020190

G01 Z-3.000000 F100.0(Penetrate)
G01 X0.990101 Y59.020190 Z-3.000000 F500.000000
G00 Z2.000000

(End cutting path id: path4188)


(Start cutting path id: path4188)
(Change tool to Cylindrical cutter)

G00 Z2.000000
G00 X-6.369785 Y47.103770

G01 Z-3.000000 F100.0(Penetrate)
G01 X-6.370579 Y59.020190 Z-3.000000 F500.000000
G00 Z2.000000

(End cutting path id: path4188)


(Start cutting path id: path4188)
(Change tool to Cylindrical cutter)

G00 Z2.000000
G00 X0.985375 Y47.103770

G01 Z-3.000000 F100.0(Penetrate)
G01 X-6.369785 Y47.103770 Z-3.000000 F500.000000
G00 Z2.000000

(End cutting path id: path4188)


(Start cutting path id: path3445)
(Change tool to Cylindrical cutter)

G00 Z2.000000
G00 X-18.015283 Y127.875230

G01 Z-3.000000 F100.0(Penetrate)
G01 X-18.015813 Y117.515340 Z-3.000000 F500.000000
G00 Z2.000000

(End cutting path id: path3445)


(Start cutting path id: path3443)
(Change tool to Cylindrical cutter)

G00 Z2.000000
G00 X-8.170964 Y128.245930

G01 Z-3.000000 F100.0(Penetrate)
G01 X-8.171494 Y117.886040 Z-3.000000 F500.000000
G00 Z2.000000

(End cutting path id: path3443)


(Start cutting path id: path3431)
(Change tool to Cylindrical cutter)

G00 Z2.000000
G00 X-1.264101 Y112.564090

G01 Z-3.000000 F100.0(Penetrate)
G01 X-1.263571 Y102.204230 Z-3.000000 F500.000000
G00 Z2.000000

(End cutting path id: path3431)


(Start cutting path id: path3406)
(Change tool to Cylindrical cutter)

G00 Z2.000000
G00 X-11.575976 Y112.660670

G01 Z-3.000000 F100.0(Penetrate)
G01 X-11.575446 Y102.300810 Z-3.000000 F500.000000
G00 Z2.000000

(End cutting path id: path3406)


(Start cutting path id: path3450)
(Change tool to Cylindrical cutter)

G00 Z2.000000
G00 X-18.043498 Y127.875260

G01 Z-3.000000 F100.0(Penetrate)
G01 X-14.515363 Y127.874990 Z-3.000000 F500.000000
G00 Z2.000000

(End cutting path id: path3450)


(Start cutting path id: path3448)
(Change tool to Cylindrical cutter)

G00 Z2.000000
G00 X-8.260550 Y128.245960

G01 Z-3.000000 F100.0(Penetrate)
G01 X-4.671044 Y128.245690 Z-3.000000 F500.000000
G00 Z2.000000

(End cutting path id: path3448)


(Start cutting path id: path3433)
(Change tool to Cylindrical cutter)

G00 Z2.000000
G00 X-1.235886 Y112.564100

G01 Z-3.000000 F100.0(Penetrate)
G01 X-4.764021 Y112.563830 Z-3.000000 F500.000000
G00 Z2.000000

(End cutting path id: path3433)


(Start cutting path id: path3408)
(Change tool to Cylindrical cutter)

G00 Z2.000000
G00 X-11.564359 Y112.660680

G01 Z-3.000000 F100.0(Penetrate)
G01 X-15.075896 Y112.660410 Z-3.000000 F500.000000
G00 Z2.000000

(End cutting path id: path3408)


(Footer)
M5
G00 X0.0000 Y0.0000
M2
(Using default footer. To add your own footer create file "footer" in the output dir.)
(end)
%