%
(Header)
(Generated by gcodetools from Inkscape.)
(Using default header. To add your own header create file "header" in the output dir.)
M3
(Header end.)
G21 (All units in mm)

(Start cutting path id: path4920)
(Change tool to Cylindrical cutter)

G00 Z2.000000
G00 X30.475476 Y32.402050

G01 Z-2.750000 F100.0(Penetrate)
G01 X21.525596 Y32.402050 Z-2.750000 F500.000000
G00 Z2.000000

(End cutting path id: path4920)


(Start cutting path id: path4170)
(Change tool to Cylindrical cutter)

G00 Z2.000000
G00 X16.081811 Y79.950280

G01 Z-2.750000 F100.0(Penetrate)
G01 X-0.991917 Y79.950280 Z-2.750000 F500.000000
G00 Z2.000000

(End cutting path id: path4170)


(Footer)
M5
G00 X0.0000 Y0.0000
M2
(Using default footer. To add your own footer create file "footer" in the output dir.)
(end)
%