%
(Header)
(Generated by gcodetools from Inkscape.)
(Using default header. To add your own header create file "header" in the output dir.)
M3
(Header end.)
G21 (All units in mm)

(Start cutting path id: path4168-4)
(Change tool to Cylindrical cutter)

G00 Z2.000000
G00 X34.063439 Y72.831290

G01 Z-3.000000 F100.0(Penetrate)
G01 X34.063439 Y81.781170 Z-3.000000 F400.000000
G00 Z2.000000

(End cutting path id: path4168-4)


(Start cutting path id: path17477)
(Change tool to Cylindrical cutter)

G00 Z2.000000
G00 X33.892664 Y67.828670

G01 Z-3.000000 F100.0(Penetrate)
G01 X33.892664 Y52.978840 Z-3.000000 F400.000000
G01 X33.892664 Y25.170840 Z-3.000000
G00 Z2.000000

(End cutting path id: path17477)


(Footer)
M5
G00 X0.0000 Y0.0000
M2
(Using default footer. To add your own footer create file "footer" in the output dir.)
(end)
%