%
(Header)
(Generated by gcodetools from Inkscape.)
(Using default header. To add your own header create file "header" in the output dir.)
M3
(Header end.)
G21 (All units in mm)

(Start cutting path id: path4918)
(Change tool to Cylindrical cutter)

G00 Z2.000000
G00 X31.012832 Y61.501700

G01 Z-3.000000 F100.0(Penetrate)
G01 X21.525596 Y61.501700 Z-3.000000 F500.000000
G00 Z2.000000

(End cutting path id: path4918)


(Start cutting path id: path4916)
(Change tool to Cylindrical cutter)

G00 Z2.000000
G00 X39.525365 Y135.847500

G01 Z-3.000000 F100.0(Penetrate)
G01 X39.525365 Y61.501700 Z-3.000000 F500.000000
G00 Z2.000000

(End cutting path id: path4916)


(Start cutting path id: path4184)
(Change tool to Cylindrical cutter)

G00 Z2.000000
G00 X17.007853 Y94.133240

G01 Z-3.000000 F100.0(Penetrate)
G01 X17.007853 Y79.950280 Z-3.000000 F500.000000
G01 X17.007853 Y19.603950 Z-3.000000
G00 Z2.000000

(End cutting path id: path4184)


(Start cutting path id: path3437)
(Change tool to Cylindrical cutter)

G00 Z2.000000
G00 X11.508821 Y127.874970

G01 Z-3.000000 F100.0(Penetrate)
G01 X11.509351 Y117.515080 Z-3.000000 F500.000000
G00 Z2.000000

(End cutting path id: path3437)


(Start cutting path id: path3435)
(Change tool to Cylindrical cutter)

G00 Z2.000000
G00 X1.664502 Y128.245670

G01 Z-3.000000 F100.0(Penetrate)
G01 X1.665032 Y117.885780 Z-3.000000 F500.000000
G00 Z2.000000

(End cutting path id: path3435)


(Start cutting path id: path3426)
(Change tool to Cylindrical cutter)

G00 Z2.000000
G00 X7.757479 Y112.563830

G01 Z-3.000000 F100.0(Penetrate)
G01 X7.756949 Y102.203970 Z-3.000000 F500.000000
G00 Z2.000000

(End cutting path id: path3426)


(Start cutting path id: path3403)
(Change tool to Cylindrical cutter)

G00 Z2.000000
G00 X18.069354 Y112.660410

G01 Z-3.000000 F100.0(Penetrate)
G01 X18.068824 Y102.300550 Z-3.000000 F500.000000
G00 Z2.000000

(End cutting path id: path3403)


(Footer)
M5
G00 X0.0000 Y0.0000
M2
(Using default footer. To add your own footer create file "footer" in the output dir.)
(end)
%