%
(Header)
(Generated by gcodetools from Inkscape.)
(Using default header. To add your own header create file "header" in the output dir.)
M3
(Header end.)
G21 (All units in mm)

(Start cutting path id: path3441)
(Change tool to Cylindrical cutter)

G00 Z2.000000
G00 X18.008987 Y117.015620

G01 Z-3.000000 F100.0(Penetrate)
G01 X16.648329 Y117.015250 Z-3.000000 F500.000000
G01 X12.897803 Y117.014250 Z-3.000000
G01 X11.537144 Y117.013880 Z-3.000000
G00 Z2.000000

(End cutting path id: path3441)


(Start cutting path id: path3439)
(Change tool to Cylindrical cutter)

G00 Z2.000000
G00 X8.164687 Y117.386280

G01 Z-3.000000 F100.0(Penetrate)
G01 X6.804021 Y117.385920 Z-3.000000 F500.000000
G01 X3.053472 Y117.384920 Z-3.000000
G01 X1.692806 Y117.384560 Z-3.000000
G00 Z2.000000

(End cutting path id: path3439)


(Start cutting path id: path3429)
(Change tool to Cylindrical cutter)

G00 Z2.000000
G00 X1.257325 Y101.704540

G01 Z-3.000000 F100.0(Penetrate)
G01 X2.637292 Y101.704150 Z-3.000000 F500.000000
G01 X6.441042 Y101.703150 Z-3.000000
G01 X7.821009 Y101.702760 Z-3.000000
G00 Z2.000000

(End cutting path id: path3429)


(Start cutting path id: path2530-3)
(Change tool to Cylindrical cutter)

G00 Z2.000000
G00 X11.569214 Y101.801150

G01 Z-3.000000 F100.0(Penetrate)
G01 X12.949278 Y101.800760 Z-3.000000 F500.000000
G01 X16.753294 Y101.799760 Z-3.000000
G01 X18.133358 Y101.799370 Z-3.000000
G00 Z2.000000

(End cutting path id: path2530-3)


(Start cutting path id: path4914)
(Change tool to Cylindrical cutter)

G00 Z2.000000
G00 X30.975479 Y61.001710

G01 Z-3.000000 F100.0(Penetrate)
G01 X30.975479 Y18.905430 Z-3.000000 F500.000000
G00 Z2.000000

(End cutting path id: path4914)


(Start cutting path id: path4928)
(Change tool to Cylindrical cutter)

G00 Z2.000000
G00 X39.540422 Y61.001710

G01 Z-3.000000 F100.0(Penetrate)
G01 X30.975476 Y61.001710 Z-3.000000 F500.000000
G00 Z2.000000

(End cutting path id: path4928)


(Start cutting path id: path4912)
(Change tool to Cylindrical cutter)

G00 Z2.000000
G00 X21.025606 Y82.340560

G01 Z-3.000000 F100.0(Penetrate)
G01 X21.025606 Y68.874270 Z-3.000000 F500.000000
G01 X21.025606 Y48.103530 Z-3.000000
G01 X21.025606 Y39.058780 Z-3.000000
G01 X21.025606 Y29.893600 Z-3.000000
G01 X21.025606 Y18.306980 Z-3.000000
G00 Z2.000000

(End cutting path id: path4912)


(Start cutting path id: path4910)
(Change tool to Cylindrical cutter)

G00 Z2.000000
G00 X39.525365 Y136.347490

G01 Z-3.000000 F100.0(Penetrate)
G01 X21.025606 Y136.347490 Z-3.000000 F500.000000
G01 X21.025606 Y94.174080 Z-3.000000
G00 Z2.000000

(End cutting path id: path4910)


(Start cutting path id: path4947)
(Change tool to Cylindrical cutter)

G00 Z2.000000
G00 X17.007853 Y94.632670

G01 Z-3.000000 F100.0(Penetrate)
G01 X8.442906 Y94.632670 Z-3.000000 F500.000000
G00 Z2.000000

(End cutting path id: path4947)


(Start cutting path id: path4214)
(Change tool to Cylindrical cutter)

G00 Z2.000000
G00 X-1.491907 Y19.103960

G01 Z-3.000000 F100.0(Penetrate)
G01 X17.007853 Y19.103960 Z-3.000000 F500.000000
G00 Z2.000000

(Change tool to Cylindrical cutter)

G00 Z2.000000
G00 X-1.491907 Y47.146480

G01 Z-3.000000 F100.0(Penetrate)
G01 X-1.491907 Y19.103960 Z-3.000000 F500.000000
G00 Z2.000000

(End cutting path id: path4214)


(Start cutting path id: path4212)
(Change tool to Cylindrical cutter)

G00 Z2.000000
G00 X-1.491907 Y94.437450

G01 Z-3.000000 F100.0(Penetrate)
G01 X-1.491907 Y86.980200 Z-3.000000 F500.000000
G01 X-1.491907 Y75.477960 Z-3.000000
G01 X-1.491907 Y70.469230 Z-3.000000
G01 X-1.491907 Y65.393820 Z-3.000000
G01 X-1.491907 Y58.977480 Z-3.000000
G00 Z2.000000

(End cutting path id: path4212)


(Footer)
M5
G00 X0.0000 Y0.0000
M2
(Using default footer. To add your own footer create file "footer" in the output dir.)
(end)
%