%
(Header)
(Generated by gcodetools from Inkscape.)
(Using default header. To add your own header create file "header" in the output dir.)
M3
(Header end.)
G21 (All units in mm)

(Start cutting path id: path4585-2)
(Change tool to Cylindrical cutter)

G00 Z2.000000
G00 X34.089549 Y72.331290

G01 Z-3.000000 F100.0(Penetrate)
G01 X17.021129 Y72.331290 Z-3.000000 F400.000000
G00 Z2.000000

(End cutting path id: path4585-2)


(Start cutting path id: path4581-5)
(Change tool to Cylindrical cutter)

G00 Z2.000000
G00 X33.713769 Y82.281160

G01 Z-3.000000 F100.0(Penetrate)
G01 X30.509619 Y82.281160 Z-3.000000 F400.000000
G01 X25.270299 Y82.281160 Z-3.000000
G01 X22.750249 Y82.281160 Z-3.000000
G01 X20.196639 Y82.281160 Z-3.000000
G01 X16.968379 Y82.281160 Z-3.000000
G00 Z2.000000

(End cutting path id: path4581-5)


(Start cutting path id: path17473)
(Change tool to Cylindrical cutter)

G00 Z2.000000
G00 X33.892670 Y68.328667

G01 Z-3.000000 F100.0(Penetrate)
G01 X15.392900 Y68.328667 Z-3.000000 F400.000000
G00 Z2.000000

(End cutting path id: path17473)


(Start cutting path id: path17473)
(Change tool to Cylindrical cutter)

G00 Z2.000000
G00 X15.392900 Y68.328667

G01 Z-3.000000 F100.0(Penetrate)
G01 X15.392900 Y52.478837 Z-3.000000 F400.000000
G00 Z2.000000

(End cutting path id: path17473)


(Start cutting path id: path17473)
(Change tool to Cylindrical cutter)

G00 Z2.000000
G00 X15.392900 Y52.478837

G01 Z-3.000000 F100.0(Penetrate)
G01 X28.092740 Y52.478837 Z-3.000000 F400.000000
G00 Z2.000000

(End cutting path id: path17473)


(Start cutting path id: path17473)
(Change tool to Cylindrical cutter)

G00 Z2.000000
G00 X28.092740 Y52.478837

G01 Z-3.000000 F100.0(Penetrate)
G01 X28.092740 Y39.074827 Z-3.000000 F400.000000
G00 Z2.000000

(End cutting path id: path17473)


(Start cutting path id: path17473)
(Change tool to Cylindrical cutter)

G00 Z2.000000
G00 X28.092740 Y39.074827

G01 Z-3.000000 F100.0(Penetrate)
G01 X15.392900 Y39.074827 Z-3.000000 F400.000000
G00 Z2.000000

(End cutting path id: path17473)


(Start cutting path id: path17473)
(Change tool to Cylindrical cutter)

G00 Z2.000000
G00 X15.392900 Y39.074827

G01 Z-3.000000 F100.0(Penetrate)
G01 X15.392900 Y22.137944 Z-3.000000 F400.000000
G00 Z2.000000

(End cutting path id: path17473)


(Footer)
M5
G00 X0.0000 Y0.0000
M2
(Using default footer. To add your own footer create file "footer" in the output dir.)
(end)
%