%
(Header)
(Generated by gcodetools from Inkscape.)
(Using default header. To add your own header create file "header" in the output dir.)
M3
(Header end.)
G21 (All units in mm)

(Start cutting path id: path4170)
(Change tool to Cylindrical cutter)

G00 Z2.000000
G00 X-14.515273 Y90.665900

G01 Z-2.750000 F100.0(Penetrate)
G01 X-32.515043 Y90.665900 Z-2.750000 F400.000000
G00 Z2.000000

(End cutting path id: path4170)


(Start cutting path id: path4168)
(Change tool to Cylindrical cutter)

G00 Z2.000000
G00 X-23.565163 Y118.845450

G01 Z-2.750000 F100.0(Penetrate)
G01 X-32.515043 Y118.845450 Z-2.750000 F400.000000
G00 Z2.000000

(End cutting path id: path4168)


(Start cutting path id: path4206)
(Change tool to Cylindrical cutter)

G00 Z2.000000
G00 X14.595270 Y76.793020

G01 Z-2.750000 F100.0(Penetrate)
G01 X14.595270 Y58.793240 Z-2.750000 F400.000000
G00 Z2.000000

(End cutting path id: path4206)


(Start cutting path id: path4204)
(Change tool to Cylindrical cutter)

G00 Z2.000000
G00 X-0.879410 Y76.793020

G01 Z-2.750000 F100.0(Penetrate)
G01 X-0.879410 Y58.793240 Z-2.750000 F400.000000
G00 Z2.000000

(End cutting path id: path4204)


(Start cutting path id: path4202)
(Change tool to Cylindrical cutter)

G00 Z2.000000
G00 X7.351129 Y48.729710

G01 Z-2.750000 F100.0(Penetrate)
G01 X7.351129 Y43.429770 Z-2.750000 F400.000000
G00 Z2.000000

(End cutting path id: path4202)


(Footer)
M5
G00 X0.0000 Y0.0000
M2
(Using default footer. To add your own footer create file "footer" in the output dir.)
(end)
%