%
(Header)
(Generated by gcodetools from Inkscape.)
(Using default header. To add your own header create file "header" in the output dir.)
M3
(Header end.)
G21 (All units in mm)

(Start cutting path id: path4182)
(Change tool to Cylindrical cutter)

G00 Z2.000000
G00 X-7.376110 Y76.793020

G01 Z-3.000000 F100.0(Penetrate)
G01 X-3.598333 Y76.793020 Z-3.000000 F400.000000
G01 X13.120254 Y76.793020 Z-3.000000
G01 X32.945020 Y76.793020 Z-3.000000
G00 Z2.000000

(End cutting path id: path4182)


(Start cutting path id: path17477)
(Change tool to Cylindrical cutter)

G00 Z2.000000
G00 X-7.498701 Y48.729710

G01 Z-3.000000 F100.0(Penetrate)
G01 X7.351129 Y48.729710 Z-3.000000 F400.000000
G01 X35.159139 Y48.729710 Z-3.000000
G00 Z2.000000

(End cutting path id: path17477)


(Start cutting path id: path4166)
(Change tool to Cylindrical cutter)

G00 Z2.000000
G00 X-23.027807 Y147.945100

G01 Z-3.000000 F100.0(Penetrate)
G01 X-32.515043 Y147.945100 Z-3.000000 F400.000000
G00 Z2.000000

(End cutting path id: path4166)


(Start cutting path id: path4184)
(Change tool to Cylindrical cutter)

G00 Z2.000000
G00 X-14.515273 Y104.848850

G01 Z-3.000000 F100.0(Penetrate)
G01 X-14.515273 Y90.665900 Z-3.000000 F400.000000
G01 X-14.515273 Y30.319560 Z-3.000000
G00 Z2.000000

(End cutting path id: path4184)


(Start cutting path id: path4180)
(Change tool to Cylindrical cutter)

G00 Z2.000000
G00 X-14.515273 Y222.290904

G01 Z-3.000000 F100.0(Penetrate)
G01 X-14.515273 Y147.945100 Z-3.000000 F400.000000
G00 Z2.000000

(End cutting path id: path4180)


(Start cutting path id: path4196)
(Change tool to Cylindrical cutter)

G00 Z2.000000
G00 X-3.470076 Y89.832330

G01 Z-3.000000 F100.0(Penetrate)
G01 X-3.470076 Y100.192970 Z-3.000000 F400.000000
G01 X3.029844 Y100.192970 Z-3.000000
G01 X3.029844 Y106.692880 Z-3.000000
G01 X20.946274 Y106.692080 Z-3.000000
G01 X20.946274 Y100.192170 Z-3.000000
G01 X27.446194 Y100.192170 Z-3.000000
G01 X27.446194 Y89.832290 Z-3.000000
G00 Z2.000000

(End cutting path id: path4196)


(Start cutting path id: path4194)
(Change tool to Cylindrical cutter)

G00 Z2.000000
G00 X-2.595655 Y125.525350

G01 Z-3.000000 F100.0(Penetrate)
G01 X-2.595125 Y135.885980 Z-3.000000 F400.000000
G01 X3.904785 Y135.885710 Z-3.000000
G01 X3.905055 Y142.385620 Z-3.000000
G01 X21.821475 Y142.383620 Z-3.000000
G01 X21.821215 Y135.883710 Z-3.000000
G01 X28.321135 Y135.883440 Z-3.000000
G01 X28.320605 Y125.523580 Z-3.000000
G00 Z2.000000

(End cutting path id: path4194)


(Footer)
M5
G00 X0.0000 Y0.0000
M2
(Using default footer. To add your own footer create file "footer" in the output dir.)
(end)
%