%
(Header)
(Generated by gcodetools from Inkscape.)
(Using default header. To add your own header create file "header" in the output dir.)
M3
(Header end.)
G21 (All units in mm)

(Start cutting path id: path4172-2)
(Change tool to Cylindrical cutter)

G00 Z2.000000
G00 X7.380216 Y76.793020

G01 Z-3.000000 F100.0(Penetrate)
G01 X7.380216 Y58.793240 Z-3.000000 F400.000000
G00 Z2.000000

(End cutting path id: path4172-2)


(Start cutting path id: path4172)
(Change tool to Cylindrical cutter)

G00 Z2.000000
G00 X-35.155033 Y48.729710

G01 Z-3.000000 F100.0(Penetrate)
G01 X-35.155033 Y30.729930 Z-3.000000 F400.000000
G00 Z2.000000

(End cutting path id: path4172)


(Start cutting path id: path4200)
(Change tool to Cylindrical cutter)

G00 Z2.000000
G00 X23.052191 Y104.848850

G01 Z-3.000000 F100.0(Penetrate)
G01 X32.519149 Y104.848850 Z-3.000000 F400.000000
G00 Z2.000000

(End cutting path id: path4200)


(Start cutting path id: path4188)
(Change tool to Cylindrical cutter)

G00 Z2.000000
G00 X32.519149 Y54.819380

G01 Z-3.000000 F100.0(Penetrate)
G01 X25.163989 Y54.819380 Z-3.000000 F400.000000
G01 X25.163199 Y72.735800 Z-3.000000
G01 X32.523879 Y72.735800 Z-3.000000
G00 Z2.000000

(End cutting path id: path4188)


(Start cutting path id: path4186)
(Change tool to Cylindrical cutter)

G00 Z2.000000
G00 X32.519149 Y183.657680

G01 Z-3.000000 F100.0(Penetrate)
G01 X22.158519 Y183.657680 Z-3.000000 F400.000000
G01 X22.159309 Y165.741260 Z-3.000000
G01 X32.519179 Y165.741260 Z-3.000000
G00 Z2.000000

(End cutting path id: path4186)


(Footer)
M5
G00 X0.0000 Y0.0000
M2
(Using default footer. To add your own footer create file "footer" in the output dir.)
(end)
%