%
(Header)
(Generated by gcodetools from Inkscape.)
(Using default header. To add your own header create file "header" in the output dir.)
M3
(Header end.)
G21 (All units in mm)

(Start cutting path id: path4176)
(Change tool to Cylindrical cutter)

G00 Z2.000000
G00 X-3.900159 Y125.525080

G01 Z-2.750000 F100.0(Penetrate)
G01 X-3.900689 Y135.885700 Z-2.750000 F400.000000
G01 X-21.817109 Y135.883700 Z-2.750000
G01 X-21.816579 Y125.523840 Z-2.750000
G00 Z2.000000

(End cutting path id: path4176)


(Start cutting path id: path4174)
(Change tool to Cylindrical cutter)

G00 Z2.000000
G00 X-3.025738 Y89.832330

G01 Z-2.750000 F100.0(Penetrate)
G01 X-3.025738 Y100.192970 Z-2.750000 F400.000000
G01 X-20.942168 Y100.192180 Z-2.750000
G01 X-20.942168 Y89.832300 Z-2.750000
G00 Z2.000000

(End cutting path id: path4174)


(Footer)
M5
G00 X0.0000 Y0.0000
M2
(Using default footer. To add your own footer create file "footer" in the output dir.)
(end)
%