%
(Header)
(Generated by gcodetools from Inkscape.)
(Using default header. To add your own header create file "header" in the output dir.)
M3
(Header end.)
G21 (All units in mm)

(Start cutting path id: path4200-8-4)
(Change tool to Cylindrical cutter)

G00 Z2.000000
G00 X14.504322 Y147.445110

G01 Z-3.000000 F100.0(Penetrate)
G01 X23.069269 Y147.445110 Z-3.000000 F400.000000
G00 Z2.000000

(End cutting path id: path4200-8-4)


(Start cutting path id: path4200-8)
(Change tool to Cylindrical cutter)

G00 Z2.000000
G00 X14.519379 Y105.348290

G01 Z-3.000000 F100.0(Penetrate)
G01 X23.084326 Y105.348290 Z-3.000000 F400.000000
G00 Z2.000000

(End cutting path id: path4200-8)


(Start cutting path id: path4310)
(Change tool to Cylindrical cutter)

G00 Z2.000000
G00 X2.599781 Y125.025360

G01 Z-3.000000 F100.0(Penetrate)
G01 X-3.900139 Y125.025100 Z-3.000000 F400.000000
G01 X-21.816559 Y125.024300 Z-3.000000
G01 X-28.316479 Y125.024040 Z-3.000000
G00 Z2.000000

(End cutting path id: path4310)


(Start cutting path id: path4308)
(Change tool to Cylindrical cutter)

G00 Z2.000000
G00 X3.474182 Y89.332330

G01 Z-3.000000 F100.0(Penetrate)
G01 X-3.025738 Y89.332330 Z-3.000000 F400.000000
G01 X-20.942168 Y89.332330 Z-3.000000
G01 X-27.442088 Y89.332330 Z-3.000000
G00 Z2.000000

(End cutting path id: path4308)


(Start cutting path id: path4218)
(Change tool to Cylindrical cutter)

G00 Z2.000000
G00 X23.069269 Y147.445110

G01 Z-3.000000 F100.0(Penetrate)
G01 X23.069269 Y105.348840 Z-3.000000 F400.000000
G00 Z2.000000

(End cutting path id: path4218)


(Start cutting path id: path4216)
(Change tool to Cylindrical cutter)

G00 Z2.000000
G00 X7.659810 Y58.293250

G01 Z-3.000000 F100.0(Penetrate)
G01 X0.883516 Y58.293250 Z-3.000000 F400.000000
G01 X-14.591164 Y58.293250 Z-3.000000
G01 X-33.440914 Y58.293250 Z-3.000000
G01 X-33.440914 Y76.793020 Z-3.000000
G00 Z2.000000

(End cutting path id: path4216)


(Start cutting path id: path17473)
(Change tool to Cylindrical cutter)

G00 Z2.000000
G00 X8.002807 Y48.729710

G01 Z-3.000000 F100.0(Penetrate)
G01 X8.002807 Y30.229940 Z-3.000000 F400.000000
G01 X-7.347023 Y30.229940 Z-3.000000
G01 X-7.347023 Y42.929780 Z-3.000000
G01 X-21.251033 Y42.929780 Z-3.000000
G01 X-21.251033 Y30.229940 Z-3.000000
G01 X-35.155033 Y30.229940 Z-3.000000
G00 Z2.000000

(End cutting path id: path17473)


(Start cutting path id: path4214)
(Change tool to Cylindrical cutter)

G00 Z2.000000
G00 X33.019139 Y54.819380

G01 Z-3.000000 F100.0(Penetrate)
G01 X33.019139 Y29.819570 Z-3.000000 F400.000000
G01 X14.519379 Y29.819570 Z-3.000000
G00 Z2.000000

(End cutting path id: path4214)


(Start cutting path id: path4212)
(Change tool to Cylindrical cutter)

G00 Z2.000000
G00 X33.019139 Y165.741260

G01 Z-3.000000 F100.0(Penetrate)
G01 X33.019139 Y147.945100 Z-3.000000 F400.000000
G01 X33.019139 Y118.845450 Z-3.000000
G01 X33.019139 Y104.848850 Z-3.000000
G01 X33.019139 Y90.665900 Z-3.000000
G01 X33.019139 Y72.735800 Z-3.000000
G00 Z2.000000

(End cutting path id: path4212)


(Start cutting path id: path4210)
(Change tool to Cylindrical cutter)

G00 Z2.000000
G00 X14.519379 Y222.790894

G01 Z-3.000000 F100.0(Penetrate)
G01 X33.019139 Y222.790894 Z-3.000000 F400.000000
G01 X33.019139 Y183.657680 Z-3.000000
G00 Z2.000000

(End cutting path id: path4210)


(Footer)
M5
G00 X0.0000 Y0.0000
M2
(Using default footer. To add your own footer create file "footer" in the output dir.)
(end)
%