%
(Header)
(Generated by gcodetools from Inkscape.)
(Using default header. To add your own header create file "header" in the output dir.)
M3
(Header end.)
G21 (All units in mm)

(Start cutting path id: path3548)
(Change tool to Cylindrical cutter)

G00 Z2.000000
G00 X7.391738 Y29.303670

G01 Z-3.000000 F100.0(Penetrate)
G01 X25.308158 Y29.302870 Z-3.000000 F400.000000
G00 Z2.000000

(End cutting path id: path3548)


(Start cutting path id: path3458)
(Change tool to Cylindrical cutter)

G00 Z2.000000
G00 X-31.954105 Y46.766280

G01 Z-3.000000 F100.0(Penetrate)
G01 X-14.037685 Y46.765480 Z-3.000000 F400.000000
G00 Z2.000000

(End cutting path id: path3458)


(Start cutting path id: path3441)
(Change tool to Cylindrical cutter)

G00 Z2.000000
G00 X-17.225904 Y27.229020

G01 Z-3.000000 F100.0(Penetrate)
G01 X-18.586629 Y27.228760 Z-3.000000 F400.000000
G01 X-22.337340 Y27.227960 Z-3.000000
G01 X-23.698065 Y27.227700 Z-3.000000
G00 Z2.000000

(End cutting path id: path3441)


(Start cutting path id: path3439)
(Change tool to Cylindrical cutter)

G00 Z2.000000
G00 X-26.221743 Y27.229020

G01 Z-3.000000 F100.0(Penetrate)
G01 X-27.582468 Y27.228760 Z-3.000000 F400.000000
G01 X-31.333179 Y27.227960 Z-3.000000
G01 X-32.693904 Y27.227700 Z-3.000000
G00 Z2.000000

(End cutting path id: path3439)


(Start cutting path id: path3429)
(Change tool to Cylindrical cutter)

G00 Z2.000000
G00 X-14.730261 Y27.391710

G01 Z-3.000000 F100.0(Penetrate)
G01 X-13.369536 Y27.391450 Z-3.000000 F400.000000
G01 X-9.618825 Y27.390650 Z-3.000000
G01 X-8.258100 Y27.390390 Z-3.000000
G00 Z2.000000

(End cutting path id: path3429)


(Start cutting path id: path2530-3)
(Change tool to Cylindrical cutter)

G00 Z2.000000
G00 X-5.734422 Y27.391710

G01 Z-3.000000 F100.0(Penetrate)
G01 X-4.373697 Y27.391450 Z-3.000000 F400.000000
G01 X-0.622986 Y27.390650 Z-3.000000
G01 X0.737739 Y27.390390 Z-3.000000
G00 Z2.000000

(End cutting path id: path2530-3)


(Footer)
M5
G00 X0.0000 Y0.0000
M2
(Using default footer. To add your own footer create file "footer" in the output dir.)
(end)
%