%
(Header)
(Generated by gcodetools from Inkscape.)
(Using default header. To add your own header create file "header" in the output dir.)
M3
(Header end.)
G21 (All units in mm)

(Start cutting path id: path3561)
(Change tool to Cylindrical cutter)

G00 Z2.000000
G00 X32.058972 Y56.366410

G01 Z-3.000000 F100.0(Penetrate)
G01 X32.058712 Y49.866490 Z-3.000000 F400.000000
G00 Z2.000000

(End cutting path id: path3561)


(Start cutting path id: path3559)
(Change tool to Cylindrical cutter)

G00 Z2.000000
G00 X14.142552 Y56.368410

G01 Z-3.000000 F100.0(Penetrate)
G01 X32.058972 Y56.366410 Z-3.000000 F400.000000
G00 Z2.000000

(End cutting path id: path3559)


(Start cutting path id: path3557)
(Change tool to Cylindrical cutter)

G00 Z2.000000
G00 X14.142282 Y49.868490

G01 Z-3.000000 F100.0(Penetrate)
G01 X14.142552 Y56.368410 Z-3.000000 F400.000000
G00 Z2.000000

(End cutting path id: path3557)


(Start cutting path id: path3504)
(Change tool to Cylindrical cutter)

G00 Z2.000000
G00 X8.763141 Y56.366410

G01 Z-3.000000 F100.0(Penetrate)
G01 X8.762881 Y49.866490 Z-3.000000 F400.000000
G00 Z2.000000

(End cutting path id: path3504)


(Start cutting path id: path3502)
(Change tool to Cylindrical cutter)

G00 Z2.000000
G00 X-9.153279 Y56.368410

G01 Z-3.000000 F100.0(Penetrate)
G01 X8.763141 Y56.366410 Z-3.000000 F400.000000
G00 Z2.000000

(End cutting path id: path3502)


(Start cutting path id: path3500)
(Change tool to Cylindrical cutter)

G00 Z2.000000
G00 X-9.153549 Y49.868490

G01 Z-3.000000 F100.0(Penetrate)
G01 X-9.153279 Y56.368410 Z-3.000000 F400.000000
G00 Z2.000000

(End cutting path id: path3500)


(Start cutting path id: path3437)
(Change tool to Cylindrical cutter)

G00 Z2.000000
G00 X-23.726227 Y38.088650

G01 Z-3.000000 F100.0(Penetrate)
G01 X-23.725697 Y27.728760 Z-3.000000 F400.000000
G00 Z2.000000

(End cutting path id: path3437)


(Start cutting path id: path3435)
(Change tool to Cylindrical cutter)

G00 Z2.000000
G00 X-32.722066 Y38.088650

G01 Z-3.000000 F100.0(Penetrate)
G01 X-32.721536 Y27.728760 Z-3.000000 F400.000000
G00 Z2.000000

(End cutting path id: path3435)


(Start cutting path id: path3426)
(Change tool to Cylindrical cutter)

G00 Z2.000000
G00 X-8.229938 Y38.251310

G01 Z-3.000000 F100.0(Penetrate)
G01 X-8.230468 Y27.891450 Z-3.000000 F400.000000
G00 Z2.000000

(End cutting path id: path3426)


(Start cutting path id: path3403)
(Change tool to Cylindrical cutter)

G00 Z2.000000
G00 X0.765901 Y38.251310

G01 Z-3.000000 F100.0(Penetrate)
G01 X0.765371 Y27.891450 Z-3.000000 F400.000000
G00 Z2.000000

(End cutting path id: path3403)


(Footer)
M5
G00 X0.0000 Y0.0000
M2
(Using default footer. To add your own footer create file "footer" in the output dir.)
(end)
%