%
(Header)
(Generated by gcodetools from Inkscape.)
(Using default header. To add your own header create file "header" in the output dir.)
M3
(Header end.)
G21 (All units in mm)

(Start cutting path id: path3563)
(Change tool to Cylindrical cutter)

G00 Z2.000000
G00 X-14.135386 Y47.868470

G01 Z-3.000000 F100.0(Penetrate)
G01 X-32.051806 Y47.866470 Z-3.000000 F400.000000
G00 Z2.000000

(End cutting path id: path3563)


(Start cutting path id: path3555)
(Change tool to Cylindrical cutter)

G00 Z2.000000
G00 X-25.301802 Y40.162270

G01 Z-3.000000 F100.0(Penetrate)
G01 X-25.301272 Y29.802410 Z-3.000000 F400.000000
G00 Z2.000000

(End cutting path id: path3555)


(Start cutting path id: path3552)
(Change tool to Cylindrical cutter)

G00 Z2.000000
G00 X-7.385382 Y40.164270

G01 Z-3.000000 F100.0(Penetrate)
G01 X-25.301802 Y40.162270 Z-3.000000 F400.000000
G00 Z2.000000

(End cutting path id: path3552)


(Start cutting path id: path3550)
(Change tool to Cylindrical cutter)

G00 Z2.000000
G00 X-7.384852 Y29.803650

G01 Z-3.000000 F100.0(Penetrate)
G01 X-7.385382 Y40.164270 Z-3.000000 F400.000000
G00 Z2.000000

(End cutting path id: path3550)


(Start cutting path id: path3506)
(Change tool to Cylindrical cutter)

G00 Z2.000000
G00 X9.160445 Y47.868470

G01 Z-3.000000 F100.0(Penetrate)
G01 X-8.755975 Y47.866470 Z-3.000000 F400.000000
G00 Z2.000000

(End cutting path id: path3506)


(Start cutting path id: path3460)
(Change tool to Cylindrical cutter)

G00 Z2.000000
G00 X14.044041 Y57.624880

G01 Z-3.000000 F100.0(Penetrate)
G01 X14.044571 Y47.265020 Z-3.000000 F400.000000
G00 Z2.000000

(End cutting path id: path3460)


(Start cutting path id: path3496)
(Change tool to Cylindrical cutter)

G00 Z2.000000
G00 X31.960461 Y57.626880

G01 Z-3.000000 F100.0(Penetrate)
G01 X14.044041 Y57.624880 Z-3.000000 F400.000000
G00 Z2.000000

(End cutting path id: path3496)


(Start cutting path id: path3498)
(Change tool to Cylindrical cutter)

G00 Z2.000000
G00 X31.960991 Y47.266260

G01 Z-3.000000 F100.0(Penetrate)
G01 X31.960461 Y57.626880 Z-3.000000 F400.000000
G00 Z2.000000

(End cutting path id: path3498)


(Start cutting path id: path3445)
(Change tool to Cylindrical cutter)

G00 Z2.000000
G00 X17.233213 Y38.088910

G01 Z-3.000000 F100.0(Penetrate)
G01 X17.232683 Y27.729020 Z-3.000000 F400.000000
G00 Z2.000000

(End cutting path id: path3445)


(Start cutting path id: path3443)
(Change tool to Cylindrical cutter)

G00 Z2.000000
G00 X26.229052 Y38.088910

G01 Z-3.000000 F100.0(Penetrate)
G01 X26.228522 Y27.729020 Z-3.000000 F400.000000
G00 Z2.000000

(End cutting path id: path3443)


(Start cutting path id: path3431)
(Change tool to Cylindrical cutter)

G00 Z2.000000
G00 X14.736764 Y38.251570

G01 Z-3.000000 F100.0(Penetrate)
G01 X14.737294 Y27.891710 Z-3.000000 F400.000000
G00 Z2.000000

(End cutting path id: path3431)


(Start cutting path id: path3406)
(Change tool to Cylindrical cutter)

G00 Z2.000000
G00 X5.740925 Y38.251570

G01 Z-3.000000 F100.0(Penetrate)
G01 X5.741455 Y27.891710 Z-3.000000 F400.000000
G00 Z2.000000

(End cutting path id: path3406)


(Start cutting path id: path3450)
(Change tool to Cylindrical cutter)

G00 Z2.000000
G00 X17.233213 Y41.088940

G01 Z-3.000000 F100.0(Penetrate)
G01 X23.733133 Y41.088670 Z-3.000000 F400.000000
G00 Z2.000000

(End cutting path id: path3450)


(Start cutting path id: path3448)
(Change tool to Cylindrical cutter)

G00 Z2.000000
G00 X26.229052 Y41.088940

G01 Z-3.000000 F100.0(Penetrate)
G01 X32.728972 Y41.088670 Z-3.000000 F400.000000
G00 Z2.000000

(End cutting path id: path3448)


(Start cutting path id: path3433)
(Change tool to Cylindrical cutter)

G00 Z2.000000
G00 X14.736764 Y41.251580

G01 Z-3.000000 F100.0(Penetrate)
G01 X8.236844 Y41.251310 Z-3.000000 F400.000000
G00 Z2.000000

(End cutting path id: path3433)


(Start cutting path id: path3408)
(Change tool to Cylindrical cutter)

G00 Z2.000000
G00 X5.740925 Y41.251580

G01 Z-3.000000 F100.0(Penetrate)
G01 X-0.758995 Y41.251310 Z-3.000000 F400.000000
G00 Z2.000000

(End cutting path id: path3408)


(Footer)
M5
G00 X0.0000 Y0.0000
M2
(Using default footer. To add your own footer create file "footer" in the output dir.)
(end)
%