%
(Header)
(Generated by gcodetools from Inkscape.)
(Using default header. To add your own header create file "header" in the output dir.)
M3
(Header end.)
G21 (All units in mm)

(Start cutting path id: path12072)
(Change tool to Cylindrical cutter)

G00 Z2.000000
G00 X0.192177 Y745.204010

G01 Z-0.650000 F100.0(Penetrate)
G01 X0.192177 Y0.204020 Z-0.650000 F1500.000000
G01 X770.192190 Y0.204020 Z-0.650000
G01 X770.192190 Y745.204010 Z-0.650000
G01 X0.192177 Y745.204010 Z-0.650000
G00 Z2.000000

(End cutting path id: path12072)


(Start cutting path id: path12072)
(Change tool to Cylindrical cutter)

G00 Z2.000000
G00 X6.192177 Y6.204030

G01 Z-0.650000 F100.0(Penetrate)
G01 X764.192160 Y6.204030 Z-0.650000 F1500.000000
G01 X764.192160 Y739.204030 Z-0.650000
G01 X6.192177 Y739.204030 Z-0.650000
G01 X6.192177 Y6.204030 Z-0.650000
G00 Z2.000000

(End cutting path id: path12072)


(Start cutting path id: path12072)
(Change tool to Cylindrical cutter)

G00 Z2.000000
G00 X758.192150 Y12.204010

G01 Z-0.650000 F100.0(Penetrate)
G01 X758.192150 Y733.204020 Z-0.650000 F1500.000000
G01 X12.192177 Y733.204020 Z-0.650000
G01 X12.192177 Y12.204010 Z-0.650000
G01 X758.192150 Y12.204010 Z-0.650000
G00 Z2.000000

(End cutting path id: path12072)


(Start cutting path id: path12072)
(Change tool to Cylindrical cutter)

G00 Z2.000000
G00 X752.192170 Y18.204020

G01 Z-0.650000 F100.0(Penetrate)
G01 X752.192170 Y727.204040 Z-0.650000 F1500.000000
G01 X18.192177 Y727.204040 Z-0.650000
G01 X18.192177 Y18.204020 Z-0.650000
G01 X752.192170 Y18.204020 Z-0.650000
G00 Z2.000000

(End cutting path id: path12072)


(Start cutting path id: path12072)
(Change tool to Cylindrical cutter)

G00 Z2.000000
G00 X746.192160 Y721.204030

G01 Z-0.650000 F100.0(Penetrate)
G01 X24.192177 Y721.204030 Z-0.650000 F1500.000000
G01 X24.192177 Y24.204030 Z-0.650000
G01 X746.192160 Y24.204030 Z-0.650000
G01 X746.192160 Y721.204030 Z-0.650000
G00 Z2.000000

(End cutting path id: path12072)


(Start cutting path id: path12072)
(Change tool to Cylindrical cutter)

G00 Z2.000000
G00 X740.192170 Y715.204020

G01 Z-0.650000 F100.0(Penetrate)
G01 X30.192177 Y715.204020 Z-0.650000 F1500.000000
G01 X30.192177 Y30.204010 Z-0.650000
G01 X740.192170 Y30.204010 Z-0.650000
G01 X740.192170 Y715.204020 Z-0.650000
G00 Z2.000000

(End cutting path id: path12072)


(Start cutting path id: path12072)
(Change tool to Cylindrical cutter)

G00 Z2.000000
G00 X36.192177 Y36.204020

G01 Z-0.650000 F100.0(Penetrate)
G01 X734.192160 Y36.204020 Z-0.650000 F1500.000000
G01 X734.192160 Y709.204030 Z-0.650000
G01 X36.192177 Y709.204030 Z-0.650000
G01 X36.192177 Y36.204020 Z-0.650000
G00 Z2.000000

(End cutting path id: path12072)


(Start cutting path id: path12072)
(Change tool to Cylindrical cutter)

G00 Z2.000000
G00 X42.192177 Y42.204030

G01 Z-0.650000 F100.0(Penetrate)
G01 X728.192150 Y42.204030 Z-0.650000 F1500.000000
G01 X728.192150 Y703.204030 Z-0.650000
G01 X42.192177 Y703.204030 Z-0.650000
G01 X42.192177 Y42.204030 Z-0.650000
G00 Z2.000000

(End cutting path id: path12072)


(Start cutting path id: path12072)
(Change tool to Cylindrical cutter)

G00 Z2.000000
G00 X48.192177 Y48.204010

G01 Z-0.650000 F100.0(Penetrate)
G01 X722.192170 Y48.204010 Z-0.650000 F1500.000000
G01 X722.192170 Y697.204020 Z-0.650000
G01 X48.192177 Y697.204020 Z-0.650000
G01 X48.192177 Y48.204010 Z-0.650000
G00 Z2.000000

(End cutting path id: path12072)


(Start cutting path id: path12072)
(Change tool to Cylindrical cutter)

G00 Z2.000000
G00 X54.192177 Y691.204030

G01 Z-0.650000 F100.0(Penetrate)
G01 X54.192177 Y54.204020 Z-0.650000 F1500.000000
G01 X716.192160 Y54.204020 Z-0.650000
G01 X716.192160 Y691.204030 Z-0.650000
G01 X54.192177 Y691.204030 Z-0.650000
G00 Z2.000000

(End cutting path id: path12072)


(Start cutting path id: path12072)
(Change tool to Cylindrical cutter)

G00 Z2.000000
G00 X60.192177 Y685.204020

G01 Z-0.650000 F100.0(Penetrate)
G01 X60.192177 Y60.204030 Z-0.650000 F1500.000000
G01 X710.192180 Y60.204030 Z-0.650000
G01 X710.192180 Y685.204020 Z-0.650000
G01 X60.192177 Y685.204020 Z-0.650000
G00 Z2.000000

(End cutting path id: path12072)


(Start cutting path id: path12072)
(Change tool to Cylindrical cutter)

G00 Z2.000000
G00 X66.192177 Y66.204010

G01 Z-0.650000 F100.0(Penetrate)
G01 X704.192170 Y66.204010 Z-0.650000 F1500.000000
G01 X704.192170 Y679.204010 Z-0.650000
G01 X66.192177 Y679.204010 Z-0.650000
G01 X66.192177 Y66.204010 Z-0.650000
G00 Z2.000000

(End cutting path id: path12072)


(Start cutting path id: path12072)
(Change tool to Cylindrical cutter)

G00 Z2.000000
G00 X698.192160 Y72.204020

G01 Z-0.650000 F100.0(Penetrate)
G01 X698.192160 Y673.204030 Z-0.650000 F1500.000000
G01 X72.192177 Y673.204030 Z-0.650000
G01 X72.192177 Y72.204020 Z-0.650000
G01 X698.192160 Y72.204020 Z-0.650000
G00 Z2.000000

(End cutting path id: path12072)


(Start cutting path id: path12072)
(Change tool to Cylindrical cutter)

G00 Z2.000000
G00 X78.192177 Y78.204030

G01 Z-0.650000 F100.0(Penetrate)
G01 X692.192180 Y78.204030 Z-0.650000 F1500.000000
G01 X692.192180 Y667.204020 Z-0.650000
G01 X78.192177 Y667.204020 Z-0.650000
G01 X78.192177 Y78.204030 Z-0.650000
G00 Z2.000000

(End cutting path id: path12072)


(Start cutting path id: path12072)
(Change tool to Cylindrical cutter)

G00 Z2.000000
G00 X84.192177 Y84.204010

G01 Z-0.650000 F100.0(Penetrate)
G01 X686.192170 Y84.204010 Z-0.650000 F1500.000000
G01 X686.192170 Y661.204010 Z-0.650000
G01 X84.192177 Y661.204010 Z-0.650000
G01 X84.192177 Y84.204010 Z-0.650000
G00 Z2.000000

(End cutting path id: path12072)


(Start cutting path id: path12072)
(Change tool to Cylindrical cutter)

G00 Z2.000000
G00 X90.192177 Y655.204030

G01 Z-0.650000 F100.0(Penetrate)
G01 X90.192177 Y90.204020 Z-0.650000 F1500.000000
G01 X680.192190 Y90.204020 Z-0.650000
G01 X680.192190 Y655.204030 Z-0.650000
G01 X90.192177 Y655.204030 Z-0.650000
G00 Z2.000000

(End cutting path id: path12072)


(Start cutting path id: path12072)
(Change tool to Cylindrical cutter)

G00 Z2.000000
G00 X96.192172 Y96.204030

G01 Z-0.650000 F100.0(Penetrate)
G01 X674.192180 Y96.204030 Z-0.650000 F1500.000000
G01 X674.192180 Y649.204020 Z-0.650000
G01 X96.192172 Y649.204020 Z-0.650000
G01 X96.192172 Y96.204030 Z-0.650000
G00 Z2.000000

(End cutting path id: path12072)


(Start cutting path id: path12072)
(Change tool to Cylindrical cutter)

G00 Z2.000000
G00 X668.192200 Y102.204010

G01 Z-0.650000 F100.0(Penetrate)
G01 X668.192200 Y323.289216 Z-0.650000 F1500.000000
G01 X668.192200 Y643.204010 Z-0.650000
G01 X102.192170 Y643.204010 Z-0.650000
G01 X102.192170 Y102.204010 Z-0.650000
G01 X668.192200 Y102.204010 Z-0.650000
G00 Z2.000000

(End cutting path id: path12072)


(Start cutting path id: path12072)
(Change tool to Cylindrical cutter)

G00 Z2.000000
G00 X662.192190 Y637.204030

G01 Z-0.650000 F100.0(Penetrate)
G01 X108.192170 Y637.204030 Z-0.650000 F1500.000000
G01 X108.192170 Y108.204020 Z-0.650000
G01 X662.192190 Y108.204020 Z-0.650000
G01 X662.192190 Y637.204030 Z-0.650000
G00 Z2.000000

(End cutting path id: path12072)


(Start cutting path id: path12072)
(Change tool to Cylindrical cutter)

G00 Z2.000000
G00 X114.192170 Y631.204020

G01 Z-0.650000 F100.0(Penetrate)
G01 X114.192170 Y114.204030 Z-0.650000 F1500.000000
G01 X656.192180 Y114.204030 Z-0.650000
G01 X656.192180 Y631.204020 Z-0.650000
G01 X114.192170 Y631.204020 Z-0.650000
G00 Z2.000000

(End cutting path id: path12072)


(Start cutting path id: path12072)
(Change tool to Cylindrical cutter)

G00 Z2.000000
G00 X120.192170 Y120.204010

G01 Z-0.650000 F100.0(Penetrate)
G01 X650.192190 Y120.204010 Z-0.650000 F1500.000000
G01 X650.192190 Y625.204010 Z-0.650000
G01 X120.192170 Y625.204010 Z-0.650000
G01 X120.192170 Y120.204010 Z-0.650000
G00 Z2.000000

(End cutting path id: path12072)


(Start cutting path id: path12072)
(Change tool to Cylindrical cutter)

G00 Z2.000000
G00 X644.192190 Y126.204020

G01 Z-0.650000 F100.0(Penetrate)
G01 X644.192190 Y619.204030 Z-0.650000 F1500.000000
G01 X126.192170 Y619.204030 Z-0.650000
G01 X126.192170 Y126.204020 Z-0.650000
G01 X644.192190 Y126.204020 Z-0.650000
G00 Z2.000000

(End cutting path id: path12072)


(Start cutting path id: path12072)
(Change tool to Cylindrical cutter)

G00 Z2.000000
G00 X638.192180 Y613.204020

G01 Z-0.650000 F100.0(Penetrate)
G01 X132.192170 Y613.204020 Z-0.650000 F1500.000000
G01 X132.192170 Y132.204030 Z-0.650000
G01 X638.192180 Y132.204030 Z-0.650000
G01 X638.192180 Y613.204020 Z-0.650000
G00 Z2.000000

(End cutting path id: path12072)


(Start cutting path id: path12072)
(Change tool to Cylindrical cutter)

G00 Z2.000000
G00 X632.192190 Y138.204020

G01 Z-0.650000 F100.0(Penetrate)
G01 X632.192190 Y607.204010 Z-0.650000 F1500.000000
G01 X138.192170 Y607.204010 Z-0.650000
G01 X138.192170 Y138.204020 Z-0.650000
G01 X632.192190 Y138.204020 Z-0.650000
G00 Z2.000000

(End cutting path id: path12072)


(Start cutting path id: path12072)
(Change tool to Cylindrical cutter)

G00 Z2.000000
G00 X144.192170 Y144.204030

G01 Z-0.650000 F100.0(Penetrate)
G01 X626.192180 Y144.204030 Z-0.650000 F1500.000000
G01 X626.192180 Y601.204030 Z-0.650000
G01 X144.192170 Y601.204030 Z-0.650000
G01 X144.192170 Y144.204030 Z-0.650000
G00 Z2.000000

(End cutting path id: path12072)


(Start cutting path id: path12072)
(Change tool to Cylindrical cutter)

G00 Z2.000000
G00 X620.192150 Y150.204030

G01 Z-0.650000 F100.0(Penetrate)
G01 X620.192150 Y595.204020 Z-0.650000 F1500.000000
G01 X150.192170 Y595.204020 Z-0.650000
G01 X150.192170 Y150.204030 Z-0.650000
G01 X620.192150 Y150.204030 Z-0.650000
G00 Z2.000000

(End cutting path id: path12072)


(Start cutting path id: path12072)
(Change tool to Cylindrical cutter)

G00 Z2.000000
G00 X156.192170 Y156.204020

G01 Z-0.650000 F100.0(Penetrate)
G01 X614.192190 Y156.204020 Z-0.650000 F1500.000000
G01 X614.192190 Y589.204010 Z-0.650000
G01 X156.192170 Y589.204010 Z-0.650000
G01 X156.192170 Y156.204020 Z-0.650000
G00 Z2.000000

(End cutting path id: path12072)


(Start cutting path id: path12072)
(Change tool to Cylindrical cutter)

G00 Z2.000000
G00 X162.192170 Y162.204030

G01 Z-0.650000 F100.0(Penetrate)
G01 X608.192180 Y162.204030 Z-0.650000 F1500.000000
G01 X608.192180 Y583.204030 Z-0.650000
G01 X162.192170 Y583.204030 Z-0.650000
G01 X162.192170 Y162.204030 Z-0.650000
G00 Z2.000000

(End cutting path id: path12072)


(Start cutting path id: path12072)
(Change tool to Cylindrical cutter)

G00 Z2.000000
G00 X168.192170 Y168.204040

G01 Z-0.650000 F100.0(Penetrate)
G01 X602.192150 Y168.204040 Z-0.650000 F1500.000000
G01 X602.192150 Y577.204020 Z-0.650000
G01 X168.192170 Y577.204020 Z-0.650000
G01 X168.192170 Y168.204040 Z-0.650000
G00 Z2.000000

(End cutting path id: path12072)


(Start cutting path id: path12072)
(Change tool to Cylindrical cutter)

G00 Z2.000000
G00 X174.192170 Y174.204020

G01 Z-0.650000 F100.0(Penetrate)
G01 X596.192190 Y174.204020 Z-0.650000 F1500.000000
G01 X596.192190 Y571.204030 Z-0.650000
G01 X174.192170 Y571.204030 Z-0.650000
G01 X174.192170 Y174.204020 Z-0.650000
G00 Z2.000000

(End cutting path id: path12072)


(Start cutting path id: path12072)
(Change tool to Cylindrical cutter)

G00 Z2.000000
G00 X180.192170 Y565.204020

G01 Z-0.650000 F100.0(Penetrate)
G01 X180.192170 Y180.204030 Z-0.650000 F1500.000000
G01 X590.192160 Y180.204030 Z-0.650000
G01 X590.192160 Y565.204020 Z-0.650000
G01 X180.192170 Y565.204020 Z-0.650000
G00 Z2.000000

(End cutting path id: path12072)


(Start cutting path id: path12072)
(Change tool to Cylindrical cutter)

G00 Z2.000000
G00 X186.192170 Y186.204010

G01 Z-0.650000 F100.0(Penetrate)
G01 X584.192150 Y186.204010 Z-0.650000 F1500.000000
G01 X584.192150 Y559.204020 Z-0.650000
G01 X186.192170 Y559.204020 Z-0.650000
G01 X186.192170 Y186.204010 Z-0.650000
G00 Z2.000000

(End cutting path id: path12072)


(Start cutting path id: path12072)
(Change tool to Cylindrical cutter)

G00 Z2.000000
G00 X192.192170 Y192.204020

G01 Z-0.650000 F100.0(Penetrate)
G01 X578.192190 Y192.204020 Z-0.650000 F1500.000000
G01 X578.192190 Y553.204030 Z-0.650000
G01 X192.192170 Y553.204030 Z-0.650000
G01 X192.192170 Y192.204020 Z-0.650000
G00 Z2.000000

(End cutting path id: path12072)


(Start cutting path id: path12072)
(Change tool to Cylindrical cutter)

G00 Z2.000000
G00 X198.192170 Y198.204030

G01 Z-0.650000 F100.0(Penetrate)
G01 X572.192150 Y198.204030 Z-0.650000 F1500.000000
G01 X572.192150 Y547.204020 Z-0.650000
G01 X198.192170 Y547.204020 Z-0.650000
G01 X198.192170 Y198.204030 Z-0.650000
G00 Z2.000000

(End cutting path id: path12072)


(Start cutting path id: path12072)
(Change tool to Cylindrical cutter)

G00 Z2.000000
G00 X566.192150 Y541.204020

G01 Z-0.650000 F100.0(Penetrate)
G01 X204.192170 Y541.204020 Z-0.650000 F1500.000000
G01 X204.192170 Y204.204010 Z-0.650000
G01 X566.192150 Y204.204010 Z-0.650000
G01 X566.192150 Y541.204020 Z-0.650000
G00 Z2.000000

(End cutting path id: path12072)


(Start cutting path id: path12072)
(Change tool to Cylindrical cutter)

G00 Z2.000000
G00 X210.192170 Y535.204020

G01 Z-0.650000 F100.0(Penetrate)
G01 X210.192170 Y210.204020 Z-0.650000 F1500.000000
G01 X560.192160 Y210.204020 Z-0.650000
G01 X560.192160 Y535.204020 Z-0.650000
G01 X210.192170 Y535.204020 Z-0.650000
G00 Z2.000000

(End cutting path id: path12072)


(Start cutting path id: path12072)
(Change tool to Cylindrical cutter)

G00 Z2.000000
G00 X216.192170 Y529.204020

G01 Z-0.650000 F100.0(Penetrate)
G01 X216.192170 Y216.204030 Z-0.650000 F1500.000000
G01 X554.192150 Y216.204030 Z-0.650000
G01 X554.192150 Y529.204020 Z-0.650000
G01 X216.192170 Y529.204020 Z-0.650000
G00 Z2.000000

(End cutting path id: path12072)


(Start cutting path id: path12072)
(Change tool to Cylindrical cutter)

G00 Z2.000000
G00 X548.192170 Y222.204010

G01 Z-0.650000 F100.0(Penetrate)
G01 X548.192170 Y523.204020 Z-0.650000 F1500.000000
G01 X222.192170 Y523.204020 Z-0.650000
G01 X222.192170 Y222.204010 Z-0.650000
G01 X548.192170 Y222.204010 Z-0.650000
G00 Z2.000000

(End cutting path id: path12072)


(Start cutting path id: path12072)
(Change tool to Cylindrical cutter)

G00 Z2.000000
G00 X228.192170 Y517.204020

G01 Z-0.650000 F100.0(Penetrate)
G01 X228.192170 Y228.204020 Z-0.650000 F1500.000000
G01 X542.192160 Y228.204020 Z-0.650000
G01 X542.192160 Y517.204020 Z-0.650000
G01 X228.192170 Y517.204020 Z-0.650000
G00 Z2.000000

(End cutting path id: path12072)


(Start cutting path id: path12072)
(Change tool to Cylindrical cutter)

G00 Z2.000000
G00 X234.192170 Y511.204020

G01 Z-0.650000 F100.0(Penetrate)
G01 X234.192170 Y234.204030 Z-0.650000 F1500.000000
G01 X536.192150 Y234.204030 Z-0.650000
G01 X536.192150 Y511.204020 Z-0.650000
G01 X234.192170 Y511.204020 Z-0.650000
G00 Z2.000000

(End cutting path id: path12072)


(Start cutting path id: path12072)
(Change tool to Cylindrical cutter)

G00 Z2.000000
G00 X530.192170 Y240.204010

G01 Z-0.650000 F100.0(Penetrate)
G01 X530.192170 Y505.204020 Z-0.650000 F1500.000000
G01 X240.192170 Y505.204020 Z-0.650000
G01 X240.192170 Y240.204010 Z-0.650000
G01 X530.192170 Y240.204010 Z-0.650000
G00 Z2.000000

(End cutting path id: path12072)


(Start cutting path id: path12072)
(Change tool to Cylindrical cutter)

G00 Z2.000000
G00 X246.192170 Y246.204020

G01 Z-0.650000 F100.0(Penetrate)
G01 X524.192190 Y246.204020 Z-0.650000 F1500.000000
G01 X524.192190 Y499.204020 Z-0.650000
G01 X246.192170 Y499.204020 Z-0.650000
G01 X246.192170 Y246.204020 Z-0.650000
G00 Z2.000000

(End cutting path id: path12072)


(Start cutting path id: path12072)
(Change tool to Cylindrical cutter)

G00 Z2.000000
G00 X252.192170 Y493.204020

G01 Z-0.650000 F100.0(Penetrate)
G01 X252.192170 Y252.204030 Z-0.650000 F1500.000000
G01 X518.192150 Y252.204030 Z-0.650000
G01 X518.192150 Y493.204020 Z-0.650000
G01 X252.192170 Y493.204020 Z-0.650000
G00 Z2.000000

(End cutting path id: path12072)


(Start cutting path id: path12072)
(Change tool to Cylindrical cutter)

G00 Z2.000000
G00 X512.192200 Y487.204020

G01 Z-0.650000 F100.0(Penetrate)
G01 X258.192180 Y487.204020 Z-0.650000 F1500.000000
G01 X258.192180 Y258.204010 Z-0.650000
G01 X512.192200 Y258.204010 Z-0.650000
G01 X512.192200 Y487.204020 Z-0.650000
G00 Z2.000000

(End cutting path id: path12072)


(Start cutting path id: path12072)
(Change tool to Cylindrical cutter)

G00 Z2.000000
G00 X264.192160 Y264.204020

G01 Z-0.650000 F100.0(Penetrate)
G01 X506.192190 Y264.204020 Z-0.650000 F1500.000000
G01 X506.192190 Y481.204020 Z-0.650000
G01 X264.192160 Y481.204020 Z-0.650000
G01 X264.192160 Y264.204020 Z-0.650000
G00 Z2.000000

(End cutting path id: path12072)


(Start cutting path id: path12072)
(Change tool to Cylindrical cutter)

G00 Z2.000000
G00 X500.192150 Y475.204020

G01 Z-0.650000 F100.0(Penetrate)
G01 X270.192190 Y475.204020 Z-0.650000 F1500.000000
G01 X270.192190 Y270.204030 Z-0.650000
G01 X500.192170 Y270.204030 Z-0.650000
G01 X500.192150 Y475.204020 Z-0.650000
G00 Z2.000000

(End cutting path id: path12072)


(Start cutting path id: path12072)
(Change tool to Cylindrical cutter)

G00 Z2.000000
G00 X494.192190 Y469.204010

G01 Z-0.650000 F100.0(Penetrate)
G01 X276.192170 Y469.204010 Z-0.650000 F1500.000000
G01 X276.192170 Y276.204020 Z-0.650000
G01 X494.192180 Y276.204020 Z-0.650000
G01 X494.192190 Y469.204010 Z-0.650000
G00 Z2.000000

(End cutting path id: path12072)


(Start cutting path id: path12072)
(Change tool to Cylindrical cutter)

G00 Z2.000000
G00 X488.192160 Y463.204030

G01 Z-0.650000 F100.0(Penetrate)
G01 X282.192180 Y463.204030 Z-0.650000 F1500.000000
G01 X282.192180 Y282.204020 Z-0.650000
G01 X488.192160 Y282.204020 Z-0.650000
G01 X488.192160 Y463.204030 Z-0.650000
G00 Z2.000000

(End cutting path id: path12072)


(Start cutting path id: path12072)
(Change tool to Cylindrical cutter)

G00 Z2.000000
G00 X288.192190 Y288.204030

G01 Z-0.650000 F100.0(Penetrate)
G01 X482.192180 Y288.204030 Z-0.650000 F1500.000000
G01 X482.192180 Y457.204020 Z-0.650000
G01 X288.192190 Y457.204020 Z-0.650000
G01 X288.192190 Y288.204030 Z-0.650000
G00 Z2.000000

(End cutting path id: path12072)


(Start cutting path id: path12072)
(Change tool to Cylindrical cutter)

G00 Z2.000000
G00 X294.192170 Y451.204040

G01 Z-0.650000 F100.0(Penetrate)
G01 X294.192170 Y294.204020 Z-0.650000 F1500.000000
G01 X476.192190 Y294.204020 Z-0.650000
G01 X476.192190 Y451.204040 Z-0.650000
G01 X294.192170 Y451.204040 Z-0.650000
G00 Z2.000000

(End cutting path id: path12072)


(Start cutting path id: path12072)
(Change tool to Cylindrical cutter)

G00 Z2.000000
G00 X470.192160 Y445.204030

G01 Z-0.650000 F100.0(Penetrate)
G01 X300.192180 Y445.204030 Z-0.650000 F1500.000000
G01 X300.192180 Y300.204030 Z-0.650000
G01 X470.192170 Y300.204030 Z-0.650000
G01 X470.192160 Y445.204030 Z-0.650000
G00 Z2.000000

(End cutting path id: path12072)


(Start cutting path id: path12072)
(Change tool to Cylindrical cutter)

G00 Z2.000000
G00 X464.192170 Y306.204010

G01 Z-0.650000 F100.0(Penetrate)
G01 X464.192170 Y439.204020 Z-0.650000 F1500.000000
G01 X306.192160 Y439.204020 Z-0.650000
G01 X306.192160 Y306.204010 Z-0.650000
G01 X464.192170 Y306.204010 Z-0.650000
G00 Z2.000000

(End cutting path id: path12072)


(Start cutting path id: path12072)
(Change tool to Cylindrical cutter)

G00 Z2.000000
G00 X458.192170 Y433.204030

G01 Z-0.650000 F100.0(Penetrate)
G01 X312.192170 Y433.204030 Z-0.650000 F1500.000000
G01 X312.192170 Y312.204020 Z-0.650000
G01 X458.192180 Y312.204020 Z-0.650000
G01 X458.192170 Y433.204030 Z-0.650000
G00 Z2.000000

(End cutting path id: path12072)


(Start cutting path id: path12072)
(Change tool to Cylindrical cutter)

G00 Z2.000000
G00 X452.192180 Y427.204030

G01 Z-0.650000 F100.0(Penetrate)
G01 X318.192180 Y427.204030 Z-0.650000 F1500.000000
G01 X318.192180 Y318.204030 Z-0.650000
G01 X452.192180 Y318.204030 Z-0.650000
G01 X452.192180 Y427.204030 Z-0.650000
G00 Z2.000000

(End cutting path id: path12072)


(Start cutting path id: path12072)
(Change tool to Cylindrical cutter)

G00 Z2.000000
G00 X324.192190 Y324.204040

G01 Z-0.650000 F100.0(Penetrate)
G01 X446.192170 Y324.204040 Z-0.650000 F1500.000000
G01 X446.192170 Y421.204020 Z-0.650000
G01 X324.192190 Y421.204020 Z-0.650000
G01 X324.192190 Y324.204040 Z-0.650000
G00 Z2.000000

(End cutting path id: path12072)


(Start cutting path id: path12072)
(Change tool to Cylindrical cutter)

G00 Z2.000000
G00 X440.192190 Y415.204030

G01 Z-0.650000 F100.0(Penetrate)
G01 X330.192170 Y415.204030 Z-0.650000 F1500.000000
G01 X330.192170 Y330.204020 Z-0.650000
G01 X440.192190 Y330.204020 Z-0.650000
G01 X440.192190 Y415.204030 Z-0.650000
G00 Z2.000000

(End cutting path id: path12072)


(Start cutting path id: path12072)
(Change tool to Cylindrical cutter)

G00 Z2.000000
G00 X434.192180 Y336.204030

G01 Z-0.650000 F100.0(Penetrate)
G01 X434.192180 Y409.204020 Z-0.650000 F1500.000000
G01 X336.192160 Y409.204020 Z-0.650000
G01 X336.192160 Y336.204030 Z-0.650000
G01 X434.192180 Y336.204030 Z-0.650000
G00 Z2.000000

(End cutting path id: path12072)


(Start cutting path id: path12072)
(Change tool to Cylindrical cutter)

G00 Z2.000000
G00 X428.192150 Y342.204010

G01 Z-0.650000 F100.0(Penetrate)
G01 X428.192150 Y403.204020 Z-0.650000 F1500.000000
G01 X342.192190 Y403.204020 Z-0.650000
G01 X342.192190 Y342.204010 Z-0.650000
G01 X428.192150 Y342.204010 Z-0.650000
G00 Z2.000000

(End cutting path id: path12072)


(Start cutting path id: path12072)
(Change tool to Cylindrical cutter)

G00 Z2.000000
G00 X422.192190 Y397.204031

G01 Z-0.650000 F100.0(Penetrate)
G01 X348.192150 Y397.204031 Z-0.650000 F1500.000000
G01 X348.192150 Y348.204020 Z-0.650000
G01 X422.192170 Y348.204020 Z-0.650000
G01 X422.192190 Y397.204031 Z-0.650000
G00 Z2.000000

(End cutting path id: path12072)


(Start cutting path id: path12072)
(Change tool to Cylindrical cutter)

G00 Z2.000000
G00 X354.192180 Y354.204030

G01 Z-0.650000 F100.0(Penetrate)
G01 X416.192180 Y354.204030 Z-0.650000 F1500.000000
G01 X416.192180 Y391.204021 Z-0.650000
G01 X354.192180 Y391.204021 Z-0.650000
G01 X354.192180 Y354.204030 Z-0.650000
G00 Z2.000000

(End cutting path id: path12072)


(Start cutting path id: path12072)
(Change tool to Cylindrical cutter)

G00 Z2.000000
G00 X410.192170 Y360.204010

G01 Z-0.650000 F100.0(Penetrate)
G01 X410.192170 Y385.204010 Z-0.650000 F1500.000000
G01 X360.192190 Y385.204010 Z-0.650000
G01 X360.192190 Y360.204010 Z-0.650000
G01 X410.192170 Y360.204010 Z-0.650000
G00 Z2.000000

(End cutting path id: path12072)


(Start cutting path id: path12072)
(Change tool to Cylindrical cutter)

G00 Z2.000000
G00 X404.192190 Y379.204030

G01 Z-0.650000 F100.0(Penetrate)
G01 X366.192150 Y379.204030 Z-0.650000 F1500.000000
G01 X366.192150 Y366.204020 Z-0.650000
G01 X404.192190 Y366.204020 Z-0.650000
G01 X404.192190 Y379.204030 Z-0.650000
G00 Z2.000000

(End cutting path id: path12072)


(Start cutting path id: path12072)
(Change tool to Cylindrical cutter)

G00 Z2.000000
G00 X398.192150 Y373.204020

G01 Z-0.650000 F100.0(Penetrate)
G01 X372.192170 Y373.204020 Z-0.650000 F1500.000000
G01 X372.192180 Y372.204030 Z-0.650000
G01 X398.192160 Y372.204030 Z-0.650000
G01 X398.192150 Y373.204020 Z-0.650000
G00 Z2.000000

(End cutting path id: path12072)


(Start cutting path id: path12072)
(Change tool to Cylindrical cutter)

G00 Z2.000000
G00 X770.192190 Y0.204020

G01 Z-0.650000 F100.0(Penetrate)
G01 X770.192190 Y0.204020 Z-0.650000 F1500.000000
G00 Z2.000000

(End cutting path id: path12072)


(Footer)
M5
G00 X0.0000 Y0.0000
M2
(Using default footer. To add your own footer create file "footer" in the output dir.)
(end)
%