%
(Header)
(Generated by gcodetools from Inkscape.)
(Using default header. To add your own header create file "header" in the output dir.)
M3
(Header end.)
G21 (All units in mm)

(Start cutting path id: path27)
(Change tool to Cylindrical cutter)

G0 Z2.000000
G0 X5.191650 Y31.997800

G01 Z-0.300000 F100.0(Penetrate)
G02 X5.054312 Y32.441251 Z-0.300000 I3.448680 J1.311057 F400.000000
G02 X5.025090 Y32.686300 Z-0.300000 I1.012844 J0.245049
G03 X4.960054 Y32.892015 Z-0.300000 I-0.357868 J-0.000000
G03 X4.784240 Y33.029140 Z-0.300000 I-0.312729 J-0.219691
G02 X4.075697 Y33.964781 Z-0.300000 I0.398181 J1.037638
G02 X4.560700 Y35.454580 Z-0.300000 I1.972291 J0.181769
G03 X4.966532 Y36.408055 Z-0.300000 I-1.240798 J1.091233
G03 X4.738760 Y37.583030 Z-0.300000 I-2.196523 J0.183763
G02 X4.617630 Y38.076486 Z-0.300000 I1.013904 J0.510479
G02 X4.705460 Y39.803230 Z-0.300000 I13.142836 J0.197107
G03 X4.870809 Y41.553169 Z-0.300000 I-38.902397 J4.558614
G03 X4.924950 Y42.856255 Z-0.300000 I-21.508732 J1.546315
G02 X5.063702 Y44.113315 Z-0.300000 I6.421615 J-0.072618
G02 X5.281250 Y44.539676 Z-0.300000 I0.899779 J-0.190425
G03 X5.513979 Y44.961615 Z-0.300000 I-0.780559 J0.705687
G03 X5.656920 Y45.881229 Z-0.300000 I-3.779710 J1.058417
G02 X5.857503 Y48.100844 Z-0.300000 I20.339115 J-0.719143
G02 X6.046720 Y48.552825 Z-0.300000 I0.973912 J-0.142120
G03 X6.141451 Y48.738750 Z-0.300000 I-0.473242 J0.358219
G03 X6.289250 Y49.352454 Z-0.300000 I-5.192859 J1.575249
G03 X6.276970 Y49.922019 Z-0.300000 I-1.412688 J0.254457
G03 X6.111090 Y50.144365 Z-0.300000 I-0.332128 J-0.074733
G02 X6.032966 Y50.332844 Z-0.300000 I0.080465 J0.143783
G02 X6.276310 Y50.730600 Z-0.300000 I0.828340 J-0.233457
G03 X6.691827 Y51.361367 Z-0.300000 I-1.076051 J1.161093
G03 X6.564650 Y51.541562 Z-0.300000 I-0.127178 J0.045218
G02 X6.515264 Y51.608359 Z-0.300000 I-0.000000 J0.051655
G02 X6.734790 Y52.096613 Z-0.300000 I2.052325 J-0.629276
G03 X7.032193 Y52.663252 Z-0.300000 I-4.258808 J2.596623
G03 X7.073850 Y52.857629 Z-0.300000 I-0.439608 J0.195864
G02 X7.117741 Y53.051725 Z-0.300000 I0.457541 J-0.001454
G02 X7.562500 Y53.891271 Z-0.300000 I9.428171 J-4.457095
G03 X8.025489 Y54.928697 Z-0.300000 I-4.339285 J2.558589
G03 X8.344439 Y56.359802 Z-0.300000 I-7.999850 J2.534023
G02 X8.470015 Y56.795965 Z-0.300000 I1.521231 J-0.201818
G02 X8.764879 Y57.279453 Z-0.300000 I2.171249 J-0.992519
G03 X9.003377 Y57.967690 Z-0.300000 I-0.875871 J0.688961
G03 X8.765559 Y58.292919 Z-0.300000 I-0.340990 J0.000222
G02 X7.958091 Y58.759528 Z-0.300000 I0.655932 J2.067061
G02 X7.757629 Y59.214452 Z-0.300000 I0.415968 J0.454924
G02 X7.809979 Y59.348107 Z-0.300000 I0.196793 J0.000000
G02 X8.375189 Y59.881846 Z-0.300000 I4.236067 J-3.919702
G03 X8.871480 Y60.410945 Z-0.300000 I-1.807360 J2.192596
G03 X8.877459 Y60.577420 Z-0.300000 I-0.121459 J0.087707
G03 X8.546805 Y60.742887 Z-0.300000 I-0.299293 J-0.184972
G03 X8.099199 Y60.507770 Z-0.300000 I0.058640 J-0.655261
G02 X7.863399 Y60.529805 Z-0.300000 I-0.110370 J0.091600
G02 X7.721809 Y61.188239 Z-0.300000 I1.014364 J0.562569
G03 X7.659901 Y62.031050 Z-0.300000 I-2.708344 J0.224740
G03 X7.479680 Y62.225273 Z-0.300000 I-0.260277 J-0.060787
G02 X6.791212 Y62.555336 Z-0.300000 I0.802884 J2.557771
G02 X6.587550 Y62.822520 Z-0.300000 I0.288741 J0.431307
G01 X6.628771 Y62.866825 Z-0.300000
G02 X6.803060 Y62.767620 Z-0.300000 I-0.093471 J-0.366916
G03 X7.460472 Y62.576715 Z-0.300000 I0.502285 J0.502293
G03 X7.979779 Y63.030950 Z-0.300000 I-0.157570 J0.704111
G02 X8.147482 Y63.278677 Z-0.300000 I0.586645 J-0.216509
G02 X8.479679 Y63.482100 Z-0.300000 I0.710493 J-0.787307
G02 X8.828005 Y63.481343 Z-0.300000 I0.173178 J-0.453531
G02 X9.223729 Y63.194271 Z-0.300000 I-0.345001 J-0.891864
G03 X9.599768 Y62.877696 Z-0.300000 I1.027745 J0.839168
G03 X9.778779 Y62.881289 Z-0.300000 I0.086464 J0.153336
G03 X10.033687 Y63.378436 Z-0.300000 I-0.284015 J0.459551
G03 X9.723979 Y63.667291 Z-0.300000 I-0.309708 J-0.021606
G02 X9.530771 Y63.758387 Z-0.300000 I-0.000000 J0.250439
G02 X9.209389 Y64.291261 Z-0.300000 I1.639630 J1.352228
G02 X9.165598 Y64.691707 Z-0.300000 I0.656839 J0.274446
G02 X9.284789 Y64.710541 Z-0.300000 I0.062870 J-0.011306
G03 X9.512897 Y64.397835 Z-0.300000 I1.232874 J0.659785
G03 X9.789559 Y64.189014 Z-0.300000 I0.805832 J0.779947
G03 X10.043627 Y64.220466 Z-0.300000 I0.104751 J0.195729
G03 X10.554179 Y64.884001 Z-0.300000 I-1.596960 J1.756957
G03 X10.828760 Y65.971824 Z-0.300000 I-2.171746 J1.126744
G03 X10.575579 Y66.229065 Z-0.300000 I-0.253181 J0.004028
G02 X10.243179 Y66.323628 Z-0.300000 I-0.000000 J0.631497
G02 X10.148609 Y66.493398 Z-0.300000 I0.105100 J0.169770
G02 X10.540369 Y67.351290 Z-0.300000 I1.135204 J-0.000000
G02 X11.329239 Y67.516528 Z-0.300000 I0.542983 J-0.626571
G03 X11.592178 Y67.494538 Z-0.300000 I0.181191 J0.583538
G03 X11.845479 Y67.586228 Z-0.300000 I-0.085200 J0.631100
G03 X11.950857 Y67.762494 Z-0.300000 I-0.120149 J0.191462
G03 X11.873479 Y68.001811 Z-0.300000 I-0.338275 J0.022794
G02 X11.753121 Y68.269289 Z-0.300000 I0.423297 J0.351291
G02 X11.799079 Y68.484487 Z-0.300000 I0.305950 J0.047167
G03 X11.883482 Y68.722898 Z-0.300000 I-0.459541 J0.296834
G03 X11.951149 Y69.900943 Z-0.300000 I-11.826933 J1.270305
G02 X12.109337 Y71.037190 Z-0.300000 I4.400269 J-0.033469
G02 X12.415339 Y71.585137 Z-0.300000 I1.271325 J-0.350556
G03 X12.874521 Y72.550383 Z-0.300000 I-1.300311 J1.210421
G03 X12.637369 Y73.178547 Z-0.300000 I-0.694264 J0.096742
G03 X12.155174 Y73.508567 Z-0.300000 I-1.732654 J-2.014314
G03 X11.898189 Y73.572820 Z-0.300000 I-0.256985 J-0.481791
G02 X11.791484 Y73.644938 Z-0.300000 I0.000000 J0.114999
G02 X11.817689 Y73.773128 Z-0.300000 I0.110135 J0.044260
G02 X12.037751 Y73.864256 Z-0.300000 I0.220010 J-0.220020
G02 X12.457869 Y73.773021 Z-0.300000 I-0.000169 J-1.013671
G03 X13.382128 Y73.823540 Z-0.300000 I0.413863 J0.908323
G03 X13.979139 Y74.678186 Z-0.300000 I-0.647422 J1.088098
G02 X14.540623 Y75.575498 Z-0.300000 I1.424955 J-0.267324
G02 X15.260729 Y75.628369 Z-0.300000 I0.401782 J-0.541918
G02 X15.516372 Y75.381103 Z-0.300000 I-0.306445 J-0.572612
G02 X15.613749 Y75.018484 Z-0.300000 I-0.626484 J-0.362619
G03 X15.844703 Y74.800089 Z-0.300000 I0.218736 J0.000000
G03 X16.733279 Y75.081114 Z-0.300000 I-0.105028 J1.877399
G03 X18.120363 Y76.232461 Z-0.300000 I-3.511388 J5.641559
G03 X19.101329 Y77.664470 Z-0.300000 I-4.541767 J4.163235
G03 X19.225283 Y78.120251 Z-0.300000 I-1.099671 J0.543811
G03 X19.341439 Y81.001963 Z-0.300000 I-45.620798 J3.282083
G01 X19.366839 Y83.905308 Z-0.300000
G01 X20.311179 Y85.698550 Z-0.300000
G03 X21.220462 Y87.507593 Z-0.300000 I-47.265802 J24.890333
G03 X21.579479 Y88.345717 Z-0.300000 I-9.771732 J4.681760
G02 X21.917100 Y89.193929 Z-0.300000 I26.334023 J-9.990666
G02 X22.255929 Y89.968174 Z-0.300000 I22.297265 J-9.296569
G03 X22.546337 Y91.083365 Z-0.300000 I-3.003404 J1.377527
G03 X22.436159 Y92.231074 Z-0.300000 I-3.297269 J0.262612
G03 X22.168966 Y92.754005 Z-0.300000 I-1.413793 J-0.392653
G03 X21.924749 Y92.871518 Z-0.300000 I-0.244217 J-0.195013
G02 X21.736784 Y93.062446 Z-0.300000 I0.000000 J0.187988
G02 X21.932749 Y93.383873 Z-0.300000 I0.371108 J-0.005804
G02 X22.184791 Y93.417214 Z-0.300000 I0.170327 J-0.318269
G02 X22.274319 Y93.304493 Z-0.300000 I-0.026196 J-0.112721
G03 X22.446956 Y93.190782 Z-0.300000 I0.123768 J0.000000
G03 X22.757079 Y93.511966 Z-0.300000 I-0.227956 J0.530419
G03 X22.923864 Y93.986967 Z-0.300000 I-7.068043 J2.748556
G03 X23.307189 Y95.262511 Z-0.300000 I-50.636286 J15.912519
G02 X23.725207 Y96.516260 Z-0.300000 I14.976149 J-4.296708
G02 X23.893219 Y96.799576 Z-0.300000 I0.904224 J-0.344746
G03 X24.341373 Y97.614132 Z-0.300000 I-1.751388 J1.494144
G03 X25.001339 Y100.386060 Z-0.300000 I-20.662410 J6.384023
G02 X25.471364 Y102.671317 Z-0.300000 I32.827917 J-5.560987
G02 X25.953819 Y104.314114 Z-0.300000 I17.428031 J-4.226004
G03 X26.503719 Y105.940518 Z-0.300000 I-110.188865 J38.161923
G03 X26.955129 Y107.349078 Z-0.300000 I-82.186202 J27.115307
G02 X27.894866 Y109.528399 Z-0.300000 I10.757666 J-3.346502
G02 X29.072419 Y111.110943 Z-0.300000 I6.782420 J-3.817348
G02 X30.170987 Y112.056207 Z-0.300000 I5.589916 J-5.385497
G02 X31.434419 Y112.786653 Z-0.300000 I4.554096 J-6.419207
G03 X32.771932 Y113.416530 Z-0.300000 I-35.217423 J76.517508
G03 X33.740819 Y113.897641 Z-0.300000 I-19.572412 J40.632106
G02 X34.716186 Y114.340048 Z-0.300000 I5.185435 J-10.135850
G02 X34.979009 Y114.390427 Z-0.300000 I0.262823 J-0.660372
G03 X35.156274 Y114.556043 Z-0.300000 I0.000000 J0.177675
G03 X35.013009 Y114.890163 Z-0.300000 I-0.398088 J0.027081
G03 X34.790384 Y114.978067 Z-0.300000 I-0.245437 J-0.295731
G03 X34.661359 Y114.911073 Z-0.300000 I-0.008416 J-0.141534
G02 X33.942512 Y114.501876 Z-0.300000 I-0.734171 J0.453730
G02 X33.546139 Y114.891273 Z-0.300000 I-0.006915 J0.389397
G02 X33.797991 Y115.234979 Z-0.300000 I0.360456 J0.000000
G02 X34.397779 Y115.160370 Z-0.300000 I0.218512 J-0.691541
G03 X34.555082 Y115.159713 Z-0.300000 I0.079188 J0.128178
G03 X35.013449 Y115.533612 Z-0.300000 I-1.105096 J1.822659
G02 X35.495611 Y115.938627 Z-0.300000 I1.855566 J-1.719503
G02 X35.825439 Y116.058520 Z-0.300000 I0.426558 J-0.659842
G02 X36.193546 Y116.102019 Z-0.300000 I3.929750 J-31.675979
G02 X37.132619 Y116.205307 Z-0.300000 I23.237419 J-206.949055
G03 X38.104929 Y116.542970 Z-0.300000 I-0.244857 J2.273798
G03 X38.105619 Y116.816990 Z-0.300000 I-0.086270 J0.137228
G01 X38.120119 Y116.883530 Z-0.300000
G02 X39.066469 Y116.949586 Z-0.300000 I0.962153 J-6.972335
G02 X40.070724 Y116.818885 Z-0.300000 I0.008711 J-3.856564
G02 X40.174289 Y116.653594 Z-0.300000 I-0.036935 J-0.138232
G02 X40.037169 Y116.416854 Z-0.300000 I-0.408697 J0.078637
G02 X39.478629 Y116.054503 Z-0.300000 I-1.608959 J1.868453
G03 X38.886321 Y115.724927 Z-0.300000 I2.134261 J-4.532691
G03 X38.840469 Y115.640529 Z-0.300000 I0.054749 J-0.084398
G03 X39.120436 Y114.627065 Z-0.300000 I1.974323 J-0.000000
G03 X39.748689 Y114.122138 Z-0.300000 I0.995682 J0.595558
G03 X40.614898 Y114.242082 Z-0.300000 I0.312009 J0.934496
G03 X41.663469 Y115.424892 Z-0.300000 I-1.810796 J2.661475
G02 X41.957204 Y115.813718 Z-0.300000 I1.281333 J-0.662607
G02 X42.249329 Y115.975187 Z-0.300000 I0.463357 J-0.493307
G03 X42.600379 Y116.343283 Z-0.300000 I-0.122446 J0.468221
G03 X42.384259 Y116.613246 Z-0.300000 I-0.218860 J0.046280
G01 X42.344610 Y116.665031 Z-0.300000
G02 X42.426559 Y116.777536 Z-0.300000 I0.182798 J-0.047052
G02 X42.702998 Y116.867829 Z-0.300000 I0.316494 J-0.500652
G02 X44.829859 Y116.940433 Z-0.300000 I2.144907 J-31.644516
G01 X46.977409 Y116.941633 Z-0.300000
G01 X47.666749 Y116.221071 Z-0.300000
G02 X48.322516 Y115.473505 Z-0.300000 I-8.325049 J-7.964159
G02 X48.919939 Y114.661506 Z-0.300000 I-9.227961 J-7.415188
G02 X50.827601 Y111.281762 Z-0.300000 I-20.705438 J-13.915224
G02 X51.135669 Y109.905727 Z-0.300000 I-2.985297 J-1.390855
G03 X51.186424 Y109.615423 Z-0.300000 I0.876233 J0.003606
G03 X51.804439 Y108.027093 Z-0.300000 I27.667831 J9.851085
G02 X52.411533 Y106.430052 Z-0.300000 I-21.370785 J-9.037732
G02 X52.685649 Y105.424195 Z-0.300000 I-8.181851 J-2.769995
G03 X52.978432 Y104.439367 Z-0.300000 I6.044381 J1.261020
G03 X53.230359 Y104.029196 Z-0.300000 I1.262490 J0.492969
G02 X53.439569 Y103.626975 Z-0.300000 I-0.684006 J-0.611297
G02 X53.443049 Y103.120559 Z-0.300000 I-1.114525 J-0.260878
G03 X53.431398 Y102.619118 Z-0.300000 I1.277992 J-0.280549
G03 X53.569849 Y102.380746 Z-0.300000 I0.389204 J0.066663
G02 X54.025591 Y101.624816 Z-0.300000 I-0.840105 J-1.021836
G02 X54.434739 Y98.165835 Z-0.300000 I-20.177715 J-4.140425
G02 X54.373586 Y95.723923 Z-0.300000 I-21.017138 J-0.695387
G02 X54.177279 Y95.076733 Z-0.300000 I-1.606365 J0.133879
G03 X52.956867 Y92.268199 Z-0.300000 I13.976923 J-7.742913
G03 X51.053279 Y85.455215 Z-0.300000 I81.102846 J-26.333048
G03 X50.601611 Y80.950378 Z-0.300000 I16.865154 J-3.966009
G03 X51.250799 Y79.107191 Z-0.300000 I3.226221 J0.100387
G02 X51.511306 Y78.278430 Z-0.300000 I-1.035152 J-0.780707
G02 X51.164899 Y76.790939 Z-0.300000 I-4.004672 J0.148528
G03 X50.538254 Y74.948463 Z-0.300000 I9.594748 J-4.291075
G03 X50.680359 Y74.768295 Z-0.300000 I0.142105 J-0.034042
G02 X50.886859 Y74.708661 Z-0.300000 I0.000000 J-0.387349
G02 X51.222439 Y74.426725 Z-0.300000 I-0.858734 J-1.362810
G03 X51.762793 Y74.186962 Z-0.300000 I0.540354 J0.489016
G03 X52.371889 Y74.426725 Z-0.300000 I0.000000 J0.893557
G02 X53.351482 Y74.854672 Z-0.300000 I1.098268 J-1.178849
G02 X53.528039 Y74.512115 Z-0.300000 I0.015424 J-0.208829
G03 X53.444560 Y74.316579 Z-0.300000 I0.286816 J-0.238036
G03 X53.498639 Y74.255938 Z-0.300000 I0.054079 J-0.006207
G03 X53.651879 Y74.307306 Z-0.300000 I-0.000000 J0.254253
G03 X53.818419 Y74.497479 Z-0.300000 I-0.374821 J0.496251
G02 X53.992636 Y74.705481 Z-0.300000 I0.649957 J-0.367426
G02 X55.278579 Y75.704706 Z-0.300000 I17.146198 J-20.739060
G03 X56.543726 Y76.700092 Z-0.300000 I-13.069297 J17.912925
G03 X56.602159 Y76.826191 Z-0.300000 I-0.106845 J0.126099
G02 X56.880011 Y77.091442 Z-0.300000 I0.265537 J0.000000
G02 X58.350279 Y76.745031 Z-0.300000 I-0.190422 J-4.101531
G02 X59.235316 Y76.210040 Z-0.300000 I-1.647007 J-3.724203
G02 X59.758849 Y75.626712 Z-0.300000 I-1.454500 J-1.832002
G03 X60.770325 Y74.490377 Z-0.300000 I3.933979 J2.483381
G03 X62.443509 Y73.459145 Z-0.300000 I4.878304 J6.042106
G02 X62.970443 Y73.140439 Z-0.300000 I-1.074799 J-2.371985
G02 X62.989689 Y73.033080 Z-0.300000 I-0.050247 J-0.064412
G01 X63.011294 Y72.982900 Z-0.300000
G03 X63.169799 Y72.995770 Z-0.300000 I0.057315 J0.276621
G02 X63.407205 Y72.969554 Z-0.300000 I0.093302 J-0.243136
G02 X64.160689 Y72.337504 Z-0.300000 I-2.443239 J-3.677802
G03 X64.911018 Y71.605809 Z-0.300000 I10.323375 J9.835712
G03 X65.611879 Y71.022857 Z-0.300000 I7.244391 J7.996872
G02 X66.237809 Y70.450052 Z-0.300000 I-2.876259 J-3.771410
G02 X66.249539 Y70.324687 Z-0.300000 I-0.077135 J-0.070448
G03 X66.239476 Y70.199336 Z-0.300000 I0.117417 J-0.072505
G03 X66.360509 Y70.057116 Z-0.300000 I0.280907 J0.116448
G03 X66.429854 Y70.064148 Z-0.300000 I0.030092 J0.048690
G03 X66.438609 Y70.130706 Z-0.300000 I-0.036414 J0.038645
G02 X66.407565 Y70.277229 Z-0.300000 I0.188569 J0.116502
G02 X66.465609 Y70.327878 Z-0.300000 I0.058044 J-0.007934
G02 X67.456737 Y69.895692 Z-0.300000 I0.000000 J-1.352567
G02 X67.445219 Y69.272969 Z-0.300000 I-0.328859 J-0.305385
G03 X67.435806 Y69.186035 Z-0.300000 I0.049371 J-0.049323
G03 X67.656309 Y68.943239 Z-0.300000 I0.825444 J0.528127
G01 X67.715971 Y68.956604 Z-0.300000
G03 X67.708309 Y69.046991 Z-0.300000 I-0.077682 J0.038933
G01 X67.734970 Y69.083393 Z-0.300000
G02 X67.921789 Y68.974521 Z-0.300000 I-0.174589 J-0.514308
G02 X68.291668 Y68.470094 Z-0.300000 I-0.998047 J-1.119659
G02 X68.189109 Y68.380155 Z-0.300000 I-0.065057 J-0.029260
G01 X68.125103 Y68.368843 Z-0.300000
G03 X68.120809 Y68.293485 Z-0.300000 I0.051709 J-0.040748
G03 X68.259188 Y68.166491 Z-0.300000 I0.294579 J0.182099
G03 X68.344959 Y68.180222 Z-0.300000 I0.033403 J0.066099
G02 X68.676738 Y68.198200 Z-0.300000 I0.175908 J-0.175910
G02 X68.898629 Y67.735113 Z-0.300000 I-0.372285 J-0.463087
G02 X68.843805 Y67.669940 Z-0.300000 I-0.066150 J0.000000
G02 X68.685149 Y67.698013 Z-0.300000 I-0.040537 J0.233268
G03 X68.621165 Y67.700977 Z-0.300000 I-0.034867 J-0.060585
G01 X68.613949 Y67.665393 Z-0.300000
G03 X68.773607 Y67.548185 Z-0.300000 I0.374796 J0.343194
G03 X68.955519 Y67.505803 Z-0.300000 I0.191247 J0.409274
G02 X69.079352 Y67.433478 Z-0.300000 I-0.003095 J-0.147475
G02 X69.131349 Y67.208767 Z-0.300000 I-0.328200 J-0.194314
G03 X69.174522 Y67.024866 Z-0.300000 I0.308154 J-0.024675
G03 X69.253359 Y67.005728 Z-0.300000 I0.048870 J0.029366
G02 X69.367549 Y66.984454 Z-0.300000 I0.045391 J-0.073462
G02 X69.828579 Y66.247443 Z-0.300000 I-3.854749 J-2.924001
G03 X70.292298 Y65.430448 Z-0.300000 I8.873319 J4.496321
G03 X70.432399 Y65.291725 Z-0.300000 I0.370543 J0.234115
G02 X70.564188 Y65.160622 Z-0.300000 I-0.215197 J-0.348113
G02 X70.606439 Y65.013383 Z-0.300000 I-0.235426 J-0.147239
G02 X70.550856 Y64.942318 Z-0.300000 I-0.073221 J0.000000
G02 X70.409259 Y64.964453 Z-0.300000 I-0.044500 J0.179300
G01 X70.345255 Y64.953141 Z-0.300000
G03 X70.340959 Y64.877773 Z-0.300000 I0.051723 J-0.040755
G03 X70.479344 Y64.750778 Z-0.300000 I0.294571 J0.182094
G03 X70.565119 Y64.764511 Z-0.300000 I0.033403 J0.066104
G02 X70.896892 Y64.782487 Z-0.300000 I0.175904 J-0.175906
G02 X71.118779 Y64.319402 Z-0.300000 I-0.372293 J-0.463085
G02 X71.065566 Y64.254922 Z-0.300000 I-0.065673 J0.000000
G02 X70.921609 Y64.281312 Z-0.300000 I-0.038178 J0.197575
G03 X70.855044 Y64.272560 Z-0.300000 I-0.027919 J-0.045170
G03 X70.848009 Y64.203212 Z-0.300000 I0.041659 J-0.039257
G03 X70.989594 Y64.079471 Z-0.300000 I0.271676 J0.167980
G03 X71.107749 Y64.087405 Z-0.300000 I0.051577 J0.115659
G02 X71.672076 Y63.984542 Z-0.300000 I0.225138 J-0.364284
G02 X71.706859 Y63.310058 Z-0.300000 I-0.470190 J-0.362387
G03 X71.707964 Y63.231743 Z-0.300000 I0.061964 J-0.038291
G01 X71.766959 Y63.218688 Z-0.300000
G02 X72.213743 Y63.102602 Z-0.300000 I0.167889 J-0.271657
G02 X72.209399 Y62.425534 Z-0.300000 I-0.600020 J-0.334698
G03 X72.199878 Y62.353650 Z-0.300000 I0.082636 J-0.047518
G01 X72.230799 Y62.344504 Z-0.300000
G02 X73.487813 Y62.114363 Z-0.300000 I0.540521 J-0.595646
G02 X73.403119 Y60.046374 Z-0.300000 I-1.879434 J-0.958757
G01 X73.420028 Y59.991027 Z-0.300000
G03 X73.512399 Y59.997004 Z-0.300000 I0.040569 J0.089793
G02 X73.607665 Y59.978740 Z-0.300000 I0.037691 J-0.060989
G02 X73.626139 Y59.843736 Z-0.300000 I-0.113618 J-0.084314
G03 X73.633377 Y59.695143 Z-0.300000 I0.172186 J-0.066085
G03 X73.711539 Y59.672951 Z-0.300000 I0.049222 J0.024621
G02 X73.789706 Y59.650744 Z-0.300000 I0.028936 J-0.046824
G02 X73.796939 Y59.502166 Z-0.300000 I-0.164986 J-0.082497
G03 X73.781418 Y59.326084 Z-0.300000 I0.300495 J-0.115213
G01 X73.835439 Y59.302384 Z-0.300000
G02 X74.129878 Y59.204092 Z-0.300000 I0.106241 J-0.171899
G02 X74.081719 Y58.672688 Z-0.300000 I-0.556071 J-0.217490
G01 X74.099526 Y58.621069 Z-0.300000
G03 X74.195579 Y58.630728 Z-0.300000 I0.038114 J0.103404
G02 X74.290845 Y58.612464 Z-0.300000 I0.037691 J-0.060989
G02 X74.309319 Y58.477461 Z-0.300000 I-0.113617 J-0.084313
G03 X74.292760 Y58.300151 Z-0.300000 I0.308353 J-0.118225
G01 X74.345919 Y58.276488 Z-0.300000
G02 X74.866552 Y58.102397 Z-0.300000 I0.187809 J-0.303885
G02 X74.780809 Y57.161347 Z-0.300000 I-0.986155 J-0.384579
G03 X74.780493 Y57.081794 Z-0.300000 I0.064758 J-0.040034
G01 X74.837409 Y57.068127 Z-0.300000
G02 X75.183734 Y56.947792 Z-0.300000 I0.124227 J-0.201005
G02 X75.116909 Y56.298643 Z-0.300000 I-0.703649 J-0.255579
G03 X75.119264 Y56.225092 Z-0.300000 I0.056656 J-0.034999
G01 X75.177509 Y56.213293 Z-0.300000
G02 X75.676021 Y56.038555 Z-0.300000 I0.178594 J-0.288961
G02 X75.662149 Y54.855915 Z-0.300000 I-1.603719 J-0.572591
G03 X75.677084 Y54.735451 Z-0.300000 I0.120524 J-0.046216
G03 X75.758649 Y54.718727 Z-0.300000 I0.049657 J0.034918
G02 X75.846705 Y54.678507 Z-0.300000 I0.030600 J-0.049509
G02 X75.846949 Y54.172546 Z-0.300000 I-1.569529 J-0.253737
G03 X75.849828 Y53.777122 Z-0.300000 I1.176612 J-0.189157
G01 X75.919149 Y53.761727 Z-0.300000
G01 X76.000132 Y53.738582 Z-0.300000
G02 X75.991949 Y52.416901 Z-0.300000 I-10.955011 J-0.593036
G03 X75.998458 Y50.969102 Z-0.300000 I10.182350 J-0.678135
G03 X76.106609 Y50.900551 Z-0.300000 I0.079618 J0.006022
G02 X76.243917 Y50.853149 Z-0.300000 I0.040396 J-0.105555
G02 X76.365689 Y50.468798 Z-0.300000 I-0.746594 J-0.448006
G02 X76.298733 Y50.237826 Z-0.300000 I-0.344747 J-0.025253
G02 X76.194909 Y50.238185 Z-0.300000 I-0.051780 J0.038346
G03 X76.091460 Y50.213416 Z-0.300000 I-0.046553 J-0.033986
G03 X76.017459 Y49.142770 Z-0.300000 I5.791184 J-0.938154
G03 X76.126199 Y47.790534 Z-0.300000 I11.778665 J0.266687
G03 X76.241339 Y47.529399 Z-0.300000 I0.516060 J0.071591
G02 X76.408284 Y46.996311 Z-0.300000 I-0.566402 J-0.470063
G02 X76.157039 Y46.548677 Z-0.300000 I-0.619200 J0.053215
G03 X76.132043 Y46.470010 Z-0.300000 I0.041506 J-0.056493
G03 X76.199739 Y46.420588 Z-0.300000 I0.068583 J0.022867
G02 X76.308030 Y46.314099 Z-0.300000 I-0.001309 J-0.109637
G02 X76.413219 Y38.988830 Z-0.300000 I-255.009361 J-7.325269
G01 X76.413219 Y31.559680 Z-0.300000
G01 X43.855669 Y31.559680 Z-0.300000
G01 X11.298099 Y31.559680 Z-0.300000
G01 X11.748089 Y31.913650 Z-0.300000
G03 X12.142402 Y32.521332 Z-0.300000 I-0.693692 J0.881896
G03 X11.960179 Y32.755180 Z-0.300000 I-0.182223 J0.045926
G03 X11.767080 Y32.689995 Z-0.300000 I0.000000 J-0.318605
G03 X11.623969 Y32.499000 Z-0.300000 I0.264813 J-0.347534
G02 X11.472608 Y32.319973 Z-0.300000 I-0.332603 J0.127706
G02 X11.190369 Y32.242820 Z-0.300000 I-0.282239 J0.477659
G02 X9.908514 Y33.090823 Z-0.300000 I0.000000 J1.392838
G02 X10.243419 Y34.470790 Z-0.300000 I1.094193 J0.465072
G03 X10.369428 Y34.690757 Z-0.300000 I-0.231100 J0.278462
G03 X10.313319 Y34.897440 Z-0.300000 I-0.254914 J0.041755
G02 X10.416277 Y35.120516 Z-0.300000 I0.104763 J0.086945
G02 X10.917849 Y34.905440 Z-0.300000 I0.008906 J-0.671618
G03 X11.350669 Y34.515112 Z-0.300000 I2.389638 J2.214650
G03 X11.506839 Y34.462990 Z-0.300000 I0.156170 J0.207898
G02 X11.614289 Y34.391520 Z-0.300000 I0.000000 J-0.116507
G02 X11.685779 Y34.036020 Z-0.300000 I-0.848159 J-0.355500
G03 X11.991250 Y33.705454 Z-0.300000 I0.331596 J0.000000
G03 X12.634539 Y33.961020 Z-0.300000 I0.061793 J0.781860
G03 X12.797123 Y34.290896 Z-0.300000 I-0.497417 J0.450162
G03 X12.724439 Y34.454300 Z-0.300000 I-0.156073 J0.028444
G02 X12.586832 Y34.649047 Z-0.300000 I0.160323 J0.259273
G02 X12.444999 Y35.744640 Z-0.300000 I6.393076 J1.384612
G02 X12.553940 Y36.828099 Z-0.300000 I3.778292 J0.167304
G02 X12.833429 Y37.300770 Z-0.300000 I0.933685 J-0.233120
G02 X13.645750 Y37.698849 Z-0.300000 I1.068915 J-1.153379
G02 X13.905949 Y37.478150 Z-0.300000 I0.036501 J-0.220699
G03 X13.964067 Y37.274227 Z-0.300000 I0.386821 J0.000000
G03 X14.230909 Y36.954360 Z-0.300000 I1.268397 J0.786896
G03 X14.456961 Y36.966964 Z-0.300000 I0.106798 J0.118008
G03 X14.743269 Y37.534040 Z-0.300000 I-0.938873 J0.829836
G03 X14.909218 Y38.410241 Z-0.300000 I-18.114470 J3.884634
G03 X14.934859 Y38.698280 Z-0.300000 I-1.921298 J0.316191
G02 X15.210107 Y40.187056 Z-0.300000 I4.506179 J-0.063280
G02 X15.897869 Y41.325163 Z-0.300000 I3.271442 J-1.200081
G02 X16.265905 Y41.423145 Z-0.300000 I0.259608 J-0.234937
G02 X16.435199 Y41.150160 Z-0.300000 I-0.077129 J-0.236820
G03 X16.507893 Y40.734326 Z-0.300000 I0.666097 J-0.097828
G03 X16.842779 Y40.389569 Z-0.300000 I0.769352 J0.412297
G03 X17.184143 Y40.352196 Z-0.300000 I0.213445 J0.371907
G03 X17.321649 Y40.539239 Z-0.300000 I-0.058460 J0.187043
G02 X17.371007 Y40.953848 Z-0.300000 I1.766038 J-0.000000
G02 X17.564639 Y41.545298 Z-0.300000 I3.813118 J-0.920936
G03 X17.738934 Y42.131865 Z-0.300000 I-2.645065 J1.105146
G03 X17.728549 Y42.436433 Z-0.300000 I-0.699254 J0.128617
G02 X17.823826 Y43.155906 Z-0.300000 I0.943726 J0.241071
G02 X19.536579 Y45.643008 Z-0.300000 I14.689935 J-8.282984
G02 X19.752391 Y45.739427 Z-0.300000 I0.205727 J-0.170740
G02 X19.964139 Y45.626868 Z-0.300000 I-0.010380 J-0.274979
G03 X20.118020 Y45.630259 Z-0.300000 I0.075757 J0.055394
G03 X20.446029 Y46.350810 Z-0.300000 I-2.066872 J1.375814
G02 X20.723576 Y47.356592 Z-0.300000 I229.717951 J-62.849897
G02 X20.979089 Y48.266172 Z-0.300000 I188.559172 J-52.478002
G03 X21.433509 Y50.448936 Z-0.300000 I-15.114945 J4.285394
G03 X21.677119 Y53.434746 Z-0.300000 I-28.111679 J3.796458
G02 X21.901245 Y54.856069 Z-0.300000 I5.640506 J-0.161108
G02 X22.674979 Y56.850445 Z-0.300000 I11.975560 J-3.498738
G02 X23.708407 Y58.752197 Z-0.300000 I23.231394 J-11.392472
G02 X24.660689 Y60.166077 Z-0.300000 I13.769665 J-8.246567
G03 X25.622146 Y61.567783 Z-0.300000 I-15.204797 J11.459853
G03 X25.882659 Y62.130104 Z-0.300000 I-2.149363 J1.337267
G02 X26.111671 Y62.707573 Z-0.300000 I4.452975 J-1.431812
G02 X26.288859 Y62.984028 Z-0.300000 I1.180150 J-0.561381
G03 X26.931167 Y63.948293 Z-0.300000 I-4.114359 J3.436678
G03 X27.056389 Y64.460722 Z-0.300000 I-0.985860 J0.512429
G01 X27.011841 Y64.482887 Z-0.300000
G03 X26.458639 Y64.008738 Z-0.300000 I3.593766 J-4.752731
G03 X25.950738 Y63.390645 Z-0.300000 I2.465176 J-2.543414
G03 X25.856299 Y63.078614 Z-0.300000 I0.493749 J-0.319745
G02 X25.377234 Y61.645739 Z-0.300000 I-2.487796 J0.035244
G02 X24.788169 Y61.618840 Z-0.300000 I-0.305337 J0.223161
G02 X24.752089 Y61.714961 Z-0.300000 I0.108219 J0.095453
G02 X24.791169 Y62.323623 Z-0.300000 I5.129009 J-0.023729
G02 X24.981084 Y62.861509 Z-0.300000 I1.326187 J-0.165777
G02 X25.296039 Y63.138821 Z-0.300000 I0.614773 J-0.380712
G03 X25.592157 Y63.387245 Z-0.300000 I-0.299872 J0.658140
G03 X25.618259 Y63.607525 Z-0.300000 I-0.196299 J0.134947
G02 X25.639974 Y63.856746 Z-0.300000 I0.266699 J0.102319
G02 X26.263849 Y64.684109 Z-0.300000 I4.202386 J-2.519923
G03 X27.733540 Y66.513784 Z-0.300000 I-11.389814 J10.653997
G03 X27.910099 Y67.083130 Z-0.300000 I-0.829696 J0.569346
G02 X27.950539 Y67.248798 Z-0.300000 I0.359555 J-0.000000
G02 X28.338499 Y67.908326 Z-0.300000 I6.424492 J-3.335258
G03 X28.707943 Y68.584835 Z-0.300000 I-3.796485 J2.512408
G03 X29.296499 Y70.082172 Z-0.300000 I-18.148653 J7.998000
G02 X29.857097 Y71.591466 Z-0.300000 I35.063486 J-12.164894
G02 X29.974159 Y71.792070 Z-0.300000 I0.718154 J-0.284619
G03 X30.309212 Y72.980335 Z-0.300000 I-1.221053 J0.985668
G03 X29.108609 Y78.440062 Z-0.300000 I-31.902571 J-4.153558
G02 X28.680429 Y80.398333 Z-0.300000 I10.860504 J3.400619
G02 X28.835849 Y80.574874 Z-0.300000 I0.155420 J0.019858
G03 X29.011136 Y80.760399 Z-0.300000 I0.000000 J0.175569
G03 X28.788849 Y81.402435 Z-0.300000 I-1.242107 J-0.070546
G02 X28.363829 Y82.256057 Z-0.300000 I2.651913 J1.853011
G02 X27.211129 Y86.259993 Z-0.300000 I58.737328 J19.077893
G02 X26.965475 Y87.773864 Z-0.300000 I8.687040 J2.186501
G02 X26.939869 Y89.862418 Z-0.300000 I16.567936 J1.247561
G02 X27.253441 Y92.342175 Z-0.300000 I16.625649 J-0.842652
G02 X27.483159 Y92.529821 Z-0.300000 I0.229718 J-0.046789
G03 X27.758170 Y92.727122 Z-0.300000 I0.000000 J0.290314
G03 X27.815919 Y93.513703 Z-0.300000 I-1.493244 J0.505042
G02 X27.747534 Y93.983600 Z-0.300000 I6.668323 J1.210377
G02 X27.661259 Y94.920810 Z-0.300000 I26.457079 J2.908088
G03 X27.576480 Y95.858440 Z-0.300000 I-29.374896 J-2.183394
G03 X27.488309 Y96.543268 Z-0.300000 I-15.684626 J-1.671284
G02 X27.504589 Y97.194557 Z-0.300000 I1.851058 J0.279577
G02 X27.709579 Y97.635236 Z-0.300000 I1.020723 J-0.206791
G02 X28.156841 Y97.771490 Z-0.300000 I0.322311 J-0.255795
G02 X28.422479 Y97.408025 Z-0.300000 I-0.115841 J-0.363465
G03 X28.711008 Y96.876446 Z-0.300000 I0.633949 J-0.000000
G03 X29.379209 Y96.786342 Z-0.300000 I0.429253 J0.660594
G02 X29.878979 Y96.924065 Z-0.300000 I2.002088 J-6.289538
G02 X30.557289 Y97.061716 Z-0.300000 I2.679020 J-11.461459
G03 X30.843033 Y97.218247 Z-0.300000 I-0.085366 J0.494909
G03 X30.813469 Y97.342673 Z-0.300000 I-0.057182 J0.052139
G03 X30.380906 Y97.440145 Z-0.300000 I-0.554015 J-1.450059
G03 X29.916769 Y97.413053 Z-0.300000 I-0.133539 J-1.701539
G02 X28.849658 Y97.463713 Z-0.300000 I-0.431100 J2.183453
G02 X28.593259 Y97.807729 Z-0.300000 I0.102587 J0.344016
G02 X28.634612 Y97.953415 Z-0.300000 I0.277302 J-0.000000
G02 X28.856049 Y98.233326 Z-0.300000 I1.310355 J-0.809074
G02 X29.325731 Y98.404105 Z-0.300000 I0.417800 J-0.417789
G02 X30.956309 Y98.048187 Z-0.300000 I-0.578604 J-6.563832
G02 X31.541215 Y97.702285 Z-0.300000 I-0.596460 J-1.676065
G02 X31.613239 Y97.464741 Z-0.300000 I-0.157631 J-0.177486
G03 X31.683875 Y97.231533 Z-0.300000 I0.225556 J-0.058983
G03 X32.198259 Y96.944505 Z-0.300000 I0.905527 J1.018369
G02 X32.983259 Y96.439921 Z-0.300000 I-0.484255 J-1.616293
G02 X33.113659 Y95.899384 Z-0.300000 I-0.450650 J-0.394713
G02 X32.881024 Y95.617047 Z-0.300000 I-0.413626 J0.103802
G02 X31.786329 Y95.277228 Z-0.300000 I-1.776878 J3.790910
G02 X30.619274 Y95.209493 Z-0.300000 I-0.902767 J5.466510
G02 X30.367419 Y95.344988 Z-0.300000 I0.015817 J0.331220
G03 X30.229548 Y95.353324 Z-0.300000 I-0.072388 J-0.052930
G03 X30.057639 Y95.013885 Z-0.300000 I0.496908 J-0.464911
G03 X30.023580 Y94.425381 Z-0.300000 I2.274523 J-0.426874
G03 X30.123039 Y94.080504 Z-0.300000 I0.855305 J0.059882
G02 X30.118969 Y93.725588 Z-0.300000 I-0.324670 J-0.173758
G02 X29.825829 Y93.554528 Z-0.300000 I-0.293140 J0.165642
G03 X29.503299 Y93.370916 Z-0.300000 I0.000000 J-0.375082
G03 X29.135459 Y92.391612 Z-0.300000 I2.562567 J-1.521270
G03 X28.998507 Y91.227500 Z-0.300000 I8.766869 J-1.621492
G03 X29.036759 Y90.470281 Z-0.300000 I3.725507 J-0.191375
G03 X29.498310 Y88.942307 Z-0.300000 I5.609411 J0.860721
G03 X29.785769 Y88.856092 Z-0.300000 I0.181985 J0.084444
G02 X29.939310 Y88.873211 Z-0.300000 I0.094837 J-0.153480
G02 X30.497409 Y88.611222 Z-0.300000 I-0.934998 J-2.717200
G03 X31.070756 Y88.370395 Z-0.300000 I1.090375 J1.792995
G03 X31.446989 Y88.369826 Z-0.300000 I0.189243 J0.744422
G02 X31.701328 Y88.292565 Z-0.300000 I0.062843 J-0.250392
G02 X31.838179 Y87.937139 Z-0.300000 I-0.393129 J-0.355426
G02 X31.739384 Y87.505069 Z-0.300000 I-0.994208 J-0.000000
G02 X31.582009 Y87.406269 Z-0.300000 I-0.157375 J0.075939
G03 X31.336479 Y87.105019 Z-0.300000 I0.000000 J-0.250683
G03 X31.821399 Y86.243844 Z-0.300000 I1.587922 J0.327030
G02 X32.960400 Y84.907980 Z-0.300000 I-5.134843 J-5.531640
G02 X34.045049 Y82.918896 Z-0.300000 I-10.449920 J-6.988621
G03 X34.699450 Y81.641081 Z-0.300000 I10.249448 J4.442528
G03 X35.290239 Y80.830285 Z-0.300000 I4.684924 J2.793042
G03 X36.268937 Y80.130811 Z-0.300000 I1.993286 J1.754558
G03 X38.199919 Y79.627317 Z-0.300000 I2.791945 J6.753009
G02 X39.113172 Y79.449714 Z-0.300000 I-0.741442 J-6.249375
G02 X39.181939 Y79.359698 Z-0.300000 I-0.024531 J-0.090016
G02 X39.139170 Y79.226305 Z-0.300000 I-0.229408 J0.000000
G02 X38.803409 Y78.830065 Z-0.300000 I-2.565829 J1.833828
G03 X38.542207 Y78.398516 Z-0.300000 I0.746906 J-0.746900
G03 X38.358409 Y77.407515 Z-0.300000 I4.024732 J-1.258999
G02 X38.117477 Y76.475352 Z-0.300000 I-2.552935 J0.162627
G02 X37.717539 Y76.054159 Z-0.300000 I-0.841311 J0.398381
G03 X37.040041 Y75.280805 Z-0.300000 I0.696782 J-1.293856
G03 X36.856289 Y73.780220 Z-0.300000 I2.971388 J-1.125399
G02 X36.737953 Y71.971873 Z-0.300000 I-4.925425 J-0.585731
G02 X36.282479 Y71.524185 Z-0.300000 I-0.596997 J0.151838
G03 X35.309325 Y70.768238 Z-0.300000 I0.340604 J-1.442829
G03 X34.946799 Y68.969497 Z-0.300000 I2.912928 J-1.522987
G03 X35.136183 Y68.459949 Z-0.300000 I1.008712 J0.084940
G03 X35.595449 Y68.075543 Z-0.300000 I0.994443 J0.721549
G03 X37.138916 Y67.601272 Z-0.300000 I2.313929 J4.781788
G03 X40.571469 Y67.346131 Z-0.300000 I3.501064 J23.884123
G01 X43.071109 Y67.339031 Z-0.300000
G01 X43.932419 Y68.064867 Z-0.300000
G02 X44.951603 Y68.678146 Z-0.300000 I2.427373 J-2.880443
G02 X45.097649 Y68.534525 Z-0.300000 I0.041759 J-0.103603
G01 X45.166160 Y68.496889 Z-0.300000
G03 X45.904899 Y69.622632 Z-0.300000 I-9.402173 J6.975190
G02 X46.740838 Y70.916195 Z-0.300000 I13.205641 J-7.616994
G02 X47.170259 Y71.379207 Z-0.300000 I2.079402 J-1.497904
G03 X47.582171 Y71.813586 Z-0.300000 I-1.717552 J2.041211
G03 X47.605679 Y71.956253 Z-0.300000 I-0.124230 J0.093740
G02 X47.637130 Y72.225432 Z-0.300000 I0.304337 J0.100868
G02 X49.514159 Y75.050648 Z-0.300000 I42.775440 J-26.383183
G01 X49.484681 Y75.086123 Z-0.300000
G03 X49.305349 Y74.953348 Z-0.300000 I0.235720 J-0.505867
G02 X48.593185 Y74.341589 Z-0.300000 I-2.716287 J2.441692
G02 X48.330149 Y74.313280 Z-0.300000 I-0.159135 J0.242456
G02 X48.165017 Y74.502768 Z-0.300000 I0.096105 J0.250449
G02 X48.146529 Y75.100154 Z-0.300000 I1.477107 J0.344692
G02 X48.310949 Y75.756156 Z-0.300000 I4.264968 J-0.720362
G02 X48.588439 Y76.416777 Z-0.300000 I4.604635 J-1.545562
G03 X48.851764 Y77.076197 Z-0.300000 I-3.459825 J1.763890
G03 X48.916679 Y77.523280 Z-0.300000 I-1.507109 J0.447083
G02 X49.117271 Y77.841223 Z-0.300000 I0.352270 J-0.000000
G02 X50.515089 Y78.285936 Z-0.300000 I2.310521 J-4.843247
G02 X50.967817 Y78.212643 Z-0.300000 I0.119856 J-0.694541
G02 X51.061989 Y77.992903 Z-0.300000 I-0.090452 J-0.168814
G03 X51.076029 Y77.871979 Z-0.300000 I0.156401 J-0.043118
G01 X51.128989 Y77.870327 Z-0.300000
G03 X51.217657 Y78.447814 Z-0.300000 I-0.619547 J0.390676
G03 X50.905119 Y78.719240 Z-0.300000 I-0.355588 J-0.093796
G03 X50.709468 Y78.736656 Z-0.300000 I-0.403351 J-3.423543
G03 X50.197549 Y78.761940 Z-0.300000 I-1.411725 J-23.387941
G02 X49.792903 Y78.945785 Z-0.300000 I0.022554 J0.586881
G02 X49.172839 Y79.848079 Z-0.300000 I2.592236 J2.445611
G03 X48.609481 Y80.788352 Z-0.300000 I-5.381575 J-2.585428
G03 X48.449609 Y80.836451 Z-0.300000 I-0.111780 J-0.081794
G02 X48.161874 Y81.000373 Z-0.300000 I-0.075062 J0.202737
G02 X47.997959 Y83.311122 Z-0.300000 I10.407262 J1.899435
G02 X48.474930 Y87.028004 Z-0.300000 I21.126591 J-0.822035
G02 X49.363199 Y89.522243 Z-0.300000 I10.308592 J-2.265894
G03 X50.999558 Y93.065027 Z-0.300000 I-49.494628 J25.010122
G03 X51.136869 Y93.746780 Z-0.300000 I-1.623802 J0.681753
G03 X50.869520 Y94.010206 Z-0.300000 I-0.263454 J0.000000
G03 X49.773039 Y93.726620 Z-0.300000 I0.035461 J-2.398669
G03 X49.422056 Y93.321939 Z-0.300000 I0.354112 J-0.661670
G03 X48.932229 Y91.419712 Z-0.300000 I9.480746 J-3.455489
G02 X48.719158 Y90.408704 Z-0.300000 I-9.605512 J1.496411
G02 X48.339529 Y89.199507 Z-0.300000 I-14.134657 J3.773409
G03 X47.968070 Y87.992764 Z-0.300000 I12.134514 J-4.395777
G03 X47.899209 Y87.472795 Z-0.300000 I2.158364 J-0.550385
G02 X47.801652 Y86.970272 Z-0.300000 I-1.444940 J0.019782
G02 X47.435769 Y86.277300 Z-0.300000 I-3.157022 J1.223801
G02 X46.979383 Y85.613162 Z-0.300000 I-1085.534764 J745.471896
G02 X46.509239 Y84.929883 Z-0.300000 I-1158.339230 J796.518734
G02 X44.913468 Y83.187358 Z-0.300000 I-7.048862 J4.853265
G02 X41.897149 Y81.116824 Z-0.300000 I-13.074057 J15.813732
G02 X39.024038 Y80.178533 Z-0.300000 I-3.791504 J6.741868
G02 X36.157709 Y80.430499 Z-0.300000 I-0.832357 J6.960675
G02 X35.189501 Y81.129465 Z-0.300000 I0.533190 J1.758639
G02 X34.942759 Y82.151890 Z-0.300000 I1.164761 J0.822078
G02 X35.148253 Y82.366557 Z-0.300000 I0.252244 J-0.035775
G02 X37.088369 Y82.552415 Z-0.300000 I2.010989 J-10.773059
G01 X39.179039 Y82.565945 Z-0.300000
G01 X39.991709 Y83.254750 Z-0.300000
G03 X40.659242 Y84.265833 Z-0.300000 I-1.397018 J1.648233
G03 X40.420109 Y84.642895 Z-0.300000 I-0.280395 J0.086534
G02 X40.198994 Y85.138338 Z-0.300000 I0.045045 J0.317166
G02 X41.444819 Y86.172748 Z-0.300000 I2.370929 J-1.588074
G03 X41.797520 Y86.451334 Z-0.300000 I-0.340457 J0.793591
G03 X41.914479 Y86.804864 Z-0.300000 I-0.475824 J0.353530
G03 X41.657798 Y87.076789 Z-0.300000 I-0.272378 J0.000000
G03 X40.800759 Y86.869154 Z-0.300000 I-0.087295 J-1.512263
G02 X40.145683 Y86.608941 Z-0.300000 I-1.160574 J1.967032
G02 X38.528099 Y86.353350 Z-0.300000 I-2.728630 J12.022459
G03 X36.885513 Y86.159056 Z-0.300000 I2.711420 J-29.963157
G03 X36.360889 Y86.036373 Z-0.300000 I0.461975 J-3.158580
G02 X35.843054 Y85.978686 Z-0.300000 I-0.398857 J1.227341
G02 X34.680209 Y86.191982 Z-0.300000 I0.612571 J6.616048
G02 X33.395255 Y86.823225 Z-0.300000 I1.033570 J3.727372
G02 X33.337459 Y87.197493 Z-0.300000 I0.162238 J0.216650
G03 X33.590629 Y87.865983 Z-0.300000 I-1.131939 J0.810873
G03 X33.469609 Y88.483029 Z-0.300000 I-1.071815 J0.110178
G02 X33.301934 Y89.045200 Z-0.300000 I1.303542 J0.694889
G02 X33.351839 Y89.788534 Z-0.300000 I2.372746 J0.214045
G03 X33.310215 Y90.667926 Z-0.300000 I-1.601311 J0.364887
G03 X33.054469 Y90.690065 Z-0.300000 I-0.132619 J-0.043748
G02 X32.813374 Y90.392760 Z-0.300000 I-0.893495 J0.478157
G02 X32.488329 Y90.213759 Z-0.300000 I-0.613184 J0.728849
G03 X32.148114 Y90.043477 Z-0.300000 I0.368755 J-1.161762
G03 X31.815359 Y89.732533 Z-0.300000 I1.015790 J-1.420563
G02 X31.483096 Y89.549769 Z-0.300000 I-0.395312 J0.325265
G02 X31.037299 Y89.635973 Z-0.300000 I-0.090392 J0.728351
G02 X30.758420 Y90.066245 Z-0.300000 I0.263677 J0.476414
G02 X30.845319 Y91.893373 Z-0.300000 I6.904912 J0.587231
G01 X31.055689 Y93.050163 Z-0.300000
G01 X31.903019 Y93.301796 Z-0.300000
G03 X32.731374 Y93.594346 Z-0.300000 I-2.461249 J8.288045
G03 X33.148189 Y93.814096 Z-0.300000 I-0.946437 J2.300348
G03 X33.568352 Y94.518415 Z-0.300000 I-0.513615 J0.783883
G03 X33.247189 Y94.975582 Z-0.300000 I-0.433398 J0.036928
G02 X33.204907 Y95.061784 Z-0.300000 I0.016431 J0.061530
G02 X33.332589 Y95.178808 Z-0.300000 I0.191047 J-0.080280
G03 X33.585108 Y95.398285 Z-0.300000 I-0.129905 J0.404467
G03 X33.716859 Y95.973207 Z-0.300000 I-1.188515 J0.574922
G03 X33.191614 Y97.051468 Z-0.300000 I-1.369389 J-0.000000
G03 X30.386549 Y98.580429 Z-0.300000 I-5.989089 J-7.650115
G01 X29.361839 Y98.935880 Z-0.300000
G01 X29.382239 Y102.181277 Z-0.300000
G02 X29.581078 Y105.391635 Z-0.300000 I28.948534 J-0.181642
G02 X29.916049 Y106.706269 Z-0.300000 I5.116239 J-0.603634
G02 X31.640347 Y109.997977 Z-0.300000 I17.106618 J-6.863501
G02 X32.660629 Y110.863567 Z-0.300000 I1.994320 J-1.316624
G03 X33.107567 Y111.089759 Z-0.300000 I-2.096926 J4.698008
G03 X34.029309 Y111.642158 Z-0.300000 I-11.709079 J20.583195
G03 X34.687475 Y112.244307 Z-0.300000 I-1.340824 J2.126330
G03 X34.671379 Y112.484250 Z-0.300000 I-0.145272 J0.110766
G03 X32.523855 Y113.027049 Z-0.300000 I-1.528769 J-1.528782
G03 X30.377599 Y111.201753 Z-0.300000 I1.001074 J-3.351578
G02 X30.157492 Y110.859986 Z-0.300000 I-1.517592 J0.735611
G02 X29.455889 Y110.091651 Z-0.300000 I-8.509708 J7.066108
G03 X28.587322 Y108.665716 Z-0.300000 I2.479442 J-2.487780
G03 X28.219289 Y106.192622 Z-0.300000 I7.508100 J-2.381247
G02 X28.058298 Y101.967555 Z-0.300000 I-42.507940 J-0.495892
G02 X27.625229 Y99.446616 Z-0.300000 I-15.498885 J1.364869
G03 X27.424444 Y98.412304 Z-0.300000 I8.412183 J-2.169653
G03 X27.287549 Y96.884842 Z-0.300000 I18.245346 J-2.405059
G02 X26.790564 Y92.684915 Z-0.300000 I-30.163290 J1.439908
G02 X26.362269 Y92.017471 Z-0.300000 I-1.043301 J0.198341
G03 X26.268158 Y91.910306 Z-0.300000 I0.179377 J-0.252434
G03 X25.681939 Y90.736583 Z-0.300000 I23.116496 J-12.278839
G03 X25.297634 Y89.502723 Z-0.300000 I4.308970 J-2.018874
G03 X25.139179 Y87.491669 Z-0.300000 I11.436100 J-1.912844
G03 X25.232737 Y85.452407 Z-0.300000 I27.610615 J0.244953
G03 X25.380999 Y84.588325 Z-0.300000 I5.021441 J0.416834
G03 X25.734038 Y83.901167 Z-0.300000 I1.730624 J0.454868
G03 X26.088909 Y83.734400 Z-0.300000 I0.354871 J0.294190
G02 X26.467174 Y83.575428 Z-0.300000 I-0.000000 J-0.529517
G02 X26.942389 Y82.863135 Z-0.300000 I-1.647307 J-1.613690
G03 X27.342462 Y82.010218 Z-0.300000 I11.725478 J4.979710
G03 X27.518569 Y81.744351 Z-0.300000 I1.297680 J0.668310
G02 X28.226700 Y80.464217 Z-0.300000 I-2.988173 J-2.488893
G02 X29.380999 Y76.049077 Z-0.300000 I-35.964660 J-11.761097
G02 X29.622104 Y73.828753 Z-0.300000 I-12.575379 J-2.488814
G02 X29.452299 Y72.645504 Z-0.300000 I-3.671544 J-0.076914
G03 X29.307271 Y72.116045 Z-0.300000 I6.793351 J-2.145405
G03 X29.171099 Y71.437883 Z-0.300000 I10.987950 J-2.559091
G01 X29.055589 Y70.754743 Z-0.300000
G01 X28.862019 Y71.510750 Z-0.300000
G03 X28.426425 Y72.101098 Z-0.300000 I-0.946178 J-0.242269
G03 X27.999309 Y72.039786 Z-0.300000 I-0.176615 J-0.288009
G02 X27.669660 Y71.731833 Z-0.300000 I-1.997355 J1.807660
G02 X27.560729 Y71.694061 Z-0.300000 I-0.108931 J0.138187
G02 X27.494557 Y71.755247 Z-0.300000 I0.000000 J0.066375
G02 X27.363269 Y74.213139 Z-0.300000 I49.297072 J3.865653
G03 X27.189174 Y76.709319 Z-0.300000 I-30.387120 J-0.865174
G03 X27.011799 Y77.372660 Z-0.300000 I-2.276045 J-0.253222
G03 X26.694411 Y77.955545 Z-0.300000 I-3.506145 J-1.531283
G03 X26.587189 Y78.013104 Z-0.300000 I-0.107222 J-0.071089
G03 X26.514616 Y77.945229 Z-0.300000 I0.000000 J-0.072736
G03 X26.512889 Y76.904185 Z-0.300000 I7.968591 J-0.533740
G02 X26.520877 Y75.797743 Z-0.300000 I-9.809906 J-0.624072
G02 X26.393249 Y74.470500 Z-0.300000 I-14.241571 J0.699713
G03 X26.208184 Y73.145047 Z-0.300000 I169.365627 J-24.323201
G03 X26.117039 Y72.434205 Z-0.300000 I48.695915 J-6.605083
G02 X26.001002 Y71.729950 Z-0.300000 I-8.239072 J0.995830
G02 X25.885979 Y71.330430 Z-0.300000 I-2.751752 J0.575919
G01 X25.740879 Y70.938183 Z-0.300000
G01 X25.524259 Y71.342940 Z-0.300000
G02 X25.398596 Y71.764926 Z-0.300000 I0.967598 J0.517844
G02 X25.411379 Y72.630317 Z-0.300000 I4.224316 J0.370391
G03 X25.409701 Y73.484053 Z-0.300000 I-3.573503 J0.419844
G03 X25.264199 Y73.841688 Z-0.300000 I-0.730340 J-0.088719
G03 X25.018892 Y73.990249 Z-0.300000 I-0.311726 J-0.237919
G03 X24.841869 Y73.914268 Z-0.300000 I-0.029969 J-0.174384
G03 X24.709842 Y73.645905 Z-0.300000 I0.939949 J-0.629088
G03 X24.667839 Y73.397218 Z-0.300000 I0.763041 J-0.256766
G02 X24.616172 Y73.152170 Z-0.300000 I-0.627695 J0.004375
G02 X24.378209 Y72.726575 Z-0.300000 I-2.214659 J0.958960
G03 X24.186620 Y72.284424 Z-0.300000 I0.983021 J-0.688540
G03 X24.038859 Y71.108814 Z-0.300000 I7.101993 J-1.489729
G02 X23.799883 Y69.307007 Z-0.300000 I-10.265965 J0.444835
G02 X23.346709 Y68.019753 Z-0.300000 I-5.652071 J1.266401
G03 X23.169434 Y67.493698 Z-0.300000 I1.899565 J-0.933030
G03 X23.162639 Y67.080436 Z-0.300000 I1.151357 J-0.225618
G03 X23.296257 Y67.000960 Z-0.300000 I0.100100 J0.016233
G03 X23.564059 Y67.221009 Z-0.300000 I-0.166610 J0.475749
G02 X23.928140 Y67.763094 Z-0.300000 I4.738566 J-2.789257
G02 X24.539509 Y68.501896 Z-0.300000 I9.433212 J-7.183761
G01 X25.182319 Y69.217682 Z-0.300000
G01 X25.151919 Y68.022187 Z-0.300000
G02 X24.839792 Y66.584412 Z-0.300000 I-3.927404 J0.099835
G02 X24.005189 Y65.325986 Z-0.300000 I-3.808165 J1.619647
G03 X23.412347 Y64.533170 Z-0.300000 I2.808027 J-2.717813
G03 X23.457279 Y64.357989 Z-0.300000 I0.113496 J-0.064242
G02 X23.499427 Y64.185577 Z-0.300000 I-0.066511 J-0.107617
G02 X22.908469 Y63.437618 Z-0.300000 I-3.134677 J1.869256
G03 X22.194727 Y62.624937 Z-0.300000 I4.777469 J-4.915603
G03 X22.036659 Y62.270804 Z-0.300000 I0.705866 J-0.527409
G02 X21.951978 Y61.875024 Z-0.300000 I-15.557787 J3.121792
G02 X21.559459 Y60.171857 Z-0.300000 I-286.561490 J65.145343
G02 X20.989843 Y58.586468 Z-0.300000 I-7.120474 J1.663297
G02 X20.479849 Y57.994871 Z-0.300000 I-1.408241 J0.698372
G03 X18.154033 Y56.205270 Z-0.300000 I17.632970 J-25.322464
G03 X17.725789 Y55.659076 Z-0.300000 I1.116338 J-1.316244
G02 X17.509951 Y55.285674 Z-0.300000 I-3.134083 J1.562516
G02 X17.341229 Y55.079389 Z-0.300000 I-1.114024 J0.739027
G03 X17.195015 Y54.870452 Z-0.300000 I0.518436 J-0.518431
G03 X17.150659 Y54.670120 Z-0.300000 I0.430221 J-0.200332
G02 X17.100893 Y54.465972 Z-0.300000 I-0.443604 J0.000000
G02 X16.552919 Y53.516985 Z-0.300000 I-10.710157 J5.551665
G03 X16.018828 Y52.231233 Z-0.300000 I3.360683 J-2.149805
G03 X16.160109 Y51.746380 Z-0.300000 I0.512453 J-0.113687
G03 X16.989171 Y51.445129 Z-0.300000 I0.737094 J0.737087
G03 X17.702649 Y51.883008 Z-0.300000 I-0.082831 J0.935172
G02 X17.947925 Y52.166942 Z-0.300000 I1.035958 J-0.647005
G02 X18.104819 Y52.224578 Z-0.300000 I0.156894 J-0.184725
G03 X19.239660 Y52.759548 Z-0.300000 I-0.000000 J1.471164
G03 X20.570409 Y55.213315 Z-0.300000 I-5.617758 J4.634408
G02 X21.140642 Y56.705429 Z-0.300000 I12.511099 J-3.926278
G02 X21.510579 Y57.285230 Z-0.300000 I2.213662 J-1.004491
G03 X21.869030 Y57.768995 Z-0.300000 I-3.167587 J2.721740
G03 X22.557769 Y58.935143 Z-0.300000 I-17.837921 J11.321721
G01 X23.210629 Y60.126134 Z-0.300000
G01 X23.352319 Y59.409630 Z-0.300000
G02 X23.345279 Y58.727678 Z-0.300000 I-1.638754 J-0.324095
G02 X23.074519 Y58.143140 Z-0.300000 I-1.455485 J0.319208
G03 X22.718438 Y57.557526 Z-0.300000 I2.592834 J-1.977628
G03 X21.890429 Y55.634701 Z-0.300000 I27.514505 J-12.988022
G03 X21.315340 Y53.636844 Z-0.300000 I10.547518 J-4.117831
G03 X21.028869 Y51.114476 Z-0.300000 I16.584217 J-3.160961
G02 X20.675067 Y48.029363 Z-0.300000 I-20.341471 J0.769922
G02 X20.402589 Y47.867337 Z-0.300000 I-0.208302 J0.040175
G03 X20.188569 Y47.807028 Z-0.300000 I-0.061185 J-0.192773
G03 X19.881239 Y47.265817 Z-0.300000 I1.197437 J-1.037838
G02 X19.611353 Y46.603713 Z-0.300000 I-4.975583 J1.642079
G02 X19.493189 Y46.473333 Z-0.300000 I-0.284978 J0.139542
G01 X19.431851 Y46.500224 Z-0.300000
G02 X19.444889 Y46.723699 Z-0.300000 I0.446059 J0.086094
G03 X19.274929 Y46.956589 Z-0.300000 I-0.170421 J0.054091
G03 X18.861339 Y46.725199 Z-0.300000 I-0.001246 J-0.483096
G03 X18.165910 Y45.250972 Z-0.300000 I6.495661 J-3.965302
G03 X18.239599 Y44.930420 Z-0.300000 I0.292812 J-0.101433
G03 X18.341373 Y44.906190 Z-0.300000 I0.070589 J0.070641
G03 X18.598189 Y45.048166 Z-0.300000 I-0.245877 J0.748023
G02 X18.714562 Y44.971070 Z-0.300000 I0.046558 J-0.056100
G02 X18.313939 Y44.103015 Z-0.300000 I-3.274594 J0.984807
G03 X17.259928 Y42.186471 Z-0.300000 I13.174052 J-8.493224
G03 X17.306679 Y41.923906 Z-0.300000 I0.211537 J-0.097779
G02 X17.494638 Y41.177074 Z-0.300000 I-0.530716 J-0.530637
G02 X16.963159 Y40.781949 Z-0.300000 I-0.531479 J0.159882
G02 X16.874817 Y40.847624 Z-0.300000 I0.000000 J0.092254
G02 X16.809079 Y41.294301 Z-0.300000 I1.484675 J0.446677
G03 X16.696893 Y41.694459 Z-0.300000 I-0.769756 J0.000000
G03 X16.497279 Y41.806655 Z-0.300000 I-0.199614 J-0.121473
G03 X15.992218 Y41.568823 Z-0.300000 I-0.000000 J-0.655192
G03 X14.944859 Y39.928020 Z-0.300000 I6.140804 J-5.074479
G02 X14.389712 Y38.833319 Z-0.300000 I-23.387959 J11.172438
G02 X14.202849 Y38.546940 Z-0.300000 I-1.771515 J0.951763
G02 X13.470034 Y37.958330 Z-0.300000 I-1.618604 J1.264671
G02 X13.021889 Y37.982490 Z-0.300000 I-0.201946 J0.422518
G03 X12.953901 Y37.976493 Z-0.300000 I-0.029978 J-0.048524
G01 X12.944789 Y37.913590 Z-0.300000
G02 X12.861603 Y37.601251 Z-0.300000 I-0.189112 J-0.116880
G02 X11.934869 Y37.366280 Z-0.300000 I-0.926734 J1.710046
G03 X11.165361 Y37.122859 Z-0.300000 I0.000000 J-1.338003
G03 X10.163529 Y36.120990 Z-0.300000 I2.371313 J-3.373057
G03 X9.773438 Y35.132813 Z-0.300000 I1.852814 J-1.302498
G03 X9.811489 Y33.609010 Z-0.300000 I4.617352 J-0.647076
G02 X9.831416 Y32.888993 Z-0.300000 I-2.199798 J-0.421164
G02 X9.679329 Y32.627000 Z-0.300000 I-0.392810 J0.052886
G02 X9.146848 Y32.464068 Z-0.300000 I-0.485555 J0.635280
G02 X8.952949 Y32.669700 Z-0.300000 I0.012089 J0.205632
G03 X8.878810 Y32.851731 Z-0.300000 I-0.260536 J0.000000
G03 X8.702779 Y32.925870 Z-0.300000 I-0.176031 J-0.171908
G03 X8.317796 Y32.707096 Z-0.300000 I-0.000000 J-0.448121
G03 X8.099019 Y31.912390 Z-0.300000 I1.333997 J-0.794706
G02 X7.944963 Y31.713653 Z-0.300000 I-0.205217 J0.000000
G02 X6.728520 Y31.559590 Z-0.300000 I-1.216444 J4.725349
G02 X5.478446 Y31.734267 Z-0.300000 I0.000000 J4.560397
G02 X5.191450 Y31.997670 Z-0.300000 I0.119089 J0.417810
G01 X5.191650 Y31.997800 Z-0.300000
G0 Z2.000000

(End cutting path id: path27)


(Start cutting path id: path27)
(Change tool to Cylindrical cutter)

G0 Z2.000000
G0 X6.807270 Y33.932820

G01 Z-0.300000 F100.0(Penetrate)
G03 X6.808564 Y34.054261 Z-0.300000 I-0.099937 J0.061792 F400.000000
G03 X6.663260 Y34.177230 Z-0.300000 I-0.248706 J-0.146546
G03 X6.353997 Y34.153045 Z-0.300000 I-0.129240 J-0.336778
G03 X6.220580 Y33.922250 Z-0.300000 I0.132915 J-0.230795
G03 X6.429069 Y33.717481 Z-0.300000 I0.204802 J0.000000
G03 X6.807270 Y33.932850 Z-0.300000 I-0.008176 J0.454113
G01 X6.807270 Y33.932820 Z-0.300000
G0 Z2.000000

(End cutting path id: path27)


(Start cutting path id: path27)
(Change tool to Cylindrical cutter)

G0 Z2.000000
G0 X48.835949 Y36.137930

G01 Z-0.300000 F100.0(Penetrate)
G03 X48.740463 Y36.158356 Z-0.300000 I-0.063514 J-0.063514 F400.000000
G03 X48.529709 Y36.021320 Z-0.300000 I0.212021 J-0.556660
G03 X48.529850 Y35.946145 Z-0.300000 I0.037799 J-0.037517
G03 X48.625309 Y35.925720 Z-0.300000 I0.063502 J0.063502
G03 X48.836092 Y36.062744 Z-0.300000 I-0.211723 J0.556327
G03 X48.835949 Y36.137930 Z-0.300000 I-0.037808 J0.037521
G01 X48.835949 Y36.137930 Z-0.300000
G0 Z2.000000

(End cutting path id: path27)


(Start cutting path id: path27)
(Change tool to Cylindrical cutter)

G0 Z2.000000
G0 X50.664029 Y38.903480

G01 Z-0.300000 F100.0(Penetrate)
G03 X50.997725 Y40.209010 Z-0.300000 I-6.838020 J2.443221 F400.000000
G03 X51.236829 Y42.514281 Z-0.300000 I-21.215160 J3.365486
G01 X51.351959 Y44.844198 Z-0.300000
G01 X51.884939 Y44.996275 Z-0.300000
G03 X52.300479 Y45.261873 Z-0.300000 I-0.236000 J0.827096
G03 X52.581279 Y45.804281 Z-0.300000 I-0.999350 J0.861244
G03 X52.588981 Y46.408105 Z-0.300000 I-1.277852 J0.318261
G03 X52.367799 Y46.765361 Z-0.300000 I-0.622437 J-0.138263
G02 X52.123841 Y47.133694 Z-0.300000 I0.462702 J0.571418
G02 X51.993479 Y48.067846 Z-0.300000 I3.220916 J0.925654
G02 X52.055646 Y49.058145 Z-0.300000 I8.155449 J-0.014868
G02 X52.250979 Y50.146755 Z-0.300000 I10.171530 J-1.263281
G03 X52.461238 Y51.221379 Z-0.300000 I-13.914870 J3.280439
G03 X52.437679 Y51.342249 Z-0.300000 I-0.178683 J0.027904
G02 X52.354801 Y51.771129 Z-0.300000 I0.547831 J0.328312
G02 X53.871909 Y60.336987 Z-0.300000 I250.157342 J-39.888345
G03 X54.792764 Y65.430406 Z-0.300000 I-186.737561 J36.390810
G03 X55.053969 Y67.424563 Z-0.300000 I-28.334517 J4.725589
G02 X55.224172 Y69.045270 Z-0.300000 I85.879475 J-8.199602
G02 X55.422469 Y70.641298 Z-0.300000 I83.826290 J-9.604563
G03 X55.512581 Y72.177155 Z-0.300000 I-10.236862 J1.371189
G03 X55.394669 Y72.384732 Z-0.300000 I-0.248649 J-0.003965
G03 X55.119233 Y72.306676 Z-0.300000 I-0.102005 J-0.165047
G03 X54.832799 Y71.264562 Z-0.300000 I2.471742 J-1.239802
G02 X54.029308 Y64.238172 Z-0.300000 I-83.392080 J5.977025
G02 X53.179479 Y60.763950 Z-0.300000 I-21.122208 J3.325651
G03 X53.066234 Y60.330184 Z-0.300000 I3.110073 J-1.043626
G03 X52.920909 Y59.397670 Z-0.300000 I14.315622 J-2.708555
G02 X52.766877 Y58.470429 Z-0.300000 I-10.977485 J1.347155
G02 X52.668819 Y58.197595 Z-0.300000 I-1.031955 J0.216851
G03 X52.570741 Y57.924313 Z-0.300000 I0.932227 J-0.488809
G03 X52.347279 Y56.660530 Z-0.300000 I20.132533 J-4.211473
G02 X52.155688 Y55.385284 Z-0.300000 I-120.042819 J17.383036
G02 X51.975759 Y54.274121 Z-0.300000 I-91.226496 J14.202021
G03 X51.810598 Y53.161326 Z-0.300000 I28.762744 J-4.837634
G03 X51.711869 Y52.224702 Z-0.300000 I20.275603 J-2.610744
G02 X51.612811 Y51.288009 Z-0.300000 I-19.998206 J1.641276
G02 X51.385849 Y49.707463 Z-0.300000 I-57.424292 J7.439414
G03 X51.170152 Y48.126945 Z-0.300000 I37.943627 J-5.983227
G03 X51.137029 Y47.550866 Z-0.300000 I4.993015 J-0.576079
G02 X50.903020 Y46.698337 Z-0.300000 I-1.669952 J0.000000
G02 X50.608959 Y46.661430 Z-0.300000 I-0.161371 J0.095807
G01 X50.572923 Y46.648035 Z-0.300000
G03 X50.517859 Y45.421756 Z-0.300000 I21.488996 J-1.579295
G02 X50.393821 Y44.129927 Z-0.300000 I-8.182504 J0.133795
G02 X50.048199 Y42.767034 Z-0.300000 I-9.457911 J1.673200
G03 X49.634951 Y41.415973 Z-0.300000 I27.049742 J-9.012413
G03 X49.599949 Y41.160245 Z-0.300000 I0.916684 J-0.255728
G02 X49.553182 Y40.908963 Z-0.300000 I-0.698457 J0.000000
G02 X48.933379 Y39.431500 Z-0.300000 I-25.611683 J9.875487
G03 X48.294965 Y37.954198 Z-0.300000 I39.612624 J-17.995118
G03 X48.155999 Y37.537200 Z-0.300000 I3.004010 J-1.232755
G03 X48.201786 Y37.423047 Z-0.300000 I0.100301 J-0.026029
G03 X48.310219 Y37.441800 Z-0.300000 I0.043638 J0.070543
G03 X48.532178 Y37.788417 Z-0.300000 I-1.536268 J1.228138
G03 X48.575239 Y37.970380 Z-0.300000 I-0.362933 J0.181963
G02 X48.896126 Y38.675885 Z-0.300000 I0.936009 J-0.000000
G02 X49.312249 Y38.612960 Z-0.300000 I0.181364 J-0.208013
G02 X49.347178 Y38.462181 Z-0.300000 I-0.205375 J-0.127012
G02 X49.219949 Y37.683900 Z-0.300000 I-6.187754 J0.611998
G03 X49.112574 Y36.897630 Z-0.300000 I4.335240 J-0.992497
G03 X49.160949 Y36.414420 Z-0.300000 I1.665350 J-0.077306
G01 X49.282039 Y35.931980 Z-0.300000
G01 X49.744209 Y36.777310 Z-0.300000
G03 X50.165933 Y37.640791 Z-0.300000 I-9.164336 J5.010591
G03 X50.664049 Y38.903530 Z-0.300000 I-19.126643 J8.274546
G01 X50.664029 Y38.903480 Z-0.300000
G0 Z2.000000

(End cutting path id: path27)


(Start cutting path id: path27)
(Change tool to Cylindrical cutter)

G0 Z2.000000
G0 X48.179559 Y36.886080

G01 Z-0.300000 F100.0(Penetrate)
G01 X48.126415 Y36.896991 Z-0.300000 F400.000000
G03 X48.076379 Y36.782900 Z-0.300000 I0.121096 J-0.121126
G03 X48.112992 Y36.569691 Z-0.300000 I0.521113 J-0.020261
G01 X48.166079 Y36.558740 Z-0.300000
G03 X48.216094 Y36.672764 Z-0.300000 I-0.121100 J0.121100
G03 X48.179579 Y36.886080 Z-0.300000 I-0.516561 J0.021360
G01 X48.179559 Y36.886080 Z-0.300000
G0 Z2.000000

(End cutting path id: path27)


(Start cutting path id: path27)
(Change tool to Cylindrical cutter)

G0 Z2.000000
G0 X19.286379 Y37.026050

G01 Z-0.300000 F100.0(Penetrate)
G03 X19.288006 Y37.162746 Z-0.300000 I-0.112711 J0.069700 F400.000000
G03 X19.125669 Y37.300500 Z-0.300000 I-0.277684 J-0.162709
G02 X18.952684 Y37.467916 Z-0.300000 I0.110065 J0.286803
G02 X18.856059 Y37.939730 Z-0.300000 I1.132754 J0.477784
G03 X18.783895 Y38.234594 Z-0.300000 I-0.652635 J-0.003460
G01 X18.702569 Y38.238240 Z-0.300000
G02 X18.582950 Y38.197534 Z-0.300000 I-0.085067 J0.053869
G02 X18.468819 Y38.323640 Z-0.300000 I0.062606 J0.171360
G01 X18.420503 Y38.329423 Z-0.300000
G03 X18.368459 Y38.134950 Z-0.300000 I0.394260 J-0.209711
G03 X18.549933 Y37.071694 Z-0.300000 I2.671650 J-0.091125
G03 X18.868509 Y36.854070 Z-0.300000 I0.318576 J0.124368
G03 X19.149150 Y36.909568 Z-0.300000 I0.000000 J0.737315
G03 X19.286379 Y37.026060 Z-0.300000 I-0.111128 J0.269985
G01 X19.286379 Y37.026050 Z-0.300000
G0 Z2.000000

(End cutting path id: path27)


(Start cutting path id: path27)
(Change tool to Cylindrical cutter)

G0 Z2.000000
G0 X18.975339 Y38.935500

G01 Z-0.300000 F100.0(Penetrate)
G01 X18.922196 Y38.946410 Z-0.300000 F400.000000
G03 X18.872159 Y38.832310 Z-0.300000 I0.121115 J-0.121135
G03 X18.908771 Y38.619111 Z-0.300000 I0.521075 J-0.020261
G01 X18.961859 Y38.608160 Z-0.300000
G03 X19.011919 Y38.722222 Z-0.300000 I-0.120836 J0.121049
G03 X18.975359 Y38.935500 Z-0.300000 I-0.517065 J0.021138
G01 X18.975339 Y38.935500 Z-0.300000
G0 Z2.000000

(End cutting path id: path27)


(Start cutting path id: path27)
(Change tool to Cylindrical cutter)

G0 Z2.000000
G0 X12.458249 Y39.515860

G01 Z-0.300000 F100.0(Penetrate)
G02 X13.041504 Y39.870054 Z-0.300000 I1.958032 J-2.566990 F400.000000
G02 X13.192559 Y39.861460 Z-0.300000 I0.067600 J-0.143639
G03 X13.335112 Y39.855333 Z-0.300000 I0.076743 J0.124126
G03 X13.638979 Y40.087099 Z-0.300000 I-0.471588 J0.933378
G03 X13.820758 Y40.451506 Z-0.300000 I-0.560216 J0.506997
G03 X13.943129 Y41.669773 Z-0.300000 I-6.707907 J1.289068
G03 X13.692057 Y43.416306 Z-0.300000 I-5.782802 J0.060008
G03 X13.328619 Y43.685454 Z-0.300000 I-0.363438 J-0.110806
G02 X13.130557 Y43.743223 Z-0.300000 I0.000000 J0.368414
G02 X12.799769 Y44.022648 Z-0.300000 I0.872341 J1.368202
G02 X12.658993 Y44.372647 Z-0.300000 I0.404376 J0.365959
G02 X12.777269 Y44.791181 Z-0.300000 I0.724588 J0.021213
G02 X13.116874 Y45.117049 Z-0.300000 I0.878386 J-0.575520
G02 X13.498899 Y45.222519 Z-0.300000 I0.382025 J-0.639133
G03 X13.856449 Y45.328032 Z-0.300000 I0.000000 J0.658567
G03 X14.027239 Y45.564089 Z-0.300000 I-0.218411 J0.337836
G02 X14.157085 Y45.853175 Z-0.300000 I0.924938 J-0.241742
G02 X14.255229 Y45.905658 Z-0.300000 I0.098144 J-0.065524
G03 X14.702451 Y46.133856 Z-0.300000 I0.000000 J0.552331
G03 X14.930649 Y46.837567 Z-0.300000 I-0.970943 J0.703711
G02 X14.980087 Y47.222306 Z-0.300000 I1.521782 J0.000000
G02 X15.184069 Y47.807381 Z-0.300000 I3.756886 J-0.981713
G01 X15.437489 Y48.382040 Z-0.300000
G01 X15.372789 Y47.581334 Z-0.300000
G03 X15.352286 Y46.796842 Z-0.300000 I7.175354 J-0.580040
G03 X15.397989 Y46.690723 Z-0.300000 I0.156370 J0.004443
G03 X15.732564 Y46.671048 Z-0.300000 I0.178354 J0.178349
G03 X16.403719 Y47.484140 Z-0.300000 I-1.545917 J1.959598
G02 X16.730725 Y47.989863 Z-0.300000 I2.769076 J-1.431931
G02 X17.084519 Y48.342165 Z-0.300000 I1.678457 J-1.331767
G03 X17.666596 Y49.160261 Z-0.300000 I-1.100671 J1.399252
G03 X17.806439 Y50.432526 Z-0.300000 I-2.734473 J0.944381
G03 X17.614618 Y50.813983 Z-0.300000 I-0.614639 J-0.070121
G03 X17.150829 Y51.046373 Z-0.300000 I-0.624108 J-0.666559
G02 X16.561124 Y51.180894 Z-0.300000 I1.111299 J6.231464
G02 X16.072309 Y51.347269 Z-0.300000 I1.239794 J4.443817
G03 X15.587343 Y51.520019 Z-0.300000 I-2.304993 J-5.703759
G03 X15.444969 Y51.541562 Z-0.300000 I-0.142374 J-0.459698
G03 X14.718444 Y51.221352 Z-0.300000 I0.000000 J-0.984310
G03 X14.152829 Y50.127970 Z-0.300000 I1.746580 J-1.596510
G02 X13.990091 Y49.596255 Z-0.300000 I-3.289785 J0.716118
G02 X13.798709 Y49.240660 Z-0.300000 I-1.647766 J0.657533
G03 X13.617658 Y48.886609 Z-0.300000 I1.211450 J-0.842815
G03 X13.558919 Y48.557520 Z-0.300000 I0.984234 J-0.345464
G02 X13.496584 Y48.230846 Z-0.300000 I-0.966990 J0.015233
G02 X13.302739 Y47.879740 Z-0.300000 I-1.315260 J0.497091
G03 X13.107447 Y47.529613 Z-0.300000 I1.155817 J-0.874213
G03 X13.051989 Y47.233288 Z-0.300000 I0.763935 J-0.296325
G02 X12.997576 Y46.934591 Z-0.300000 I-0.847043 J0.000000
G02 X12.772629 Y46.491980 Z-0.300000 I-2.119500 J0.798719
G03 X11.999913 Y44.261532 Z-0.300000 I4.044929 J-2.650399
G03 X12.527959 Y43.685454 Z-0.300000 I0.528046 J-0.046029
G02 X12.984187 Y43.162184 Z-0.300000 I0.000000 J-0.460523
G02 X12.158889 Y41.002036 Z-0.300000 I-5.061876 J0.696192
G03 X11.444699 Y39.385671 Z-0.300000 I4.157000 J-2.802734
G03 X11.689369 Y39.074260 Z-0.300000 I0.244670 J-0.059589
G03 X11.863596 Y39.120733 Z-0.300000 I-0.000000 J0.349826
G03 X12.458259 Y39.515860 Z-0.300000 I-2.731475 J4.755891
G01 X12.458249 Y39.515860 Z-0.300000
G0 Z2.000000

(End cutting path id: path27)


(Start cutting path id: path27)
(Change tool to Cylindrical cutter)

G0 Z2.000000
G0 X15.869929 Y47.613508

G01 Z-0.300000 F100.0(Penetrate)
G02 X15.989167 Y47.759786 Z-0.300000 I0.619211 J-0.383011 F400.000000
G02 X16.050799 Y47.784293 Z-0.300000 I0.061632 J-0.065245
G01 X16.096370 Y47.754585 Z-0.300000
G02 X16.126099 Y47.613508 Z-0.300000 I-0.319875 J-0.141077
G02 X16.074649 Y47.494168 Z-0.300000 I-0.164131 J-0.000000
G02 X15.945229 Y47.442723 Z-0.300000 I-0.129420 J0.137068
G02 X15.861857 Y47.497086 Z-0.300000 I-0.000000 J0.091112
G02 X15.869929 Y47.613508 Z-0.300000 I0.114661 J0.050541
G01 X15.869929 Y47.613508 Z-0.300000
G0 Z2.000000

(End cutting path id: path27)


(Start cutting path id: path27)
(Change tool to Cylindrical cutter)

G0 Z2.000000
G0 X16.856449 Y49.988488

G01 Z-0.300000 F100.0(Penetrate)
G01 X16.522099 Y50.664265 Z-0.300000 F400.000000
G01 X16.948349 Y50.771248 Z-0.300000
G02 X17.661699 Y50.398726 Z-0.300000 I0.147351 J-0.587099
G02 X17.426989 Y49.508731 Z-0.300000 I-0.740389 J-0.280691
G02 X17.232566 Y49.509359 Z-0.300000 I-0.096835 J0.116683
G02 X16.856449 Y49.988488 Z-0.300000 I0.957842 J1.139099
G01 X16.856449 Y49.988488 Z-0.300000
G0 Z2.000000

(End cutting path id: path27)


(Start cutting path id: path27)
(Change tool to Cylindrical cutter)

G0 Z2.000000
G0 X19.118059 Y39.800100

G01 Z-0.300000 F100.0(Penetrate)
G02 X19.112229 Y40.109705 Z-0.300000 I0.869502 J0.171231 F400.000000
G01 X19.169059 Y40.122619 Z-0.300000
G03 X19.275876 Y40.134328 Z-0.300000 I0.050253 J0.034644
G03 X19.520989 Y40.990537 Z-0.300000 I-3.885982 J1.575659
G03 X19.432796 Y41.248255 Z-0.300000 I-0.278782 J0.048549
G03 X19.281149 Y41.209072 Z-0.300000 I-0.063016 J-0.069160
G03 X18.962418 Y40.009977 Z-0.300000 I8.864443 J-2.998166
G03 X18.971659 Y39.629310 Z-0.300000 I0.864929 J-0.169448
G03 X19.067200 Y39.606600 Z-0.300000 I0.053615 J0.013234
G03 X19.118079 Y39.800100 Z-0.300000 I-0.174032 J0.149199
G01 X19.118059 Y39.800100 Z-0.300000
G0 Z2.000000

(End cutting path id: path27)


(Start cutting path id: path27)
(Change tool to Cylindrical cutter)

G0 Z2.000000
G0 X51.424479 Y41.668057

G01 Z-0.300000 F100.0(Penetrate)
G01 X51.371331 Y41.678967 Z-0.300000 F400.000000
G03 X51.321299 Y41.564874 Z-0.300000 I0.121118 J-0.121129
G03 X51.357911 Y41.351669 Z-0.300000 I0.521099 J-0.020261
G01 X51.410999 Y41.340718 Z-0.300000
G03 X51.461006 Y41.454791 Z-0.300000 I-0.121263 J0.121156
G03 X51.424499 Y41.668057 Z-0.300000 I-0.516413 J0.021358
G01 X51.424479 Y41.668057 Z-0.300000
G0 Z2.000000

(End cutting path id: path27)


(Start cutting path id: path27)
(Change tool to Cylindrical cutter)

G0 Z2.000000
G0 X16.223379 Y42.338389

G01 Z-0.300000 F100.0(Penetrate)
G01 X16.193392 Y42.412648 Z-0.300000 F400.000000
G03 X15.959409 Y42.405859 Z-0.300000 I-0.105141 J-0.411847
G02 X15.757102 Y42.483500 Z-0.300000 I-0.052532 J0.165513
G02 X15.694599 Y42.857220 Z-0.300000 I0.457952 J0.268677
G02 X16.125758 Y43.572329 Z-0.300000 I1.215431 J-0.245283
G02 X16.447399 Y43.471969 Z-0.300000 I0.127689 J-0.156363
G03 X16.558944 Y43.481022 Z-0.300000 I0.054854 J0.015838
G03 X16.531699 Y44.176457 Z-0.300000 I-2.192256 J0.262366
G03 X15.822818 Y44.423625 Z-0.300000 I-0.427332 J-0.085469
G03 X15.247109 Y43.089161 Z-0.300000 I1.055175 J-1.246636
G03 X15.511088 Y42.067962 Z-0.300000 I2.661445 J0.143262
G03 X15.786469 Y41.978647 Z-0.300000 I0.180629 J0.087732
G03 X16.082178 Y42.176700 Z-0.300000 I-0.852068 J1.591996
G03 X16.223349 Y42.338385 Z-0.300000 I-0.417375 J0.506891
G01 X16.223379 Y42.338389 Z-0.300000
G0 Z2.000000

(End cutting path id: path27)


(Start cutting path id: path27)
(Change tool to Cylindrical cutter)

G0 Z2.000000
G0 X7.399370 Y43.710939

G01 Z-0.300000 F100.0(Penetrate)
G03 X7.537833 Y44.561080 Z-0.300000 I-2.349231 J0.818969 F400.000000
G03 X7.386870 Y44.710164 Z-0.300000 I-0.150964 J-0.001892
G03 X6.832094 Y44.440270 Z-0.300000 I0.000000 J-0.705126
G03 X6.562200 Y43.658984 Z-0.300000 I0.995879 J-0.781286
G03 X6.905400 Y43.336420 Z-0.300000 I0.323184 J0.000000
G03 X7.399410 Y43.710934 Z-0.300000 I-0.034677 J0.558814
G01 X7.399370 Y43.710939 Z-0.300000
G0 Z2.000000

(End cutting path id: path27)


(Start cutting path id: path27)
(Change tool to Cylindrical cutter)

G0 Z2.000000
G0 X17.495949 Y44.211038

G01 Z-0.300000 F100.0(Penetrate)
G03 X17.628968 Y44.909768 Z-0.300000 I-4.587214 J1.235308 F400.000000
G03 X17.617309 Y45.278444 Z-0.300000 I-1.269937 J0.144362
G03 X17.510535 Y45.322798 Z-0.300000 I-0.067607 J-0.012054
G03 X17.277189 Y45.042277 Z-0.300000 I0.390092 J-0.561803
G03 X16.879160 Y43.702754 Z-0.300000 I4.731954 J-2.134960
G03 X17.040329 Y43.514669 Z-0.300000 I0.161169 J-0.024990
G03 X17.229889 Y43.617172 Z-0.300000 I-0.000000 J0.226529
G03 X17.495949 Y44.211038 Z-0.300000 I-1.728466 J1.130908
G01 X17.495949 Y44.211038 Z-0.300000
G0 Z2.000000

(End cutting path id: path27)


(Start cutting path id: path27)
(Change tool to Cylindrical cutter)

G0 Z2.000000
G0 X20.042159 Y44.496683

G01 Z-0.300000 F100.0(Penetrate)
G03 X19.970122 Y44.800961 Z-0.300000 I-0.735994 J-0.013578 F400.000000
G01 X19.897819 Y44.798284 Z-0.300000
G03 X19.791744 Y44.035134 Z-0.300000 I1.546081 J-0.603845
G03 X19.988719 Y43.856239 Z-0.300000 I0.196975 J0.018993
G01 X20.022508 Y43.887321 Z-0.300000
G03 X20.042219 Y44.496683 Z-0.300000 I-5.950833 J0.497492
G01 X20.042159 Y44.496683 Z-0.300000
G0 Z2.000000

(End cutting path id: path27)


(Start cutting path id: path27)
(Change tool to Cylindrical cutter)

G0 Z2.000000
G0 X19.197629 Y49.544919

G01 Z-0.300000 F100.0(Penetrate)
G03 X19.131249 Y49.731483 Z-0.300000 I-0.290557 J0.001710 F400.000000
G03 X19.029459 Y49.748320 Z-0.300000 I-0.060545 J-0.049925
G03 X18.921908 Y49.607781 Z-0.300000 I0.130733 J-0.211470
G03 X18.861289 Y49.183189 Z-0.300000 I1.398456 J-0.416279
G03 X18.937103 Y48.974366 Z-0.300000 I0.330566 J0.001839
G03 X19.029459 Y48.979788 Z-0.300000 I0.044192 J0.036544
G03 X19.153199 Y49.248510 Z-0.300000 I-0.875087 J0.565806
G03 X19.197629 Y49.544919 Z-0.300000 I-1.027086 J0.305489
G01 X19.197629 Y49.544919 Z-0.300000
G0 Z2.000000

(End cutting path id: path27)


(Start cutting path id: path27)
(Change tool to Cylindrical cutter)

G0 Z2.000000
G0 X19.541809 Y51.375019

G01 Z-0.300000 F100.0(Penetrate)
G03 X19.316957 Y51.633812 Z-0.300000 I-0.261355 J0.000000 F400.000000
G03 X18.719969 Y51.490940 Z-0.300000 I-0.117028 J-0.829688
G03 X18.333762 Y51.034838 Z-0.300000 I0.670236 J-0.959088
G03 X18.178479 Y50.353623 Z-0.300000 I1.443837 J-0.687430
G01 X18.175479 Y49.592646 Z-0.300000
G01 X18.858619 Y50.325247 Z-0.300000
G03 X19.457495 Y51.091041 Z-0.300000 I-4.101250 J3.824383
G03 X19.541759 Y51.375019 Z-0.300000 I-0.436389 J0.283978
G01 X19.541809 Y51.375019 Z-0.300000
G0 Z2.000000

(End cutting path id: path27)


(Start cutting path id: path27)
(Change tool to Cylindrical cutter)

G0 Z2.000000
G0 X20.121839 Y51.300799

G01 Z-0.300000 F100.0(Penetrate)
G03 X20.078831 Y51.690194 Z-0.300000 I-0.398789 J0.153027 F400.000000
G03 X19.864649 Y51.687887 Z-0.300000 I-0.106342 J-0.070650
G03 X19.716764 Y51.177497 Z-0.300000 I0.804408 J-0.509696
G03 X19.865159 Y51.029210 Z-0.300000 I0.148395 J0.000108
G03 X19.982844 Y51.079910 Z-0.300000 I-0.000000 J0.161934
G03 X20.121889 Y51.300799 Z-0.300000 I-0.488466 J0.461688
G01 X20.121839 Y51.300799 Z-0.300000
G0 Z2.000000

(End cutting path id: path27)


(Start cutting path id: path27)
(Change tool to Cylindrical cutter)

G0 Z2.000000
G0 X52.957989 Y54.146036

G01 Z-0.300000 F100.0(Penetrate)
G01 X52.913303 Y54.146026 Z-0.300000 F400.000000
G03 X52.871889 Y53.932554 Z-0.300000 I0.529468 J-0.213472
G03 X52.913336 Y53.719061 Z-0.300000 I0.570577 J-0.000000
G01 X52.957989 Y53.719073 Z-0.300000
G03 X52.999454 Y53.932555 Z-0.300000 I-0.528817 J0.213482
G03 X52.957989 Y54.146036 Z-0.300000 I-0.570282 J-0.000000
G01 X52.957989 Y54.146036 Z-0.300000
G0 Z2.000000

(End cutting path id: path27)


(Start cutting path id: path27)
(Change tool to Cylindrical cutter)

G0 Z2.000000
G0 X31.838329 Y57.433646

G01 Z-0.300000 F100.0(Penetrate)
G03 X31.809096 Y57.660599 Z-0.300000 I-0.895608 J-0.000000 F400.000000
G01 X31.771229 Y57.689824 Z-0.300000
G03 X31.722407 Y57.663237 Z-0.300000 I-0.000000 J-0.058120
G03 X31.605799 Y57.433646 Z-0.300000 I1.046641 J-0.675991
G03 X31.594966 Y57.237617 Z-0.300000 I0.299095 J-0.114843
G03 X31.672899 Y57.177469 Z-0.300000 I0.077933 J0.020415
G03 X31.780007 Y57.235806 Z-0.300000 I0.000000 J0.127496
G03 X31.838329 Y57.433646 Z-0.300000 I-0.306399 J0.197840
G01 X31.838329 Y57.433646 Z-0.300000
G0 Z2.000000

(End cutting path id: path27)


(Start cutting path id: path27)
(Change tool to Cylindrical cutter)

G0 Z2.000000
G0 X52.619969 Y59.088125

G01 Z-0.300000 F100.0(Penetrate)
G01 X52.566821 Y59.099035 Z-0.300000 F400.000000
G03 X52.516789 Y58.984942 Z-0.300000 I0.121118 J-0.121130
G03 X52.553401 Y58.771738 Z-0.300000 I0.521095 J-0.020261
G01 X52.606489 Y58.760787 Z-0.300000
G03 X52.656541 Y58.874898 Z-0.300000 I-0.120999 J0.121106
G03 X52.619989 Y59.088125 Z-0.300000 I-0.516911 J0.021136
G01 X52.619969 Y59.088125 Z-0.300000
G0 Z2.000000

(End cutting path id: path27)


(Start cutting path id: path27)
(Change tool to Cylindrical cutter)

G0 Z2.000000
G0 X16.561789 Y59.819147

G01 Z-0.300000 F100.0(Penetrate)
G03 X16.600008 Y60.241651 Z-0.300000 I-0.650581 J0.271831 F400.000000
G03 X16.461989 Y60.275372 Z-0.300000 I-0.077258 J-0.016900
G03 X16.048687 Y59.442460 Z-0.300000 I1.540602 J-1.283467
G03 X16.220209 Y59.226885 Z-0.300000 I0.171522 J-0.039552
G03 X16.288216 Y59.266175 Z-0.300000 I0.000000 J0.078501
G03 X16.561779 Y59.819147 Z-0.300000 I-4.203548 J2.423710
G01 X16.561789 Y59.819147 Z-0.300000
G0 Z2.000000

(End cutting path id: path27)


(Start cutting path id: path27)
(Change tool to Cylindrical cutter)

G0 Z2.000000
G0 X11.362499 Y62.149897

G01 Z-0.300000 F100.0(Penetrate)
G02 X11.870807 Y62.503472 Z-0.300000 I1.076864 J-1.005959 F400.000000
G02 X12.119219 Y62.466356 Z-0.300000 I0.093554 J-0.223706
G03 X13.389541 Y62.650598 Z-0.300000 I0.552048 J0.665178
G03 X15.100129 Y66.918319 Z-0.300000 I-9.215500 J6.170435
G03 X15.277942 Y69.552678 Z-0.300000 I-12.407228 J2.160637
G03 X14.986379 Y69.940092 Z-0.300000 I-0.424396 J-0.015975
G03 X14.822668 Y69.898287 Z-0.300000 I-0.049113 J-0.149125
G03 X14.094169 Y68.987367 Z-0.300000 I5.460838 J-5.114014
G02 X13.358625 Y68.009433 Z-0.300000 I-10.479787 J7.116692
G02 X12.956679 Y67.618068 Z-0.300000 I-2.048053 J1.701336
G03 X12.754799 Y67.145241 Z-0.300000 I0.331046 J-0.420855
G03 X13.024379 Y66.923702 Z-0.300000 I0.245494 J0.023941
G02 X13.307835 Y66.940384 Z-0.300000 I0.355125 J-3.617549
G02 X13.438359 Y66.931902 Z-0.300000 I0.015257 J-0.773684
G02 X13.729331 Y66.364651 Z-0.300000 I-0.058634 J-0.388329
G02 X12.120579 Y64.357061 Z-0.300000 I-5.692788 J2.913461
G03 X11.108592 Y63.243639 Z-0.300000 I3.434237 J-4.137978
G03 X10.659509 Y62.209233 Z-0.300000 I2.497641 J-1.699027
G03 X10.848138 Y61.951825 Z-0.300000 I0.206418 J-0.046554
G03 X11.362469 Y62.149923 Z-0.300000 I0.053066 J0.628963
G01 X11.362499 Y62.149897 Z-0.300000
G0 Z2.000000

(End cutting path id: path27)


(Start cutting path id: path27)
(Change tool to Cylindrical cutter)

G0 Z2.000000
G0 X9.465499 Y62.096077

G01 Z-0.300000 F100.0(Penetrate)
G03 X9.267962 Y62.615841 Z-0.300000 I-0.782576 J0.000000 F400.000000
G03 X8.828239 Y62.813374 Z-0.300000 I-0.439723 J-0.390661
G03 X8.501722 Y62.565431 Z-0.300000 I0.000000 J-0.338967
G03 X8.613379 Y62.042668 Z-0.300000 I0.555088 J-0.154745
G03 X9.183873 Y61.796247 Z-0.300000 I0.527602 J0.437870
G03 X9.465499 Y62.096078 Z-0.300000 I-0.018794 J0.299831
G01 X9.465499 Y62.096077 Z-0.300000
G0 Z2.000000

(End cutting path id: path27)


(Start cutting path id: path27)
(Change tool to Cylindrical cutter)

G0 Z2.000000
G0 X18.017489 Y61.959450

G01 Z-0.300000 F100.0(Penetrate)
G03 X18.458307 Y62.183140 Z-0.300000 I0.000000 J0.546197 F400.000000
G03 X20.547689 Y65.417845 Z-0.300000 I-26.751580 J19.571704
G02 X21.180202 Y66.269014 Z-0.300000 I3.739133 J-2.117990
G02 X21.486249 Y66.399858 Z-0.300000 I0.306047 J-0.292506
G03 X22.742720 Y67.222744 Z-0.300000 I-0.000000 J1.370701
G03 X23.198869 Y70.327912 Z-0.300000 I-5.486383 J2.392037
G03 X23.031900 Y71.244496 Z-0.300000 I-7.618037 J-0.914238
G03 X22.915639 Y71.480573 Z-0.300000 I-0.594373 J-0.146045
G02 X22.713119 Y72.346865 Z-0.300000 I0.807912 J0.645690
G02 X23.540229 Y74.341359 Z-0.300000 I5.951667 J-1.299389
G03 X23.699118 Y74.706073 Z-0.300000 I-1.047634 J0.673373
G03 X23.977139 Y76.049209 Z-0.300000 I-14.342170 J3.669085
G02 X24.195018 Y77.415405 Z-0.300000 I1812.210108 J-288.308370
G02 X24.332069 Y78.269413 Z-0.300000 I711.852541 J-113.800074
G03 X24.436969 Y79.125934 Z-0.300000 I-11.229488 J1.809978
G03 X24.468619 Y79.891870 Z-0.300000 I-8.963534 J0.754018
G03 X24.340754 Y79.912501 Z-0.300000 I-0.065607 J-0.000065
G03 X23.986219 Y78.440198 Z-0.300000 I8.500284 J-2.825732
G02 X23.727293 Y77.087922 Z-0.300000 I-18.147677 J2.773879
G02 X23.538239 Y76.498011 Z-0.300000 I-3.620989 J0.835204
G03 X23.345977 Y75.912751 Z-0.300000 I3.736326 J-1.551622
G03 X23.299079 Y75.525759 Z-0.300000 I1.573254 J-0.386992
G02 X23.236498 Y75.146169 Z-0.300000 I-1.182507 J-0.000000
G02 X22.973309 Y74.564602 Z-0.300000 I-3.083694 J1.045194
G03 X22.710339 Y73.975523 Z-0.300000 I2.709772 J-1.562899
G03 X22.368699 Y72.718902 Z-0.300000 I12.111715 J-3.967592
G02 X21.479987 Y69.222237 Z-0.300000 I-51.052300 J11.114179
G02 X21.075369 Y68.278493 Z-0.300000 I-4.063412 J1.183525
G03 X20.929813 Y68.020435 Z-0.300000 I9.872508 J-5.738608
G03 X20.468119 Y67.168391 Z-0.300000 I105.973391 J-57.974519
G02 X19.984800 Y66.329368 Z-0.300000 I-14.202033 J7.622353
G02 X18.921889 Y64.661445 Z-0.300000 I-57.228986 J35.297472
G03 X17.891110 Y62.991304 Z-0.300000 I28.150985 J-18.527417
G03 X17.833959 Y62.778116 Z-0.300000 I0.369052 J-0.213188
G02 X17.787807 Y62.562362 Z-0.300000 I-0.527386 J0.000000
G02 X17.547039 Y62.138164 Z-0.300000 I-2.351617 J1.054314
G03 X17.477653 Y61.898432 Z-0.300000 I0.316063 J-0.221385
G03 X17.561039 Y61.843987 Z-0.300000 I0.061374 J0.002921
G02 X17.865444 Y61.940517 Z-0.300000 I0.964374 J-2.512900
G02 X18.017519 Y61.959450 Z-0.300000 I0.152075 J-0.601285
G01 X18.017489 Y61.959450 Z-0.300000
G0 Z2.000000

(End cutting path id: path27)


(Start cutting path id: path27)
(Change tool to Cylindrical cutter)

G0 Z2.000000
G0 X20.818079 Y66.795605

G01 Z-0.300000 F100.0(Penetrate)
G02 X20.780118 Y67.088098 Z-0.300000 I0.537304 J0.218444 F400.000000
G02 X20.882579 Y67.296573 Z-0.300000 I0.356756 J-0.045922
G02 X21.107921 Y67.266008 Z-0.300000 I0.101039 J-0.101040
G02 X21.123779 Y66.871153 Z-0.300000 I-0.375374 J-0.212821
G02 X20.950242 Y66.728275 Z-0.300000 I-0.235988 J0.109800
G02 X20.818099 Y66.795603 Z-0.300000 I-0.027184 J0.109987
G01 X20.818079 Y66.795605 Z-0.300000
G0 Z2.000000

(End cutting path id: path27)


(Start cutting path id: path27)
(Change tool to Cylindrical cutter)

G0 Z2.000000
G0 X15.635039 Y63.154944

G01 Z-0.300000 F100.0(Penetrate)
G03 X16.461864 Y63.481961 Z-0.300000 I-0.000000 J1.208773 F400.000000
G03 X17.688039 Y65.080039 Z-0.300000 I-4.243454 J4.525373
G03 X17.755966 Y65.386715 Z-0.300000 I-0.512818 J0.274448
G03 X17.657039 Y65.638742 Z-0.300000 I-0.431499 J-0.023946
G03 X17.446343 Y65.675427 Z-0.300000 I-0.126875 J-0.105295
G03 X16.553729 Y64.987381 Z-0.300000 I2.327813 J-3.942936
G02 X15.641020 Y64.105347 Z-0.300000 I-37.890172 J38.294671
G02 X15.290849 Y63.795388 Z-0.300000 I-5.021270 J5.319910
G03 X14.979226 Y63.224066 Z-0.300000 I0.561773 J-0.677062
G03 X15.200749 Y63.051279 Z-0.300000 I0.162777 J-0.019707
G02 X15.474402 Y63.136040 Z-0.300000 I0.777372 J-2.025640
G02 X15.635029 Y63.154944 Z-0.300000 I0.160627 J-0.672968
G01 X15.635039 Y63.154944 Z-0.300000
G0 Z2.000000

(End cutting path id: path27)


(Start cutting path id: path27)
(Change tool to Cylindrical cutter)

G0 Z2.000000
G0 X53.644679 Y63.870106

G01 Z-0.300000 F100.0(Penetrate)
G01 X53.591531 Y63.881016 Z-0.300000 F400.000000
G03 X53.541499 Y63.766923 Z-0.300000 I0.121118 J-0.121130
G03 X53.578112 Y63.553719 Z-0.300000 I0.521094 J-0.020261
G01 X53.631199 Y63.542768 Z-0.300000
G03 X53.681251 Y63.656879 Z-0.300000 I-0.120999 J0.121106
G03 X53.644699 Y63.870106 Z-0.300000 I-0.516911 J0.021136
G01 X53.644679 Y63.870106 Z-0.300000
G0 Z2.000000

(End cutting path id: path27)


(Start cutting path id: path27)
(Change tool to Cylindrical cutter)

G0 Z2.000000
G0 X53.815469 Y65.407171

G01 Z-0.300000 F100.0(Penetrate)
G01 X53.762321 Y65.418081 Z-0.300000 F400.000000
G03 X53.712289 Y65.303988 Z-0.300000 I0.121118 J-0.121129
G03 X53.748901 Y65.090783 Z-0.300000 I0.521099 J-0.020261
G01 X53.801989 Y65.079832 Z-0.300000
G03 X53.851996 Y65.193905 Z-0.300000 I-0.121263 J0.121156
G03 X53.815489 Y65.407171 Z-0.300000 I-0.516413 J0.021358
G01 X53.815469 Y65.407171 Z-0.300000
G0 Z2.000000

(End cutting path id: path27)


(Start cutting path id: path27)
(Change tool to Cylindrical cutter)

G0 Z2.000000
G0 X55.353589 Y68.235797

G01 Z-0.300000 F100.0(Penetrate)
G01 X55.313880 Y68.235790 Z-0.300000 F400.000000
G03 X55.275489 Y67.936923 Z-0.300000 I1.144109 J-0.298867
G03 X55.313912 Y67.638041 Z-0.300000 I1.181689 J0.000000
G01 X55.353589 Y67.638049 Z-0.300000
G03 X55.392033 Y67.936923 Z-0.300000 I-1.142540 J0.298874
G03 X55.353589 Y68.235797 Z-0.300000 I-1.180984 J-0.000000
G01 X55.353589 Y68.235797 Z-0.300000
G0 Z2.000000

(End cutting path id: path27)


(Start cutting path id: path27)
(Change tool to Cylindrical cutter)

G0 Z2.000000
G0 X54.498609 Y70.359930

G01 Z-0.300000 F100.0(Penetrate)
G01 X54.445461 Y70.370839 Z-0.300000 F400.000000
G03 X54.395429 Y70.256746 Z-0.300000 I0.121119 J-0.121130
G03 X54.432041 Y70.043542 Z-0.300000 I0.521095 J-0.020261
G01 X54.485129 Y70.032591 Z-0.300000
G03 X54.535136 Y70.146664 Z-0.300000 I-0.121263 J0.121156
G03 X54.498629 Y70.359930 Z-0.300000 I-0.516413 J0.021358
G01 X54.498609 Y70.359930 Z-0.300000
G0 Z2.000000

(End cutting path id: path27)


(Start cutting path id: path27)
(Change tool to Cylindrical cutter)

G0 Z2.000000
G0 X55.690549 Y70.541389

G01 Z-0.300000 F100.0(Penetrate)
G01 X55.645863 Y70.541379 Z-0.300000 F400.000000
G03 X55.604449 Y70.327907 Z-0.300000 I0.529468 J-0.213472
G03 X55.645896 Y70.114414 Z-0.300000 I0.570577 J0.000000
G01 X55.690549 Y70.114426 Z-0.300000
G03 X55.732014 Y70.327908 Z-0.300000 I-0.528817 J0.213481
G03 X55.690549 Y70.541389 Z-0.300000 I-0.570282 J0.000000
G01 X55.690549 Y70.541389 Z-0.300000
G0 Z2.000000

(End cutting path id: path27)


(Start cutting path id: path27)
(Change tool to Cylindrical cutter)

G0 Z2.000000
G0 X55.833619 Y72.718897

G01 Z-0.300000 F100.0(Penetrate)
G03 X55.702414 Y72.843029 Z-0.300000 I-0.299720 J-0.185391 F400.000000
G03 X55.524659 Y72.887067 Z-0.300000 I-0.173102 J-0.317948
G01 X55.487974 Y72.836456 Z-0.300000
G03 X55.577459 Y72.718897 Z-0.300000 I0.207523 J0.065128
G03 X55.797454 Y72.653997 Z-0.300000 I0.219995 J0.340418
G01 X55.833639 Y72.718897 Z-0.300000
G01 X55.833619 Y72.718897 Z-0.300000
G0 Z2.000000

(End cutting path id: path27)


(Start cutting path id: path27)
(Change tool to Cylindrical cutter)

G0 Z2.000000
G0 X50.620169 Y73.735185

G01 Z-0.300000 F100.0(Penetrate)
G03 X50.669520 Y74.026067 Z-0.300000 I-0.409375 J0.219082 F400.000000
G03 X50.538569 Y74.256592 Z-0.300000 I-0.370458 J-0.057984
G03 X50.339263 Y74.272177 Z-0.300000 I-0.110692 J-0.133380
G03 X50.113969 Y74.004014 Z-0.300000 I0.271991 J-0.457230
G03 X50.256681 Y73.624475 Z-0.300000 I0.286430 J-0.108899
G03 X50.620209 Y73.735185 Z-0.300000 I0.126230 J0.237707
G01 X50.620169 Y73.735185 Z-0.300000
G0 Z2.000000

(End cutting path id: path27)


(Start cutting path id: path27)
(Change tool to Cylindrical cutter)

G0 Z2.000000
G0 X60.530199 Y74.314884

G01 Z-0.300000 F100.0(Penetrate)
G03 X60.509723 Y74.364318 Z-0.300000 I-0.069910 J-0.000000 F400.000000
G03 X60.145939 Y74.699150 Z-0.300000 I-4.221981 J-4.222005
G01 X59.761669 Y75.024494 Z-0.300000
G01 X60.087009 Y74.640228 Z-0.300000
G03 X60.468962 Y74.283872 Z-0.300000 I1.700537 J1.439816
G01 X60.530199 Y74.314884 Z-0.300000
G01 X60.530199 Y74.314884 Z-0.300000
G0 Z2.000000

(End cutting path id: path27)


(Start cutting path id: path27)
(Change tool to Cylindrical cutter)

G0 Z2.000000
G0 X22.049469 Y79.240747

G01 Z-0.300000 F100.0(Penetrate)
G01 X21.996318 Y79.251658 Z-0.300000 F400.000000
G03 X21.946279 Y79.137564 Z-0.300000 I0.121119 J-0.121140
G03 X21.982891 Y78.924360 Z-0.300000 I0.521095 J-0.020261
G01 X22.035979 Y78.913409 Z-0.300000
G03 X22.085986 Y79.027482 Z-0.300000 I-0.121263 J0.121157
G03 X22.049479 Y79.240747 Z-0.300000 I-0.516407 J0.021358
G01 X22.049469 Y79.240747 Z-0.300000
G0 Z2.000000

(End cutting path id: path27)


(Start cutting path id: path27)
(Change tool to Cylindrical cutter)

G0 Z2.000000
G0 X22.453259 Y80.588031

G01 Z-0.300000 F100.0(Penetrate)
G03 X23.416177 Y86.575257 Z-0.300000 I-88.013474 J17.226135 F400.000000
G03 X23.292629 Y87.233205 Z-0.300000 I-1.084318 J0.136964
G03 X23.189102 Y87.255593 Z-0.300000 I-0.061382 J-0.033286
G03 X23.067019 Y87.062420 Z-0.300000 I0.196165 J-0.259138
G03 X22.851410 Y85.743835 Z-0.300000 I15.468584 J-3.206270
G03 X22.695689 Y83.977130 Z-0.300000 I27.634622 J-3.325991
G02 X22.587955 Y82.859335 Z-0.300000 I-14.020250 J0.787194
G02 X22.368249 Y81.586141 Z-0.300000 I-18.395549 J2.518834
G03 X22.077216 Y79.629261 Z-0.300000 I16.697390 J-3.483365
G03 X22.187769 Y79.577552 Z-0.300000 I0.064652 J-0.005809
G03 X22.244494 Y79.676357 Z-0.300000 I-0.154230 J0.154230
G03 X22.453259 Y80.588031 Z-0.300000 I-14.217477 J3.735419
G01 X22.453259 Y80.588031 Z-0.300000
G0 Z2.000000

(End cutting path id: path27)


(Start cutting path id: path27)
(Change tool to Cylindrical cutter)

G0 Z2.000000
G0 X26.346529 Y82.549434

G01 Z-0.300000 F100.0(Penetrate)
G03 X26.078777 Y82.785644 Z-0.300000 I-0.287155 J-0.055642 F400.000000
G03 X25.860849 Y82.581724 Z-0.300000 I-0.013557 J-0.203920
G03 X25.903848 Y82.186819 Z-0.300000 I1.834924 J-0.000000
G03 X25.977559 Y82.052291 Z-0.300000 I0.267011 J0.058844
G03 X26.237886 Y82.071449 Z-0.300000 I0.121898 J0.121898
G03 X26.346529 Y82.549430 Z-0.300000 I-0.488139 J0.362289
G01 X26.346529 Y82.549434 Z-0.300000
G0 Z2.000000

(End cutting path id: path27)


(Start cutting path id: path27)
(Change tool to Cylindrical cutter)

G0 Z2.000000
G0 X37.132659 Y86.894048

G01 Z-0.300000 F100.0(Penetrate)
G02 X37.557912 Y87.151442 Z-0.300000 I0.961639 J-1.108785 F400.000000
G02 X38.002639 Y87.235618 Z-0.300000 I0.444727 J-1.132721
G03 X38.503126 Y87.466617 Z-0.300000 I0.000000 J0.657682
G03 X38.505499 Y87.825460 Z-0.300000 I-0.212111 J0.180832
G02 X38.462700 Y88.038508 Z-0.300000 I0.176182 J0.146216
G02 X38.648709 Y88.294699 Z-0.300000 I0.464811 J-0.141857
G03 X38.924285 Y88.579179 Z-0.300000 I-0.600673 J0.857589
G03 X39.273139 Y89.249404 Z-0.300000 I-3.189188 J2.085882
G02 X39.630828 Y89.864644 Z-0.300000 I2.270802 J-0.908604
G02 X39.845659 Y89.968178 Z-0.300000 I0.214831 J-0.171119
G02 X40.491776 Y89.768310 Z-0.300000 I0.000000 J-1.144291
G02 X42.576489 Y88.099918 Z-0.300000 I-10.071198 J-14.720962
G03 X43.151668 Y87.634929 Z-0.300000 I3.604133 J3.869985
G03 X43.231859 Y87.641989 Z-0.300000 I0.035885 J0.051358
G03 X43.287444 Y87.733766 Z-0.300000 I-0.159145 J0.159108
G03 X43.449649 Y88.336592 Z-0.300000 I-7.266090 J2.278351
G03 X43.413784 Y88.869683 Z-0.300000 I-0.914398 J0.206233
G03 X43.135839 Y89.179954 Z-0.300000 I-0.533884 J-0.198631
G03 X42.670012 Y89.366538 Z-0.300000 I-1.327163 J-2.638619
G03 X42.085429 Y89.500196 Z-0.300000 I-1.229986 J-4.034382
G02 X41.513907 Y89.667266 Z-0.300000 I0.349384 J2.256272
G02 X40.235639 Y90.315570 Z-0.300000 I5.335757 J12.104907
G03 X39.007624 Y90.855923 Z-0.300000 I-3.081879 J-5.338349
G03 X38.734249 Y90.789037 Z-0.300000 I-0.081578 J-0.258687
G03 X38.602740 Y90.514449 Z-0.300000 I0.323925 J-0.323923
G03 X38.657949 Y90.084631 Z-0.300000 I0.922639 J-0.099945
G02 X38.609068 Y89.417679 Z-0.300000 I-0.739315 J-0.281083
G02 X38.014209 Y88.932854 Z-0.300000 I-0.909093 J0.508072
G03 X37.396595 Y88.714907 Z-0.300000 I3.021468 J-9.546225
G03 X36.705729 Y88.422396 Z-0.300000 I4.774513 J-12.238796
G02 X36.006827 Y88.164779 Z-0.300000 I-2.042587 J4.464590
G02 X35.254059 Y88.009325 Z-0.300000 I-1.430960 J5.028925
G03 X34.502342 Y87.863055 Z-0.300000 I0.800075 J-6.116542
G03 X34.229349 Y87.742990 Z-0.300000 I0.235371 J-0.905551
G03 X34.138868 Y87.576651 Z-0.300000 I0.107658 J-0.166339
G03 X34.229349 Y87.409018 Z-0.300000 I0.200527 J0.000000
G03 X34.500553 Y87.290561 Z-0.300000 I0.482577 J0.735162
G03 X34.919079 Y87.238233 Z-0.300000 I0.429297 J1.733692
G02 X35.337435 Y87.173235 Z-0.300000 I-0.008414 J-1.433023
G02 X36.022589 Y86.894048 Z-0.300000 I-1.304592 J-4.181911
G03 X36.693791 Y86.557586 Z-0.300000 I25.084743 J49.203287
G01 X36.715709 Y86.552478 Z-0.300000
G01 X36.736086 Y86.559757 Z-0.300000
G03 X37.132699 Y86.894048 Z-0.300000 I-11.647689 J14.221625
G01 X37.132659 Y86.894048 Z-0.300000
G0 Z2.000000

(End cutting path id: path27)


(Start cutting path id: path27)
(Change tool to Cylindrical cutter)

G0 Z2.000000
G0 X24.494579 Y90.138963

G01 Z-0.300000 F100.0(Penetrate)
G02 X24.558551 Y90.595537 Z-0.300000 I1.661284 J-0.000000 F400.000000
G02 X24.665359 Y90.736710 Z-0.300000 I0.235781 J-0.067395
G03 X24.767560 Y90.880096 Z-0.300000 I-0.119491 J0.193286
G03 X24.830949 Y91.472626 Z-0.300000 I-2.537133 J0.571078
G03 X24.740833 Y91.782235 Z-0.300000 I-0.591965 J-0.004381
G03 X24.638489 Y91.780549 Z-0.300000 I-0.050664 J-0.031698
G03 X23.994114 Y90.197702 Z-0.300000 I5.311725 J-3.084983
G03 X24.087229 Y89.594862 Z-0.300000 I0.758889 J-0.191393
G03 X24.310163 Y89.584928 Z-0.300000 I0.114852 J0.070983
G03 X24.494579 Y90.138963 Z-0.300000 I-0.740030 J0.554035
G01 X24.494579 Y90.138963 Z-0.300000
G0 Z2.000000

(End cutting path id: path27)


(Start cutting path id: path27)
(Change tool to Cylindrical cutter)

G0 Z2.000000
G0 X41.211879 Y94.563630

G01 Z-0.300000 F100.0(Penetrate)
G03 X41.185305 Y94.800104 Z-0.300000 I-0.070789 J0.111775 F400.000000
G03 X39.578189 Y95.142894 Z-0.300000 I-2.108481 J-5.946523
G03 X38.398546 Y95.129945 Z-0.300000 I-0.518499 J-6.504078
G03 X38.149979 Y94.997426 Z-0.300000 I0.037694 J-0.370082
G03 X38.171255 Y94.799325 Z-0.300000 I0.106893 J-0.088713
G03 X38.755119 Y94.523790 Z-0.300000 I0.898987 J1.148594
G03 X40.491137 Y94.348248 Z-0.300000 I1.614830 J7.297881
G03 X41.211879 Y94.563630 Z-0.300000 I-0.022524 J1.388985
G01 X41.211879 Y94.563630 Z-0.300000
G0 Z2.000000

(End cutting path id: path27)


(Start cutting path id: path27)
(Change tool to Cylindrical cutter)

G0 Z2.000000
G0 X53.186449 Y95.538847

G01 Z-0.300000 F100.0(Penetrate)
G03 X53.122570 Y95.680386 Z-0.300000 I-0.188746 J0.000000 F400.000000
G03 X53.015659 Y95.689474 Z-0.300000 I-0.059583 J-0.067538
G03 X52.895947 Y95.555475 Z-0.300000 I0.166356 J-0.269093
G03 X52.844879 Y95.327746 Z-0.300000 I0.482226 J-0.227729
G03 X52.908800 Y95.186161 Z-0.300000 I0.188766 J-0.000000
G03 X53.015659 Y95.177119 Z-0.300000 I0.059524 J0.067505
G03 X53.135376 Y95.311118 Z-0.300000 I-0.166371 J0.269117
G03 X53.186449 Y95.538847 Z-0.300000 I-0.482174 J0.227729
G01 X53.186449 Y95.538847 Z-0.300000
G0 Z2.000000

(End cutting path id: path27)


(Start cutting path id: path27)
(Change tool to Cylindrical cutter)

G0 Z2.000000
G0 X38.689129 Y95.785250

G01 Z-0.300000 F100.0(Penetrate)
G03 X38.971601 Y96.015703 Z-0.300000 I-0.448570 J0.838165 F400.000000
G03 X39.186029 Y96.382997 Z-0.300000 I-0.994946 J0.827094
G02 X39.579302 Y96.643195 Z-0.300000 I0.377729 J-0.143611
G02 X40.014739 Y96.351097 Z-0.300000 I-0.019219 J-0.499257
G03 X40.312508 Y96.072943 Z-0.300000 I0.485383 J0.221150
G03 X40.938769 Y96.003896 Z-0.300000 I0.448550 J1.193749
G03 X43.141359 Y96.482724 Z-0.300000 I-2.117036 J15.043619
G03 X43.401479 Y96.734280 Z-0.300000 I-0.111333 J0.375389
G03 X43.384217 Y96.876961 Z-0.300000 I-0.159219 J0.053122
G03 X42.963159 Y97.429127 Z-0.300000 I-3.315966 J-2.091990
G03 X42.024667 Y98.076773 Z-0.300000 I-1.873724 J-1.711382
G03 X40.676449 Y98.335690 Z-0.300000 I-1.355677 J-3.419560
G02 X40.272970 Y98.402689 Z-0.300000 I0.002504 J1.263492
G02 X40.206789 Y98.495032 Z-0.300000 I0.031333 J0.092343
G02 X40.517762 Y99.047476 Z-0.300000 I0.646195 J0.000000
G02 X41.638799 Y99.363967 Z-0.300000 I1.131758 J-1.865130
G03 X42.156349 Y99.415996 Z-0.300000 I-0.013062 J2.730041
G03 X42.406869 Y99.516082 Z-0.300000 I-0.142917 J0.721308
G03 X42.020077 Y100.665228 Z-0.300000 I-0.333945 J0.527266
G03 X36.427399 Y99.007942 Z-0.300000 I1.223091 J-14.392612
G03 X36.022104 Y98.436134 Z-0.300000 I0.370374 J-0.692058
G03 X36.259029 Y97.921859 Z-0.300000 I0.506253 J-0.078484
G02 X36.357771 Y97.793968 Z-0.300000 I-0.120610 J-0.195184
G02 X36.527159 Y97.047908 Z-0.300000 I-4.919264 J-1.509146
G03 X36.737669 Y96.347781 Z-0.300000 I2.533254 J0.379973
G03 X36.931139 Y96.179198 Z-0.300000 I0.286115 J0.133047
G02 X37.213606 Y96.079345 Z-0.300000 I-1.053045 J-3.428316
G02 X37.730409 Y95.858500 Z-0.300000 I-4.699967 J-11.713612
G03 X38.319350 Y95.707375 Z-0.300000 I0.722018 J1.590612
G03 X38.689129 Y95.785250 Z-0.300000 I0.051403 J0.672778
G01 X38.689129 Y95.785250 Z-0.300000
G0 Z2.000000

(End cutting path id: path27)


(Start cutting path id: path27)
(Change tool to Cylindrical cutter)

G0 Z2.000000
G0 X38.413549 Y96.287221

G01 Z-0.300000 F100.0(Penetrate)
G02 X38.532780 Y96.433499 Z-0.300000 I0.619320 J-0.383078 F400.000000
G02 X38.594409 Y96.458006 Z-0.300000 I0.061629 J-0.065235
G01 X38.639980 Y96.428298 Z-0.300000
G02 X38.669709 Y96.287221 Z-0.300000 I-0.319875 J-0.141077
G02 X38.618258 Y96.167877 Z-0.300000 I-0.164138 J-0.000000
G02 X38.488849 Y96.116436 Z-0.300000 I-0.129409 J0.137054
G02 X38.405475 Y96.170798 Z-0.300000 I0.000000 J0.091116
G02 X38.413549 Y96.287221 Z-0.300000 I0.114647 J0.050540
G01 X38.413549 Y96.287221 Z-0.300000
G0 Z2.000000

(End cutting path id: path27)


(Start cutting path id: path27)
(Change tool to Cylindrical cutter)

G0 Z2.000000
G0 X39.952239 Y96.735667

G01 Z-0.300000 F100.0(Penetrate)
G02 X40.016079 Y97.180114 Z-0.300000 I0.283914 J0.186027 F400.000000
G02 X40.826379 Y97.480101 Z-0.300000 I0.814963 J-0.956962
G02 X42.488475 Y97.206182 Z-0.300000 I0.019086 J-5.063817
G02 X42.768569 Y96.813992 Z-0.300000 I-0.134527 J-0.392190
G02 X42.542950 Y96.512840 Z-0.300000 I-0.313796 J0.000000
G02 X40.969479 Y96.287221 Z-0.300000 I-1.573471 J5.373900
G02 X40.319997 Y96.424028 Z-0.300000 I0.000000 J1.610084
G02 X39.952239 Y96.735667 Z-0.300000 I0.342560 J0.777059
G01 X39.952239 Y96.735667 Z-0.300000
G0 Z2.000000

(End cutting path id: path27)


(Start cutting path id: path27)
(Change tool to Cylindrical cutter)

G0 Z2.000000
G0 X37.986589 Y96.960677

G01 Z-0.300000 F100.0(Penetrate)
G02 X38.313582 Y97.604145 Z-0.300000 I0.796616 J0.000000 F400.000000
G02 X38.814929 Y97.565227 Z-0.300000 I0.227940 J-0.312318
G02 X38.827695 Y97.111430 Z-0.300000 I-0.233646 J-0.233651
G02 X38.130899 Y96.799576 Z-0.300000 I-0.696796 J0.622522
G02 X38.031136 Y96.844155 Z-0.300000 I0.000000 J0.133918
G02 X37.986589 Y96.960677 Z-0.300000 I0.130118 J0.116522
G01 X37.986589 Y96.960677 Z-0.300000
G0 Z2.000000

(End cutting path id: path27)


(Start cutting path id: path27)
(Change tool to Cylindrical cutter)

G0 Z2.000000
G0 X37.168279 Y98.787026

G01 Z-0.300000 F100.0(Penetrate)
G02 X37.587898 Y99.030003 Z-0.300000 I0.665519 J-0.665516 F400.000000
G02 X39.438259 Y99.401437 Z-0.300000 I3.725158 J-13.762859
G02 X39.696580 Y99.351719 Z-0.300000 I0.054644 J-0.412027
G02 X39.779829 Y99.209417 Z-0.300000 I-0.079997 J-0.142302
G02 X39.487161 Y98.810046 Z-0.300000 I-0.418822 J0.000000
G02 X37.565719 Y98.510018 Z-0.300000 I-1.946182 J6.161078
G02 X37.182219 Y98.629672 Z-0.300000 I-0.002550 J0.666228
G02 X37.168279 Y98.787026 Z-0.300000 I0.058904 J0.084513
G01 X37.168279 Y98.787026 Z-0.300000
G0 Z2.000000

(End cutting path id: path27)


(Start cutting path id: path27)
(Change tool to Cylindrical cutter)

G0 Z2.000000
G0 X51.393699 Y96.874072

G01 Z-0.300000 F100.0(Penetrate)
G03 X51.883610 Y97.515917 Z-0.300000 I-2.145851 J2.145792 F400.000000
G03 X52.179599 Y98.251443 Z-0.300000 I-2.540910 J1.449826
G03 X52.075881 Y99.071222 Z-0.300000 I-1.100770 J0.277182
G03 X51.548649 Y99.410844 Z-0.300000 I-0.574337 J-0.312555
G03 X51.171865 Y99.301507 Z-0.300000 I-0.040712 J-0.563582
G03 X51.000309 Y99.005161 Z-0.300000 I0.256016 J-0.346040
G03 X51.040209 Y98.600158 Z-0.300000 I0.951422 J-0.110734
G03 X51.213789 Y98.343807 Z-0.300000 I0.527662 J0.170347
G02 X51.398104 Y97.887183 Z-0.300000 I-0.331367 J-0.399266
G02 X51.136989 Y97.653501 Z-0.300000 I-0.261115 J0.029043
G03 X50.897073 Y97.551844 Z-0.300000 I0.000000 J-0.333935
G03 X50.795419 Y97.300703 Z-0.300000 I0.259399 J-0.251141
G02 X50.751877 Y96.958811 Z-0.300000 I-1.364057 J0.000000
G02 X50.618619 Y96.617564 Z-0.300000 I-1.494283 J0.386882
G03 X50.741251 Y96.471826 Z-0.300000 I0.090412 J-0.048386
G03 X51.393649 Y96.874072 Z-0.300000 I-0.521715 J1.576345
G01 X51.393699 Y96.874072 Z-0.300000
G0 Z2.000000

(End cutting path id: path27)


(Start cutting path id: path27)
(Change tool to Cylindrical cutter)

G0 Z2.000000
G0 X49.773079 Y100.514149

G01 Z-0.300000 F100.0(Penetrate)
G02 X49.786998 Y100.640595 Z-0.300000 I0.667353 J-0.009473 F400.000000
G02 X49.888089 Y101.069200 Z-0.300000 I8.122024 J-1.689439
G03 X49.843920 Y101.251972 Z-0.300000 I-0.191315 J0.050489
G03 X49.714969 Y101.261769 Z-0.300000 I-0.069602 J-0.062571
G02 X49.532908 Y101.320898 Z-0.300000 I-0.072087 J0.087894
G02 X49.340959 Y102.691657 Z-0.300000 I5.750017 J1.504001
G03 X49.205847 Y104.034483 Z-0.300000 I-8.669041 J-0.194048
G03 X48.948859 Y104.869165 Z-0.300000 I-3.575206 J-0.643858
G02 X48.772823 Y105.560012 Z-0.300000 I1.928336 J0.859213
G02 X48.883959 Y105.680394 Z-0.300000 I0.111136 J0.008892
G02 X50.052313 Y105.278838 Z-0.300000 I0.000000 J-1.900477
G02 X50.453869 Y104.456707 Z-0.300000 I-0.640821 J-0.822131
G03 X50.495557 Y104.297030 Z-0.300000 I0.326646 J0.000000
G03 X50.793099 Y103.851333 Z-0.300000 I3.004370 J1.683513
G03 X51.100260 Y103.632201 Z-0.300000 I0.528094 J0.415396
G03 X51.238339 Y103.696307 Z-0.300000 I0.035965 J0.103293
G02 X51.405146 Y103.884083 Z-0.300000 I0.332893 J-0.127741
G02 X51.763109 Y103.972544 Z-0.300000 I0.357963 J-0.680030
G03 X51.861150 Y104.156135 Z-0.300000 I0.000000 J0.117973
G03 X51.343239 Y104.599880 Z-0.300000 I-1.052751 J-0.704595
G02 X50.750233 Y104.953025 Z-0.300000 I1.441471 J3.095005
G02 X49.956069 Y105.629160 Z-0.300000 I4.646491 J6.262066
G02 X49.834027 Y105.954742 Z-0.300000 I0.284828 J0.292430
G02 X49.988069 Y106.021964 Z-0.300000 I0.095069 J-0.007746
G03 X50.395189 Y106.053977 Z-0.300000 I0.186205 J0.236722
G03 X50.411129 Y106.478519 Z-0.300000 I-0.239087 J0.221547
G02 X50.036109 Y106.968134 Z-0.300000 I12.930204 J10.292290
G02 X49.615049 Y107.559028 Z-0.300000 I18.429254 J13.577824
G03 X48.061598 Y109.422620 Z-0.300000 I-10.918755 J-7.522386
G03 X46.617689 Y110.549782 Z-0.300000 I-5.338542 J-5.350327
G03 X43.861019 Y111.948231 Z-0.300000 I-11.089644 J-18.444031
G03 X42.759089 Y112.170222 Z-0.300000 I-1.101930 J-2.623916
G03 X42.500506 Y111.788821 Z-0.300000 I0.000000 J-0.278358
G03 X43.366249 Y110.646576 Z-0.300000 I2.501696 J0.996905
G02 X44.208632 Y109.979798 Z-0.300000 I-19.569739 J-25.589186
G02 X44.659329 Y109.587503 Z-0.300000 I-6.312413 J-7.707211
G03 X45.116730 Y109.204398 Z-0.300000 I4.137449 J4.475231
G03 X46.068309 Y108.520244 Z-0.300000 I14.198614 J18.744767
G02 X46.950116 Y107.812487 Z-0.300000 I-4.091639 J-6.001051
G02 X47.038129 Y107.609024 Z-0.300000 I-0.191169 J-0.203463
G03 X47.087609 Y107.370719 Z-0.300000 I0.598604 J-0.000000
G03 X47.862919 Y105.708490 Z-0.300000 I31.179275 J13.530962
G02 X48.888699 Y103.158250 Z-0.300000 I-15.197905 J-7.594456
G02 X48.972479 Y102.139829 Z-0.300000 I-2.242079 J-0.697100
G03 X49.096999 Y100.705682 Z-0.300000 I3.211437 J-0.443646
G03 X49.535229 Y100.386060 Z-0.300000 I0.438230 J0.140615
G03 X49.723945 Y100.433656 Z-0.300000 I-0.000000 J0.397925
G03 X49.773019 Y100.514149 Z-0.300000 I-0.044281 J0.082203
G01 X49.773079 Y100.514149 Z-0.300000
G0 Z2.000000

(End cutting path id: path27)


(Start cutting path id: path27)
(Change tool to Cylindrical cutter)

G0 Z2.000000
G0 X48.788739 Y107.317123

G01 Z-0.300000 F100.0(Penetrate)
G02 X48.284960 Y108.009532 Z-0.300000 I0.978169 J1.241164 F400.000000
G02 X48.447169 Y108.239553 Z-0.300000 I0.160118 J0.059291
G02 X48.823695 Y108.089821 Z-0.300000 I-0.006918 J-0.565682
G02 X49.324339 Y107.430940 Z-0.300000 I-1.599229 J-1.734803
G02 X49.222150 Y107.216085 Z-0.300000 I-0.133330 J-0.068315
G02 X48.788739 Y107.317123 Z-0.300000 I-0.108955 J0.512721
G01 X48.788739 Y107.317123 Z-0.300000
G0 Z2.000000

(End cutting path id: path27)


(Start cutting path id: path27)
(Change tool to Cylindrical cutter)

G0 Z2.000000
G0 X47.794249 Y108.836249

G01 Z-0.300000 F100.0(Penetrate)
G03 X47.446979 Y109.032626 Z-0.300000 I-0.907345 J-1.199290 F400.000000
G03 X47.160269 Y109.090661 Z-0.300000 I-0.301110 J-0.750343
G02 X46.298836 Y109.391419 Z-0.300000 I0.026071 J1.458712
G02 X46.013479 Y109.969660 Z-0.300000 I0.443188 J0.578241
G03 X45.933202 Y110.211312 Z-0.300000 I-0.403853 J0.000000
G03 X45.773059 Y110.291588 Z-0.300000 I-0.160143 J-0.119598
G02 X44.187399 Y110.685705 Z-0.300000 I0.000000 J3.386873
G02 X43.793279 Y111.340544 Z-0.300000 I0.346955 J0.654839
G02 X43.843912 Y111.436082 Z-0.300000 I0.115450 J0.000000
G02 X44.006759 Y111.485414 Z-0.300000 I0.160610 J-0.236731
G02 X45.643501 Y111.102676 Z-0.300000 I-0.029270 J-3.816219
G02 X46.013479 Y110.511920 Z-0.300000 I-0.286650 J-0.590756
G03 X46.065434 Y110.408483 Z-0.300000 I0.128943 J0.000000
G03 X46.483139 Y110.162354 Z-0.300000 I1.350605 J1.814598
G02 X48.203832 Y109.072768 Z-0.300000 I-3.022635 J-6.676865
G02 X48.221219 Y108.686807 Z-0.300000 I-0.170692 J-0.201062
G02 X48.117852 Y108.662741 Z-0.300000 I-0.070648 J0.069422
G02 X47.794249 Y108.836249 Z-0.300000 I0.391565 J1.118818
G01 X47.794249 Y108.836249 Z-0.300000
G0 Z2.000000

(End cutting path id: path27)


(Start cutting path id: path27)
(Change tool to Cylindrical cutter)

G0 Z2.000000
G0 X51.394019 Y102.095220

G01 Z-0.300000 F100.0(Penetrate)
G03 X51.410467 Y102.256839 Z-0.300000 I-0.158140 J0.097741 F400.000000
G03 X51.233309 Y102.534381 Z-0.300000 I-0.716917 J-0.262305
G02 X51.021908 Y102.826053 Z-0.300000 I0.808202 J0.808224
G02 X50.952759 Y103.088122 Z-0.300000 I0.577341 J0.292493
G03 X50.906330 Y103.182906 Z-0.300000 I-0.133420 J-0.006591
G01 X50.856259 Y103.170782 Z-0.300000
G03 X50.837038 Y102.970142 Z-0.300000 I0.325960 J-0.132467
G03 X50.968969 Y102.601103 Z-0.300000 I1.300635 J0.256874
G02 X50.882325 Y102.368558 Z-0.300000 I-0.145866 J-0.078065
G02 X50.538579 Y102.436110 Z-0.300000 I-0.118015 J0.307840
G01 X50.112289 Y102.836588 Z-0.300000
G01 X50.115289 Y102.422552 Z-0.300000
G03 X50.180712 Y102.227195 Z-0.300000 I0.331381 J0.002343
G01 X50.258449 Y102.230080 Z-0.300000
G02 X50.408580 Y102.301439 Z-0.300000 I0.131748 J-0.083574
G02 X50.618319 Y102.187380 Z-0.300000 I-0.037921 J-0.319600
G03 X51.072910 Y101.940128 Z-0.300000 I0.536872 J0.445553
G03 X51.394369 Y102.095210 Z-0.300000 I0.039142 J0.329572
G01 X51.394019 Y102.095220 Z-0.300000
G0 Z2.000000

(End cutting path id: path27)


(Start cutting path id: path27)
(Change tool to Cylindrical cutter)

G0 Z2.000000
G0 X8.517169 Y31.715920

G01 Z-0.300000 F100.0(Penetrate)
G03 X8.523955 Y31.839750 Z-0.300000 I-0.110233 J0.068142 F400.000000
G03 X8.411129 Y31.939640 Z-0.300000 I-0.173900 J-0.082757
G02 X8.217123 Y32.301964 Z-0.300000 I0.094536 J0.283722
G02 X8.586829 Y32.584430 Z-0.300000 I0.369706 J-0.100713
G02 X8.687482 Y32.519514 Z-0.300000 I0.000000 J-0.110490
G02 X8.818789 Y32.072080 Z-0.300000 I-1.525131 J-0.690560
G02 X8.785181 Y31.653427 Z-0.300000 I-0.927770 J-0.136197
G02 X8.657309 Y31.559720 Z-0.300000 I-0.127872 J0.040393
G02 X8.525852 Y31.618389 Z-0.300000 I-0.000000 J0.176609
G02 X8.517169 Y31.715920 Z-0.300000 I0.060820 J0.054566
G01 X8.517169 Y31.715920 Z-0.300000
G0 Z2.000000

(End cutting path id: path27)


(Start cutting path id: path27)
(Change tool to Cylindrical cutter)

G0 Z2.000000
G0 X10.177009 Y31.708920

G01 Z-0.300000 F100.0(Penetrate)
G02 X10.115417 Y31.836772 Z-0.300000 I0.071888 J0.113393 F400.000000
G02 X10.203209 Y31.950800 Z-0.300000 I0.137261 J-0.014869
G02 X10.966918 Y31.988189 Z-0.300000 I0.438743 J-1.143314
G02 X11.075929 Y31.710660 Z-0.300000 I-0.049428 J-0.179589
G02 X10.767263 Y31.538167 Z-0.300000 I-0.309385 J0.191210
G02 X10.176989 Y31.708660 Z-0.300000 I-0.002176 J1.099525
G01 X10.177009 Y31.708920 Z-0.300000
G0 Z2.000000

(End cutting path id: path27)


(Start cutting path id: path27)
(Change tool to Cylindrical cutter)

G0 Z2.000000
G0 X18.613469 Y45.784503

G01 Z-0.300000 F100.0(Penetrate)
G02 X18.750492 Y45.995279 Z-0.300000 I0.556273 J-0.211702 F400.000000
G02 X18.825689 Y45.995137 Z-0.300000 I0.037527 J-0.037816
G02 X18.846122 Y45.899669 Z-0.300000 I-0.063484 J-0.063508
G02 X18.709079 Y45.688897 Z-0.300000 I-0.556670 J0.212005
G02 X18.633902 Y45.689039 Z-0.300000 I-0.037517 J0.037798
G02 X18.613479 Y45.784507 Z-0.300000 I0.063511 J0.063505
G01 X18.613469 Y45.784503 Z-0.300000
G0 Z2.000000

(End cutting path id: path27)


(Start cutting path id: path27)
(Change tool to Cylindrical cutter)

G0 Z2.000000
G0 X16.766559 Y51.839314

G01 Z-0.300000 F100.0(Penetrate)
G02 X16.506627 Y52.187409 Z-0.300000 I0.074865 J0.327000 F400.000000
G02 X16.851959 Y53.194541 Z-0.300000 I2.010764 J-0.126693
G02 X17.381909 Y53.521067 Z-0.300000 I0.629700 J-0.428683
G02 X17.587329 Y53.291671 Z-0.300000 I0.024411 J-0.184814
G03 X17.487947 Y52.819327 Z-0.300000 I6.886699 J-1.695601
G03 X17.439329 Y52.446227 Z-0.300000 I4.235620 J-0.741653
G02 X17.192768 Y51.950166 Z-0.300000 I-0.752325 J0.064628
G02 X16.766559 Y51.839317 Z-0.300000 I-0.319696 J0.354415
G01 X16.766559 Y51.839314 Z-0.300000
G0 Z2.000000

(End cutting path id: path27)


(Start cutting path id: path27)
(Change tool to Cylindrical cutter)

G0 Z2.000000
G0 X18.098759 Y53.405814

G01 Z-0.300000 F100.0(Penetrate)
G02 X18.062459 Y53.618075 Z-0.300000 I0.244531 J0.151053 F400.000000
G02 X18.609139 Y55.747231 Z-0.300000 I29.243967 J-6.373886
G02 X18.987682 Y56.283220 Z-0.300000 I0.979823 J-0.290333
G02 X19.635239 Y56.493886 Z-0.300000 I0.647557 J-0.889919
G02 X19.737798 Y56.351414 Z-0.300000 I0.000000 J-0.108150
G02 X19.274679 Y55.416371 Z-0.300000 I-3.624448 J1.212948
G03 X18.929795 Y54.750476 Z-0.300000 I2.613332 J-1.775773
G03 X18.891369 Y54.394712 Z-0.300000 I0.673553 J-0.252707
G03 X19.009129 Y54.329842 Z-0.300000 I0.083396 J0.012070
G03 X19.277549 Y54.567199 Z-0.300000 I-0.244064 J0.546458
