%
(header)
(generated by gcodetools from inkscape.)
(using default header. to add your own header create file "header" in the output dir.)
m3
(header end.)
g21 (all units in mm)

(start cutting path id: path12817)
(change tool to cone cutter)

g0 z2.000000
g0 x108.432500 y50.864890

g01 z-0.500000 f100.0(penetrate)
g03 x108.235759 y50.920797 z-0.500000 i-0.104557 j0.006183 f400.000000
g03 x108.058569 y50.401019 z-0.500000 i1.461429 j-0.788286
g03 x107.920008 y49.396515 z-0.500000 i19.743708 j-3.235245
g03 x107.948740 y49.276240 z-0.500000 i0.181065 j-0.020315
g01 x107.988012 y49.281605 z-0.500000
g03 x108.432500 y50.864890 z-0.500000 i-22.086467 j7.054546
g01 x108.432500 y50.864890 z-0.500000
g0 z2.000000

(end cutting path id: path12817)


(start cutting path id: path12817)
(change tool to cone cutter)

g0 z2.000000
g0 x110.157070 y57.371070

g01 z-0.500000 f100.0(penetrate)
g03 x109.874033 y57.101310 z-0.500000 i-0.044162 j-0.237028 f400.000000
g03 x110.054249 y56.416358 z-0.500000 i2.904406 j0.397985
g01 x110.131787 y56.422933 z-0.500000
g03 x110.157070 y57.371070 z-0.500000 i-2.555819 j0.542561
g01 x110.157070 y57.371070 z-0.500000
g0 z2.000000

(end cutting path id: path12817)


(start cutting path id: path12817)
(change tool to cone cutter)

g0 z2.000000
g0 x108.290350 y64.477900

g01 z-0.500000 f100.0(penetrate)
g02 x108.902370 y64.686963 z-0.500000 i0.451576 j-0.321605 f400.000000
g02 x109.057570 y64.477900 z-0.500000 i-0.063209 j-0.209063
g02 x108.902370 y64.268837 z-0.500000 i-0.218409 j-0.000000
g02 x108.290350 y64.477900 z-0.500000 i-0.160444 j0.530668
g01 x108.290350 y64.477900 z-0.500000
g0 z2.000000

(end cutting path id: path12817)


(start cutting path id: path12817)
(change tool to cone cutter)

g0 z2.000000
g0 x109.891880 y75.288170

g01 z-0.500000 f100.0(penetrate)
g02 x110.786793 y75.603923 z-0.500000 i0.614354 j-0.315148 f400.000000
g02 x111.311191 y75.122034 z-0.500000 i-0.453483 j-1.019761
g02 x111.200009 y74.917610 z-0.500000 i-0.121076 j-0.066596
g02 x109.891880 y75.288170 z-0.500000 i-0.142841 j1.989971
g01 x109.891880 y75.288170 z-0.500000
g0 z2.000000

(end cutting path id: path12817)


(start cutting path id: path12817)
(change tool to cone cutter)

g0 z2.000000
g0 x120.540950 y72.667380

g01 z-0.500000 f100.0(penetrate)
g02 x119.366300 y73.947333 z-0.500000 i2.069145 j3.077896 f400.000000
g02 x119.516215 y74.242297 z-0.500000 i0.174659 j0.096808
g02 x120.571062 y74.199530 z-0.500000 i0.398806 j-3.193752
g02 x122.663235 y73.645613 z-0.500000 i-4.121024 j-19.793388
g02 x124.690294 y72.852363 z-0.500000 i-5.518818 j-17.089295
g02 x125.154192 y72.414140 z-0.500000 i-0.422024 j-0.911401
g02 x125.034726 y72.176161 z-0.500000 i-0.143783 j-0.076796
g02 x122.161270 y72.084690 z-0.500000 i-1.822802 j12.082324
g01 x120.540950 y72.667380 z-0.500000
g0 z2.000000

(end cutting path id: path12817)


(start cutting path id: path12817)
(change tool to cone cutter)

g0 z2.000000
g0 x125.506710 y78.891600

g01 z-0.500000 f100.0(penetrate)
g02 x126.293024 y79.190671 z-0.500000 i0.610999 j-0.423213 f400.000000
g02 x126.512107 y78.941479 z-0.500000 i-0.068164 j-0.280831
g02 x126.351329 y78.689581 z-0.500000 i-0.236846 j-0.026087
g02 x125.506710 y78.891600 z-0.500000 i-0.261088 j0.775056
g01 x125.506710 y78.891600 z-0.500000
g0 z2.000000

(end cutting path id: path12817)


(start cutting path id: path12817)
(change tool to cone cutter)

g0 z2.000000
g0 x119.901410 y78.491090

g01 z-0.500000 f100.0(penetrate)
g03 x119.303903 y78.810408 z-0.500000 i-0.462909 j-0.147509 f400.000000
g03 x119.099604 y78.526362 z-0.500000 i0.078388 j-0.271874
g03 x119.333665 y78.196685 z-0.500000 i0.371753 j0.016006
g03 x119.901410 y78.491090 z-0.500000 i0.156484 j0.392864
g01 x119.901410 y78.491090 z-0.500000
g0 z2.000000

(end cutting path id: path12817)


(start cutting path id: path12817)
(change tool to cone cutter)

g0 z2.000000
g0 x117.764290 y80.593090

g01 z-0.500000 f100.0(penetrate)
g03 x117.481254 y80.323395 z-0.500000 i-0.044206 j-0.236973 f400.000000
g03 x117.661458 y79.638419 z-0.500000 i2.904590 j0.397948
g01 x117.738994 y79.644992 z-0.500000
g03 x117.764290 y80.593090 z-0.500000 i-2.555653 j0.542572
g01 x117.764290 y80.593090 z-0.500000
g0 z2.000000

(end cutting path id: path12817)


(start cutting path id: path12817)
(change tool to cone cutter)

g0 z2.000000
g0 x113.895700 y86.624250

g01 z-0.500000 f100.0(penetrate)
g03 x112.801694 y85.872880 z-0.500000 i0.065946 j-1.268149 f400.000000
g03 x112.848617 y85.352775 z-0.500000 i0.489362 j-0.218019
g03 x113.169036 y85.303190 z-0.500000 i0.183426 j0.125239
g03 x113.895700 y86.624250 z-0.500000 i-1.184941 j1.512176
g01 x113.895700 y86.624250 z-0.500000
g0 z2.000000

(end cutting path id: path12817)


(start cutting path id: path12817)
(change tool to cone cutter)

g0 z2.000000
g0 x114.690340 y88.624330

g01 z-0.500000 f100.0(penetrate)
g03 x114.312224 y88.695952 z-0.500000 i-0.203445 j-0.040144 f400.000000
g03 x114.089451 y88.075203 z-0.500000 i1.246836 j-0.797809
g03 x114.207741 y87.999978 z-0.500000 i0.077152 j-0.009295
g03 x114.690340 y88.624330 z-0.500000 i-0.601067 j0.963291
g01 x114.690340 y88.624330 z-0.500000
g0 z2.000000

(end cutting path id: path12817)


(start cutting path id: path12817)
(change tool to cone cutter)

g0 z2.000000
g0 x114.440360 y93.107410

g01 z-0.500000 f100.0(penetrate)
g03 x116.752190 y96.283218 z-0.500000 i-3.616436 j5.061937 f400.000000
g03 x116.792646 y98.152931 z-0.500000 i-3.154229 j1.003545
g03 x116.152203 y98.384885 z-0.500000 i-0.401668 j-0.108903
g03 x113.493810 y95.160680 z-0.500000 i4.490891 j-6.410830
g03 x112.889095 y93.988223 z-0.500000 i1.519188 j-1.525722
g03 x114.440360 y93.107410 z-0.500000 i0.937187 j-0.155881
g01 x114.440360 y93.107410 z-0.500000
g0 z2.000000

(end cutting path id: path12817)


(start cutting path id: path12817)
(change tool to cone cutter)

g0 z2.000000
g0 x116.971880 y92.179090

g01 z-0.500000 f100.0(penetrate)
g03 x116.755355 y92.087061 z-0.500000 i-0.089773 j-0.089517 f400.000000
g03 x116.844080 y91.597866 z-0.500000 i1.563810 j0.030984
g01 x116.914053 y91.597433 z-0.500000
g03 x116.971880 y92.179090 z-0.500000 i-1.099207 j0.402984
g01 x116.971880 y92.179090 z-0.500000
g0 z2.000000

(end cutting path id: path12817)


(start cutting path id: path12817)
(change tool to cone cutter)

g0 z2.000000
g0 x122.691810 y97.308970

g01 z-0.500000 f100.0(penetrate)
g03 x122.265767 y97.333519 z-0.500000 i-0.216842 j-0.054028 f400.000000
g03 x122.050384 y96.308414 z-0.500000 i3.233721 j-1.214612
g03 x122.180927 y96.256479 z-0.500000 i0.073985 j-0.004065
g03 x122.691810 y97.308970 z-0.500000 i-1.801321 j1.524606
g01 x122.691810 y97.308970 z-0.500000
g0 z2.000000

(end cutting path id: path12817)


(start cutting path id: path12817)
(change tool to cone cutter)

g0 z2.000000
g0 x119.374150 y103.389740

g01 z-0.500000 f100.0(penetrate)
g03 x119.157620 y103.297703 z-0.500000 i-0.089773 j-0.089524 f400.000000
g03 x119.246354 y102.808494 z-0.500000 i1.563895 j0.031009
g01 x119.316327 y102.808062 z-0.500000
g03 x119.374150 y103.389740 z-0.500000 i-1.099283 j0.402991
g01 x119.374150 y103.389740 z-0.500000
g0 z2.000000

(end cutting path id: path12817)


(start cutting path id: path12817)
(change tool to cone cutter)

g0 z2.000000
g0 x119.774540 y106.993160

g01 z-0.500000 f100.0(penetrate)
g03 x119.558007 y106.901121 z-0.500000 i-0.089774 j-0.089526 f400.000000
g03 x119.646740 y106.411917 z-0.500000 i1.563821 j0.031002
g01 x119.716715 y106.411485 z-0.500000
g03 x119.774540 y106.993160 z-0.500000 i-1.099238 j0.402988
g01 x119.774540 y106.993160 z-0.500000
g0 z2.000000

(end cutting path id: path12817)


(start cutting path id: path12817)
(change tool to cone cutter)

g0 z2.000000
g0 x123.380440 y113.624450

g01 z-0.500000 f100.0(penetrate)
g03 x123.082044 y113.269703 z-0.500000 i0.012611 j-0.313480 f400.000000
g03 x123.285051 y112.286236 z-0.500000 i6.953629 j0.922683
g01 x123.356028 y112.291023 z-0.500000
g03 x123.380440 y113.624450 z-0.500000 i-5.415618 j0.766084
g01 x123.380440 y113.624450 z-0.500000
g0 z2.000000

(end cutting path id: path12817)


(start cutting path id: path12817)
(change tool to cone cutter)

g0 z2.000000
g0 x121.376040 y118.604180

g01 z-0.500000 f100.0(penetrate)
g03 x121.159549 y118.518589 z-0.500000 i-0.092089 j-0.083662 f400.000000
g03 x121.248892 y118.031251 z-0.500000 i1.500732 j0.023271
g01 x121.321735 y118.030829 z-0.500000
g03 x121.376040 y118.604180 z-0.500000 i-1.032200 j0.387013
g01 x121.376040 y118.604180 z-0.500000
g0 z2.000000

(end cutting path id: path12817)


(start cutting path id: path12817)
(change tool to cone cutter)

g0 z2.000000
g0 x124.170370 y119.029590

g01 z-0.500000 f100.0(penetrate)
g03 x123.887335 y118.759890 z-0.500000 i-0.044201 j-0.236978 f400.000000
g03 x124.067537 y118.074915 z-0.500000 i2.904611 j0.397951
g01 x124.145074 y118.081488 z-0.500000
g03 x124.170370 y119.029590 z-0.500000 i-2.555697 j0.542577
g01 x124.170370 y119.029590 z-0.500000
g0 z2.000000

(end cutting path id: path12817)


(start cutting path id: path12817)
(change tool to cone cutter)

g0 z2.000000
g0 x124.505780 y124.134430

g01 z-0.500000 f100.0(penetrate)
g03 x123.917419 y124.272289 z-0.500000 i-0.469971 j-0.681313 f400.000000
g03 x123.878900 y124.165495 z-0.500000 i0.009201 j-0.063662
g03 x124.271747 y123.905110 z-0.500000 i0.705198 j0.637402
g03 x124.505780 y124.134430 z-0.500000 i0.060100 j0.172746
g01 x124.505780 y124.134430 z-0.500000
g0 z2.000000

(end cutting path id: path12817)


(start cutting path id: path12817)
(change tool to cone cutter)

g0 z2.000000
g0 x112.283620 y126.516970

g01 z-0.500000 f100.0(penetrate)
g03 x111.556241 y127.189571 z-0.500000 i-0.721522 j-0.050674 f400.000000
g03 x111.153119 y126.884249 z-0.500000 i0.003428 j-0.423311
g03 x111.322864 y126.378171 z-0.500000 i0.449954 j-0.130586
g03 x112.283620 y126.516970 z-0.500000 i0.410863 j0.550574
g01 x112.283620 y126.516970 z-0.500000
g0 z2.000000

(end cutting path id: path12817)


(start cutting path id: path12817)
(change tool to cone cutter)

g0 z2.000000
g0 x93.695102 y124.593610

g01 z-0.500000 f100.0(penetrate)
g03 x95.277699 y129.047149 z-0.500000 i-4.038891 j3.943212 f400.000000
g03 x94.105008 y130.839314 z-0.500000 i-2.270832 j-0.206150
g03 x91.871080 y130.914886 z-0.500000 i-1.191597 j-2.168377
g03 x89.211233 y127.577110 z-0.500000 i2.012423 j-4.332377
g02 x88.085637 y130.692393 z-0.500000 i2.310136 j2.595674
g02 x89.796590 y135.170206 z-0.500000 i11.114064 j-1.680857
g02 x93.211651 y138.549026 z-0.500000 i9.599750 j-6.287460
g02 x96.848772 y138.938010 z-0.500000 i2.208523 j-3.451783
g02 x103.091159 y138.823107 z-0.500000 i2.992669 j-7.039836
g02 x105.096225 y136.191787 z-0.500000 i-1.519132 j-3.237169
g02 x104.458979 y131.890410 z-0.500000 i-6.867109 j-1.180534
g02 x99.982461 y127.558140 z-0.500000 i-8.413531 j4.214749
g02 x97.411194 y123.729406 z-0.500000 i-11.486903 j4.936510
g02 x93.695102 y124.593610 z-0.500000 i-1.594074 j1.567185
g01 x93.695102 y124.593610 z-0.500000
g0 z2.000000

(end cutting path id: path12817)


(start cutting path id: path12817)
(change tool to cone cutter)

g0 z2.000000
g0 x83.972423 y121.024160

g01 z-0.500000 f100.0(penetrate)
g02 x82.347250 y123.188659 z-0.500000 i3.166520 j4.069885 f400.000000
g02 x82.503819 y124.034656 z-0.500000 i0.750775 j0.298541
g02 x83.627277 y124.673217 z-0.500000 i1.560271 j-1.437514
g02 x85.719992 y124.856165 z-0.500000 i1.803838 j-8.573245
g02 x87.815852 y124.529103 z-0.500000 i-0.287780 j-8.722945
g02 x88.670238 y123.920821 z-0.500000 i-0.426958 j-1.503873
g02 x88.635896 y123.281383 z-0.500000 i-0.426014 j-0.297761
g02 x86.403855 y121.660760 z-0.500000 i-4.649032 j4.055610
g03 x85.562676 y121.349131 z-0.500000 i-0.305118 j-0.467507
g02 x83.972423 y121.024160 z-0.500000 i-0.880662 j0.256083
g01 x83.972423 y121.024160 z-0.500000
g0 z2.000000

(end cutting path id: path12817)


(start cutting path id: path12817)
(change tool to cone cutter)

g0 z2.000000
g0 x82.265651 y116.052310

g01 z-0.500000 f100.0(penetrate)
g02 x85.700614 y117.787559 z-0.500000 i4.973965 j-5.578657 f400.000000
g02 x86.131219 y117.508109 z-0.500000 i0.074919 j-0.356042
g02 x85.875453 y116.928852 z-0.500000 i-0.526877 j-0.113456
g02 x82.265651 y116.052310 z-0.500000 i-3.279540 j5.634632
g01 x82.265651 y116.052310 z-0.500000
g0 z2.000000

(end cutting path id: path12817)


(start cutting path id: path12817)
(change tool to cone cutter)

g0 z2.000000
g0 x85.168399 y112.113910

g01 z-0.500000 f100.0(penetrate)
g02 x86.612485 y115.800859 z-0.500000 i4.391019 j0.406428 f400.000000
g02 x91.657495 y118.727904 z-0.500000 i9.520646 j-10.598368
g02 x97.184805 y119.258684 z-0.500000 i3.929470 j-11.874893
g02 x100.756760 y116.729220 z-0.500000 i-0.596166 j-4.628650
g03 x97.035270 y114.136270 z-0.500000 i1.191342 j-5.676933
g02 x91.522390 y111.860250 z-0.500000 i-4.354918 j2.733758
g02 x88.341606 y111.822253 z-0.500000 i-3.818503 j186.500526
g02 x85.168399 y112.113910 z-0.500000 i-0.057378 j16.783703
g01 x85.168399 y112.113910 z-0.500000
g0 z2.000000

(end cutting path id: path12817)


(start cutting path id: path12817)
(change tool to cone cutter)

g0 z2.000000
g0 x95.568997 y107.218370

g01 z-0.500000 f100.0(penetrate)
g03 x96.640176 y109.116224 z-0.500000 i-7.454316 j5.458558 f400.000000
g03 x96.557784 y109.330730 z-0.500000 i-0.153509 j0.064114
g03 x96.171702 y109.318634 z-0.500000 i-0.181223 j-0.383240
g03 x95.087349 y108.592764 z-0.500000 i3.690166 j-6.685483
g03 x94.124718 y107.693111 z-0.500000 i5.414074 j-6.757912
g03 x93.857738 y107.167600 z-0.500000 i0.804983 j-0.739535
g03 x94.015898 y106.967830 z-0.500000 i0.163909 j-0.032725
g03 x95.568997 y107.218370 z-0.500000 i0.140105 j4.070586
g01 x95.568997 y107.218370 z-0.500000
g0 z2.000000

(end cutting path id: path12817)


(start cutting path id: path12817)
(change tool to cone cutter)

g0 z2.000000
g0 x93.023442 y105.453500

g01 z-0.500000 f100.0(penetrate)
g03 x92.029076 y106.296015 z-0.500000 i-0.863890 j-0.011544 f400.000000
g03 x91.157849 y105.774890 z-0.500000 i0.202882 j-1.328013
g03 x91.269404 y105.354918 z-0.500000 i0.221079 j-0.166078
g03 x93.023442 y105.453500 z-0.500000 i0.778376 j1.804410
g01 x93.023442 y105.453500 z-0.500000
g0 z2.000000

(end cutting path id: path12817)


(start cutting path id: path12817)
(change tool to cone cutter)

g0 z2.000000
g0 x92.141709 y99.577790

g01 z-0.500000 f100.0(penetrate)
g02 x94.360735 y101.320775 z-0.500000 i2.877171 j-1.378945 f400.000000
g02 x96.013027 y101.218819 z-0.500000 i0.641516 j-3.043050
g02 x96.139094 y100.721695 z-0.500000 i-0.099598 j-0.289805
g02 x93.661217 y99.363430 z-0.500000 i-3.245736 j2.981860
g01 x92.748373 y99.325430 z-0.500000
g01 x92.141709 y99.577790 z-0.500000
g0 z2.000000

(end cutting path id: path12817)


(start cutting path id: path12817)
(change tool to cone cutter)

g0 z2.000000
g0 x85.869102 y98.429670

g01 z-0.500000 f100.0(penetrate)
g02 x88.553896 y99.598934 z-0.500000 i3.995764 j-5.507868 f400.000000
g02 x88.756120 y99.393544 z-0.500000 i0.033276 j-0.169485
g02 x88.377365 y98.884436 z-0.500000 i-0.744106 j0.158142
g02 x85.869102 y98.429670 z-0.500000 i-1.936622 j3.536893
g01 x85.869102 y98.429670 z-0.500000
g0 z2.000000

(end cutting path id: path12817)


(start cutting path id: path12817)
(change tool to cone cutter)

g0 z2.000000
g0 x78.773646 y95.690090

g01 z-0.500000 f100.0(penetrate)
g02 x81.492542 y96.905752 z-0.500000 i2.939125 j-2.925203 f400.000000
g02 x82.860623 y96.670918 z-0.500000 i0.166574 j-3.132024
g02 x82.851675 y96.390359 z-0.500000 i-0.057475 j-0.138589
g02 x78.773646 y95.690090 z-0.500000 i-4.218314 j12.341061
g01 x78.773646 y95.690090 z-0.500000
g0 z2.000000

(end cutting path id: path12817)


(start cutting path id: path12817)
(change tool to cone cutter)

g0 z2.000000
g0 x76.328837 y92.289510

g01 z-0.500000 f100.0(penetrate)
g02 x85.472284 y93.709586 z-0.500000 i30.973191 j-169.281212 f400.000000
g03 x95.110915 y96.968620 z-0.500000 i-3.266597 j25.543697
g02 x103.482805 y100.092603 z-0.500000 i25.725303 j-56.160833
g02 x109.849940 y100.566630 z-0.500000 i4.293136 j-14.666727
g03 x112.834295 y102.305638 z-0.500000 i-1.819105 j6.552080
g03 x117.343654 y107.659661 z-0.500000 i-28.642197 j28.699513
g03 x118.987100 y111.608854 z-0.500000 i-8.041988 j5.663208
g03 x117.604330 y112.910430 z-0.500000 i-1.117766 j0.197809
g02 x107.705481 y107.722208 z-0.500000 i-18.086269 j22.470284
g02 x98.109240 y105.144940 z-0.500000 i-55.479626 j187.419678
g02 x85.807977 y100.665395 z-0.500000 i-17.324211 j28.443955
g03 x73.442773 y94.249750 z-0.500000 i3.268426 j-21.423276
g03 x74.085501 y92.150515 z-0.500000 i0.858726 j-0.885092
g03 x76.328837 y92.289510 z-0.500000 i0.835122 j4.694272
g01 x76.328837 y92.289510 z-0.500000
g0 z2.000000

(end cutting path id: path12817)


(start cutting path id: path12817)
(change tool to cone cutter)

g0 z2.000000
g0 x65.133337 y98.951000

g01 z-0.500000 f100.0(penetrate)
g03 x64.518867 y102.806874 z-0.500000 i-8.450913 j0.630164 f400.000000
g03 x63.604537 y104.079221 z-0.500000 i-3.142478 j-1.293536
g03 x63.172641 y103.922010 z-0.500000 i-0.172326 j-0.198446
g03 x63.447754 y100.792270 z-0.500000 i6.390683 j-1.015203
g03 x63.348542 y98.558582 z-0.500000 i1.845917 j-1.201036
g03 x65.133337 y98.951000 z-0.500000 i0.837751 j0.444755
g01 x65.133337 y98.951000 z-0.500000
g0 z2.000000

(end cutting path id: path12817)


(start cutting path id: path12817)
(change tool to cone cutter)

g0 z2.000000
g0 x63.113032 y93.120860

g01 z-0.500000 f100.0(penetrate)
g02 x62.425987 y94.706530 z-0.500000 i5.634462 j3.382998 f400.000000
g02 x62.537994 y94.839492 z-0.500000 i0.100875 j0.028681
g02 x62.959716 y94.664899 z-0.500000 i-0.085813 j-0.803900
g02 x63.942201 y93.768905 z-0.500000 i-6.880564 j-8.531413
g02 x64.807630 y92.758787 z-0.500000 i-7.662867 j-7.441032
g02 x64.931824 y92.374296 z-0.500000 i-0.492514 j-0.371389
g02 x64.792874 y92.279103 z-0.500000 i-0.103590 j0.002201
g02 x63.113032 y93.120860 z-0.500000 i2.763929 j7.612859
g01 x63.113032 y93.120860 z-0.500000
g0 z2.000000

(end cutting path id: path12817)


(start cutting path id: path12817)
(change tool to cone cutter)

g0 z2.000000
g0 x68.252361 y88.300410

g01 z-0.500000 f100.0(penetrate)
g03 x67.914855 y88.465990 z-0.500000 i-0.239522 j-0.061459 f400.000000
g03 x67.771252 y88.265378 z-0.500000 i0.094739 j-0.219520
g03 x67.882933 y88.110605 z-0.500000 i0.146933 j-0.011656
g03 x68.252361 y88.300410 z-0.500000 i0.075658 j0.307163
g01 x68.252361 y88.300410 z-0.500000
g0 z2.000000

(end cutting path id: path12817)


(start cutting path id: path12817)
(change tool to cone cutter)

g0 z2.000000
g0 x70.439765 y81.554200

g01 z-0.500000 f100.0(penetrate)
g03 x69.804134 y81.316174 z-0.500000 i-0.158394 j-0.544735 f400.000000
g03 x69.856037 y81.058506 z-0.500000 i0.158820 j-0.102070
g03 x70.267226 y81.010581 z-0.500000 i0.250954 j0.365218
g03 x70.439765 y81.554200 z-0.500000 i-0.132328 j0.341190
g01 x70.439765 y81.554200 z-0.500000
g0 z2.000000

(end cutting path id: path12817)


(start cutting path id: path12817)
(change tool to cone cutter)

g0 z2.000000
g0 x81.007187 y79.648320

g01 z-0.500000 f100.0(penetrate)
g03 x79.173055 y80.893728 z-0.500000 i-1.981004 j-0.944175 f400.000000
g03 x75.720889 y80.789870 z-0.500000 i-1.192706 j-17.781004
g03 x74.663522 y80.479620 z-0.500000 i0.443198 j-3.467414
g03 x74.622077 y80.206334 z-0.500000 i0.071600 j-0.150644
g03 x75.077454 y79.961771 z-0.500000 i0.702916 j0.762595
g03 x78.352288 y79.368820 z-0.500000 i6.422371 j26.130539
g01 x79.451008 y79.345220 z-0.500000
g01 x81.007187 y79.648350 z-0.500000
g01 x81.007187 y79.648320 z-0.500000
g0 z2.000000

(end cutting path id: path12817)


(start cutting path id: path12817)
(change tool to cone cutter)

g0 z2.000000
g0 x92.475367 y78.491090

g01 z-0.500000 f100.0(penetrate)
g03 x90.866319 y78.750308 z-0.500000 i-1.157924 j-2.064052 f400.000000
g03 x90.735702 y78.493839 z-0.500000 i0.034800 j-0.179219
g03 x91.197601 y78.102090 z-0.500000 i0.657494 j0.307051
g03 x92.475367 y78.491090 z-0.500000 i0.334392 j1.194677
g01 x92.475367 y78.491090 z-0.500000
g0 z2.000000

(end cutting path id: path12817)


(start cutting path id: path12817)
(change tool to cone cutter)

g0 z2.000000
g0 x95.955961 y78.173500

g01 z-0.500000 f100.0(penetrate)
g03 x93.925187 y78.212096 z-0.500000 i-1.079472 j-3.352587 f400.000000
g03 x93.837925 y77.942871 z-0.500000 i0.045902 j-0.163632
g03 x94.467221 y77.580157 z-0.500000 i0.772026 j0.612177
g03 x95.955961 y78.173500 z-0.500000 i0.231744 j1.582887
g01 x95.955961 y78.173500 z-0.500000
g0 z2.000000

(end cutting path id: path12817)


(start cutting path id: path12817)
(change tool to cone cutter)

g0 z2.000000
g0 x85.647762 y59.707430

g01 z-0.500000 f100.0(penetrate)
g03 x84.945681 y59.547174 z-0.500000 i-0.239458 j-0.568968 f400.000000
g03 x84.921064 y59.258296 z-0.500000 i0.182258 j-0.161019
g03 x85.190456 y59.151130 z-0.500000 i0.206875 j0.127859
g03 x85.647762 y59.707430 z-0.500000 i-0.158684 j0.596560
g01 x85.647762 y59.707430 z-0.500000
g0 z2.000000

(end cutting path id: path12817)


(start cutting path id: path12817)
(change tool to cone cutter)

g0 z2.000000
g0 x85.708011 y51.159510

g01 z-0.500000 f100.0(penetrate)
g02 x86.173677 y54.684930 z-0.500000 i5.007980 j1.131971 f400.000000
g02 x86.793741 y54.770111 z-0.500000 i0.340533 j-0.179435
g02 x87.367820 y53.322120 z-0.500000 i-1.522790 j-1.441530
g02 x85.708011 y51.159510 z-0.500000 i-2.247791 j0.006926
g01 x85.708011 y51.159510 z-0.500000
g0 z2.000000

(end cutting path id: path12817)


(start cutting path id: path12817)
(change tool to cone cutter)

g0 z2.000000
g0 x84.267547 y46.612110

g01 z-0.500000 f100.0(penetrate)
g02 x85.263293 y50.008434 z-0.500000 i23.459497 j-5.033808 f400.000000
g02 x85.593140 y50.445823 z-0.500000 i0.905554 j-0.339834
g02 x85.931598 y50.355296 z-0.500000 i0.133228 j-0.179863
g02 x86.185647 y49.300365 z-0.500000 i-2.869566 j-1.249103
g02 x85.863055 y46.985900 z-0.500000 i-5.853402 j-0.363863
g02 x84.267547 y46.612110 z-0.500000 i-0.917333 j0.323524
g01 x84.267547 y46.612110 z-0.500000
g0 z2.000000

(end cutting path id: path12817)


(start cutting path id: path12817)
(change tool to cone cutter)

g0 z2.000000
g0 x86.669847 y28.573820

g01 z-0.500000 f100.0(penetrate)
g03 x88.251649 y32.458014 z-0.500000 i-13.596930 j7.801409 f400.000000
g02 x89.771799 y37.476820 z-0.500000 i61.127589 j-15.775356
g02 x91.627115 y36.447064 z-0.500000 i0.403539 j-1.459186
g02 x91.954016 y31.947874 z-0.500000 i-10.134846 j-2.997846
g02 x90.390061 y28.490846 z-0.500000 i-6.741151 j0.967409
g02 x86.972635 y27.759380 z-0.500000 i-2.187046 j1.869052
g01 x86.718043 y28.035860 z-0.500000
g01 x86.669843 y28.573800 z-0.500000
g01 x86.669847 y28.573820 z-0.500000
g0 z2.000000

(end cutting path id: path12817)


(start cutting path id: path12817)
(change tool to cone cutter)

g0 z2.000000
g0 x78.862441 y28.043220

g01 z-0.500000 f100.0(penetrate)
g02 x79.757113 y28.192703 z-0.500000 i0.604640 j-0.866740 f400.000000
g02 x79.839049 y27.996266 z-0.500000 i-0.037356 j-0.130888
g02 x79.462634 y27.699004 z-0.500000 i-0.539835 j0.296624
g02 x78.862441 y28.043220 z-0.500000 i-0.129305 j0.469909
g01 x78.862441 y28.043220 z-0.500000
g0 z2.000000

(end cutting path id: path12817)


(start cutting path id: path12817)
(change tool to cone cutter)

g0 z2.000000
g0 x69.815881 y28.009220

g01 z-0.500000 f100.0(penetrate)
g02 x71.196110 y31.424337 z-0.500000 i1461.152554 j-588.542407 f400.000000
g02 x72.191389 y33.399355 z-0.500000 i12.581570 j-5.101998
g02 x72.491879 y33.326816 z-0.500000 i0.138569 j-0.084639
g02 x72.301378 y29.854860 z-0.500000 i-13.435635 j-1.004010
g02 x71.129531 y26.999977 z-0.500000 i-1.428583 j-1.081554
g02 x69.815881 y28.009220 z-0.500000 i-0.165622 j1.143982
g01 x69.815881 y28.009220 z-0.500000
g0 z2.000000

(end cutting path id: path12817)


(start cutting path id: path12817)
(change tool to cone cutter)

g0 z2.000000
g0 x51.836776 y28.412900

g01 z-0.500000 f100.0(penetrate)
g03 x52.420720 y31.831239 z-0.500000 i-82.900038 j15.920607 f400.000000
g02 x52.627866 y32.245078 z-0.500000 i0.737654 j-0.110469
g02 x52.960965 y32.250445 z-0.500000 i0.169289 j-0.167310
g03 x54.487567 y30.890840 z-0.500000 i22.370678 j23.581559
g02 x53.901807 y34.276440 z-0.500000 i19.003025 j5.031283
g02 x53.633528 y40.048090 z-0.500000 i77.061347 j6.474039
g02 x53.731718 y42.213185 z-0.500000 i19.928141 j0.181008
g02 x53.913127 y42.309438 z-0.500000 i0.122757 j-0.012282
g02 x54.104400 y42.068204 z-0.500000 i-0.185746 j-0.343723
g02 x54.994697 y38.134320 z-0.500000 i-45.419118 j-12.346719
g03 x55.896837 y34.068246 z-0.500000 i44.335092 j7.703514
g02 x56.404636 y30.253986 z-0.500000 i-14.079906 j-3.815414
g02 x55.405277 y28.550821 z-0.500000 i-1.950732 j-0.000154
g02 x51.836776 y28.412900 z-0.500000 i-1.919732 j3.436430
g01 x51.836776 y28.412900 z-0.500000
g0 z2.000000

(end cutting path id: path12817)


(start cutting path id: path12817)
(change tool to cone cutter)

g0 z2.000000
g0 x38.826175 y40.457800

g01 z-0.500000 f100.0(penetrate)
g03 x37.212998 y43.137954 z-0.500000 i-4.322887 j-0.776373 f400.000000
g03 x36.657601 y42.992669 z-0.500000 i-0.222467 j-0.283781
g03 x36.675922 y41.699008 z-0.500000 i1.504022 j-0.625659
g03 x38.826175 y40.457800 z-0.500000 i1.935769 j0.870361
g01 x38.826175 y40.457800 z-0.500000
g0 z2.000000

(end cutting path id: path12817)


(start cutting path id: path12817)
(change tool to cone cutter)

g0 z2.000000
g0 x38.096980 y44.934220

g01 z-0.500000 f100.0(penetrate)
g03 x37.880456 y44.842192 z-0.500000 i-0.089772 j-0.089516 f400.000000
g03 x37.969183 y44.352996 z-0.500000 i1.563822 j0.030991
g01 x38.039155 y44.352564 z-0.500000
g03 x38.096980 y44.934220 z-0.500000 i-1.099214 j0.402980
g01 x38.096980 y44.934220 z-0.500000
g0 z2.000000

(end cutting path id: path12817)


(start cutting path id: path12817)
(change tool to cone cutter)

g0 z2.000000
g0 x38.431558 y46.961160

g01 z-0.500000 f100.0(penetrate)
g03 x39.066158 y48.716170 z-0.500000 i-6.924075 j3.495940 f400.000000
g03 x39.545454 y51.298013 z-0.500000 i-29.887455 j6.883743
g03 x39.405109 y51.345017 z-0.500000 i-0.074509 j0.010555
g03 x38.463328 y49.104990 z-0.500000 i9.894798 j-5.478088
g03 x37.560581 y46.827928 z-0.500000 i1.164864 j-1.779293
g03 x38.431558 y46.961160 z-0.500000 i0.429849 j0.103484
g01 x38.431558 y46.961160 z-0.500000
g0 z2.000000

(end cutting path id: path12817)


(start cutting path id: path12817)
(change tool to cone cutter)

g0 z2.000000
g0 x43.024082 y49.363450

g01 z-0.500000 f100.0(penetrate)
g02 x44.172572 y55.196610 z-0.500000 i5.121829 j2.021207 f400.000000
g03 x43.176550 y59.630030 z-0.500000 i-1.966643 j1.886764
g03 x42.583875 y57.894238 z-0.500000 i8.357940 j-3.822844
g03 x41.419205 y51.459592 z-0.500000 i63.685005 j-14.849699
g03 x41.207568 y48.900861 z-0.500000 i27.377160 j-3.552527
g03 x41.367213 y48.011157 z-0.500000 i2.131168 j-0.076768
g03 x41.729700 y47.910725 z-0.500000 i0.220327 j0.090849
g03 x43.024082 y49.363450 z-0.500000 i-2.866731 j3.857279
g01 x43.024082 y49.363450 z-0.500000
g0 z2.000000

(end cutting path id: path12817)


(start cutting path id: path12817)
(change tool to cone cutter)

g0 z2.000000
g0 x45.630881 y46.366720

g01 z-0.500000 f100.0(penetrate)
g01 x45.630881 y46.366750 z-0.500000 f400.000000
g01 x45.630881 y46.366720 z-0.500000
g0 z2.000000

(end cutting path id: path12817)


(start cutting path id: path12817)
(change tool to cone cutter)

g0 z2.000000
g0 x50.927446 y45.923290

g01 z-0.500000 f100.0(penetrate)
g02 x51.525539 y48.749382 z-0.500000 i34.675804 j-5.862193 f400.000000
g01 x51.603237 y48.755184 z-0.500000
g02 x51.666529 y48.406022 z-0.500000 i-0.751322 j-0.316507
g02 x51.540267 y46.440171 z-0.500000 i-40.884229 j1.638913
g02 x51.327245 y44.517587 z-0.500000 i-43.526166 j3.849591
g02 x51.170886 y43.866718 z-0.500000 i-3.218008 j0.428852
g01 x51.078534 y43.875881 z-0.500000
g02 x50.927446 y45.923290 z-0.500000 i15.044174 j2.139457
g01 x50.927446 y45.923290 z-0.500000
g0 z2.000000

(end cutting path id: path12817)


(start cutting path id: path12817)
(change tool to cone cutter)

g0 z2.000000
g0 x52.904421 y43.924940

g01 z-0.500000 f100.0(penetrate)
g02 x53.044647 y45.134347 z-0.500000 i1.320291 j0.459750 f400.000000
g02 x53.333047 y45.153789 z-0.500000 i0.151336 j-0.096139
g02 x53.587200 y44.442238 z-0.500000 i-0.825298 j-0.695947
g02 x52.904421 y43.924940 z-0.500000 i-0.543301 j0.007854
g01 x52.904421 y43.924940 z-0.500000
g0 z2.000000

(end cutting path id: path12817)


(start cutting path id: path12817)
(change tool to cone cutter)

g0 z2.000000
g0 x54.478364 y46.354930

g01 z-0.500000 f100.0(penetrate)
g02 x54.688302 y48.581785 z-0.500000 i2.701889 j0.868601 f400.000000
g02 x55.149267 y48.632830 z-0.500000 i0.248295 j-0.135335
g02 x55.620539 y47.432967 z-0.500000 i-1.431903 j-1.254892
g02 x54.478364 y46.354930 z-0.500000 i-1.051151 j-0.030394
g01 x54.478364 y46.354930 z-0.500000
g0 z2.000000

(end cutting path id: path12817)


(start cutting path id: path12817)
(change tool to cone cutter)

g0 z2.000000
g0 x54.245163 y51.742200

g01 z-0.500000 f100.0(penetrate)
g02 x54.724987 y52.303498 z-0.500000 i1.066936 j-0.426331 f400.000000
g02 x54.822524 y52.235273 z-0.500000 i0.033368 j-0.056130
g02 x54.585752 y51.668617 z-0.500000 i-1.450994 j0.273490
g02 x54.245163 y51.742200 z-0.500000 i-0.155063 j0.107292
g01 x54.245163 y51.742200 z-0.500000
g0 z2.000000

(end cutting path id: path12817)


(start cutting path id: path12817)
(change tool to cone cutter)

g0 z2.000000
g0 x51.436376 y52.643050

g01 z-0.500000 f100.0(penetrate)
g02 x51.994563 y53.006275 z-0.500000 i0.552535 j-0.238600 f400.000000
g02 x52.156695 y52.843608 z-0.500000 i-0.001537 j-0.163665
g02 x51.986822 y52.519374 z-0.500000 i-0.389832 j-0.002376
g02 x51.436376 y52.643050 z-0.500000 i-0.217582 j0.318380
g01 x51.436376 y52.643050 z-0.500000
g0 z2.000000

(end cutting path id: path12817)


(start cutting path id: path12817)
(change tool to cone cutter)

g0 z2.000000
g0 x53.037880 y53.644020

g01 z-0.500000 f100.0(penetrate)
g02 x53.575886 y54.028486 z-0.500000 i0.527222 j-0.169107 f400.000000
g02 x53.754202 y53.846516 z-0.500000 i-0.003542 j-0.181824
g02 x53.565038 y53.484009 z-0.500000 i-0.442609 j0.000354
g02 x53.037880 y53.644020 z-0.500000 i-0.200661 j0.287290
g01 x53.037880 y53.644020 z-0.500000
g0 z2.000000

(end cutting path id: path12817)


(start cutting path id: path12817)
(change tool to cone cutter)

g0 z2.000000
g0 x53.069120 y58.272000

g01 z-0.500000 f100.0(penetrate)
g03 x53.935445 y70.013633 z-0.500000 i-32.574465 j8.306195 f400.000000
g02 x55.602058 y78.510730 z-0.500000 i14.762193 j1.516549
g02 x55.268139 y67.632655 z-0.500000 i-102.490156 j-2.298068
g02 x53.069120 y58.272000 z-0.500000 i-32.720785 j2.748188
g01 x53.069120 y58.272000 z-0.500000
g0 z2.000000

(end cutting path id: path12817)


(start cutting path id: path12817)
(change tool to cone cutter)

g0 z2.000000
g0 x45.417964 y61.575070

g01 z-0.500000 f100.0(penetrate)
g03 x44.908160 y61.741367 z-0.500000 i-0.309387 j-0.083883 f400.000000
g03 x44.687315 y61.311580 z-0.500000 i0.369846 j-0.461679
g03 x44.861630 y61.139157 z-0.500000 i0.163691 j-0.008838
g03 x45.417964 y61.575070 z-0.500000 i-0.040575 j0.624751
g01 x45.417964 y61.575070 z-0.500000
g0 z2.000000

(end cutting path id: path12817)


(start cutting path id: path12817)
(change tool to cone cutter)

g0 z2.000000
g0 x40.597993 y57.971660

g01 z-0.500000 f100.0(penetrate)
g03 x40.354259 y58.008129 z-0.500000 i-0.127335 j-0.018308 f400.000000
g03 x40.255675 y57.543508 z-0.500000 i0.939454 j-0.442103
g03 x40.307367 y56.550460 z-0.500000 i16.398906 j0.355745
g03 x40.368167 y56.409969 z-0.500000 i0.238113 j0.019647
g01 x40.414784 y56.423657 z-0.500000
g03 x40.597993 y57.971660 z-0.500000 i-16.900351 j2.785034
g01 x40.597993 y57.971660 z-0.500000
g0 z2.000000

(end cutting path id: path12817)


(start cutting path id: path12817)
(change tool to cone cutter)

g0 z2.000000
g0 x37.248612 y60.991860

g01 z-0.500000 f100.0(penetrate)
g02 x37.543543 y61.126502 z-0.500000 i0.274389 j-0.210701 f400.000000
g02 x37.584651 y61.052231 z-0.500000 i-0.002984 j-0.050163
g02 x37.394565 y60.868768 z-0.500000 i-0.388704 j0.212530
g02 x37.248612 y60.991860 z-0.500000 i-0.046572 j0.092854
g01 x37.248612 y60.991860 z-0.500000
g0 z2.000000

(end cutting path id: path12817)


(start cutting path id: path12817)
(change tool to cone cutter)

g0 z2.000000
g0 x34.628783 y57.301970

g01 z-0.500000 f100.0(penetrate)
g03 x35.061747 y59.606836 z-0.500000 i-11.971790 j3.441976 f400.000000
g03 x34.947900 y59.853432 z-0.500000 i-0.270318 j0.024779
g03 x34.668208 y59.826324 z-0.500000 i-0.124107 j-0.175938
g03 x33.974406 y58.911620 z-0.500000 i3.637332 j-3.479385
g03 x33.228808 y56.919493 z-0.500000 i5.212063 j-3.086324
g03 x34.139408 y56.099510 z-0.500000 i0.707484 j-0.129938
g01 x34.628783 y57.301970 z-0.500000
g0 z2.000000

(end cutting path id: path12817)


(start cutting path id: path12817)
(change tool to cone cutter)

g0 z2.000000
g0 x31.645422 y52.911830

g01 z-0.500000 f100.0(penetrate)
g02 x31.570381 y56.601628 z-0.500000 i0.853308 j1.863016 f400.000000
g02 x32.567169 y55.910590 z-0.500000 i0.312128 j-0.614198
g03 x31.647328 y58.401683 z-0.500000 i-6.508509 j-0.987907
g03 x31.128972 y58.572928 z-0.500000 i-0.361889 j-0.225279
g03 x30.449349 y57.967733 z-0.500000 i0.484818 j-1.228641
g03 x29.672559 y56.057482 z-0.500000 i8.644469 j-4.628274
g03 x29.706717 y53.447197 z-0.500000 i4.328356 j-1.248727
g03 x31.645422 y52.911830 z-0.500000 i1.143384 j0.362532
g01 x31.645422 y52.911830 z-0.500000
g0 z2.000000

(end cutting path id: path12817)


(start cutting path id: path12817)
(change tool to cone cutter)

g0 z2.000000
g0 x22.818637 y46.294790

g01 z-0.500000 f100.0(penetrate)
g03 x25.150629 y54.232670 z-0.500000 i-1.137343 j4.645616 f400.000000
g02 x24.324311 y59.410340 z-0.500000 i3.363160 j3.191508
g03 x27.441991 y61.289216 z-0.500000 i0.015818 j3.499825
g03 x28.906615 y64.615468 z-0.500000 i-24.140819 j12.615334
g02 x29.494694 y66.215573 z-0.500000 i191.287724 j-69.394911
g02 x29.690127 y66.297615 z-0.500000 i0.136227 j-0.050716
g02 x29.831673 y66.110427 z-0.500000 i-0.098989 j-0.221962
g02 x30.162570 y63.054920 z-0.500000 i-42.611649 j-6.160310
g03 x34.068725 y66.843886 z-0.500000 i-3.226712 j7.234480
g03 x34.757308 y70.943330 z-0.500000 i-6.688993 j3.231102
g03 x33.092435 y73.325832 z-0.500000 i-3.051070 j-0.359112
g03 x28.093945 y73.272920 z-0.500000 i-2.448268 j-4.842174
g03 x23.648411 y61.406943 z-0.500000 i17.892464 j-13.469068
g02 x22.116781 y49.778940 z-0.500000 i-98.657057 j7.080144
g03 x20.841026 y47.586853 z-0.500000 i5.087377 j-4.428038
g03 x22.818637 y46.294790 z-0.500000 i1.147455 j-0.403206
g01 x22.818637 y46.294790 z-0.500000
g0 z2.000000

(end cutting path id: path12817)


(start cutting path id: path12817)
(change tool to cone cutter)

g0 z2.000000
g0 x28.487849 y34.123990

g01 z-0.500000 f100.0(penetrate)
g03 x28.271300 y34.031923 z-0.500000 i-0.089774 j-0.089547 f400.000000
g03 x28.360063 y33.542673 z-0.500000 i1.564091 j0.031090
g01 x28.430040 y33.542244 z-0.500000
g03 x28.487849 y34.123990 z-0.500000 i-1.099479 j0.403002
g01 x28.487849 y34.123990 z-0.500000
g0 z2.000000

(end cutting path id: path12817)


(start cutting path id: path12817)
(change tool to cone cutter)

g0 z2.000000
g0 x27.911973 y31.846810

g01 z-0.500000 f100.0(penetrate)
g03 x27.300442 y32.205830 z-0.500000 i-0.461008 j-0.084920 f400.000000
g03 x26.995689 y31.853181 z-0.500000 i0.147715 j-0.435659
g03 x27.172701 y31.555786 z-0.500000 i0.258618 j-0.047446
g03 x27.911973 y31.846810 z-0.500000 i0.193549 j0.592816
g01 x27.911973 y31.846810 z-0.500000
g0 z2.000000

(end cutting path id: path12817)


(start cutting path id: path12817)
(change tool to cone cutter)

g0 z2.000000
g0 x17.470606 y27.993470

g01 z-0.500000 f100.0(penetrate)
g02 x18.283515 y28.776118 z-0.500000 i0.769829 j0.013900 f400.000000
g02 x19.011969 y28.412458 z-0.500000 i-0.057533 j-1.026665
g02 x18.944210 y28.044557 z-0.500000 i-0.185063 j-0.156106
g02 x17.470606 y27.993470 z-0.500000 i-0.786946 j1.420854
g01 x17.470606 y27.993470 z-0.500000
g0 z2.000000

(end cutting path id: path12817)


(start cutting path id: path12817)
(change tool to cone cutter)

g0 z2.000000
g0 x13.579339 y28.008970

g01 z-0.500000 f100.0(penetrate)
g02 x13.585249 y29.585184 z-0.500000 i1.916327 j0.780933 f400.000000
g02 x13.892570 y29.636050 z-0.500000 i0.169552 j-0.070582
g02 x14.316993 y28.690360 z-0.500000 i-1.312773 j-1.157255
g02 x13.579339 y28.008970 z-0.500000 i-0.614417 j-0.074827
g01 x13.579339 y28.008970 z-0.500000
g0 z2.000000

(end cutting path id: path12817)


(start cutting path id: path12817)
(change tool to cone cutter)

g0 z2.000000
g0 x0.0000 y0.0000
g0 x5.783156 y28.669830

g01 z-0.500000 f100.0(penetrate)
g02 x4.397919 y40.998068 z-0.500000 i23.832155 j8.919795 f400.000000
g03 x5.157968 y54.125890 z-0.500000 i-85.236557 j11.520776
g03 x7.405456 y65.746397 z-0.500000 i-77.557444 j21.027749
g02 x8.956428 y74.869530 z-0.500000 i90.039021 j-10.613616
g02 x13.646976 y84.658471 z-0.500000 i51.176369 j-18.503829
g03 x12.223952 y93.087990 z-0.500000 i-5.575782 j3.393601
g03 x13.351673 y95.138984 z-0.500000 i-2.467657 j2.692350
g03 x13.037762 y95.517179 z-0.500000 i-0.316711 j0.056496
g02 x12.106569 y95.979460 z-0.500000 i0.010360 j1.189881
g02 x11.731200 y98.949950 z-0.500000 i2.334410 j1.803952
g02 x10.009785 y100.399743 z-0.500000 i2.695343 j4.947180
g02 x10.156445 y100.767581 z-0.500000 i0.179040 j0.141772
g03 x11.944457 y101.052821 z-0.500000 i-8.058811 j56.262920
g03 x14.386229 y102.555640 z-0.500000 i-0.673661 j3.829658
g03 x16.375213 y101.444304 z-0.500000 i4.918101 j6.466505
g03 x16.624791 y101.580559 z-0.500000 i0.067146 j0.173712
g03 x16.556740 y102.202915 z-0.500000 i-1.000740 j0.205472
g03 x15.852508 y103.703533 z-0.500000 i-41.011490 j-18.330919
g02 x15.120251 y105.214256 z-0.500000 i127.731965 j62.845283
g02 x15.090241 y105.656905 z-0.500000 i0.542763 j0.259139
g02 x15.281665 y105.727469 z-0.500000 i0.123278 j-0.039497
g02 x17.358853 y104.173020 z-0.500000 i-7.766274 j-12.543039
g03 x18.896915 y108.571763 z-0.500000 i-3.485034 j3.686845
g02 x21.746494 y112.511440 z-0.500000 i3.468552 j0.491580
g02 x23.045725 y121.481390 z-0.500000 i8.722954 j3.315612
g03 x21.906163 y126.875290 z-0.500000 i-2.895724 j2.205551
g03 x26.724476 y128.533079 z-0.500000 i1.785926 j2.640297
g02 x30.692051 y128.604610 z-0.500000 i1.996092 j-0.646743
g03 x37.998922 y136.089022 z-0.500000 i-3.752399 j10.972364
g03 x38.978104 y146.172040 z-0.500000 i-23.314853 j7.353206
g02 x40.759159 y153.793037 z-0.500000 i9.976774 j1.687010
g03 x44.201953 y160.769300 z-0.500000 i-18.815654 j13.623191
g03 x46.010579 y168.703208 z-0.500000 i-5.101253 j5.335992
g02 x45.030246 y172.580520 z-0.500000 i16.750920 j6.297863
g03 x47.295843 y174.316594 z-0.500000 i-0.829753 j3.429191
g03 x49.839713 y180.171201 z-0.500000 i-30.938633 j16.923033
g03 x51.636491 y186.635671 z-0.500000 i-66.162900 j21.871697
g03 x52.683552 y191.394950 z-0.500000 i-371.961217 j84.327814
g03 x56.418932 y204.767032 z-0.500000 i-241.241949 j74.596695
g02 x64.322436 y216.393610 z-0.500000 i19.772986 j-4.941655
g02 x73.370168 y220.781017 z-0.500000 i33.497678 j-57.556229
g03 x73.059354 y223.619530 z-0.500000 i-0.543428 j1.376769
g03 x82.059366 y227.728884 z-0.500000 i-3.792956 j20.217326
g02 x87.260142 y226.431610 z-0.500000 i2.101998 j-2.646683
g03 x85.192790 y223.777357 z-0.500000 i6.525530 j-7.214863
g03 x85.183565 y222.937423 z-0.500000 i0.808100 j-0.428893
g03 x85.957923 y222.369790 z-0.500000 i0.942787 j0.474137
g03 x87.942603 y222.383894 z-0.500000 i0.950608 j5.879710
g03 x91.918754 y224.005588 z-0.500000 i-1.765357 j10.013699
g03 x93.074848 y227.423500 z-0.500000 i-1.695292 j2.477903
g03 x99.791403 y227.957482 z-0.500000 i1.779776 j20.121770
g02 x106.091490 y225.308020 z-0.500000 i1.389173 j-5.511859
g02 x113.517232 y211.305929 z-0.500000 i-27.961508 j-23.798950
g03 x118.951440 y196.584000 z-0.500000 i90.639950 j25.093410
g02 x121.236629 y183.560719 z-0.500000 i-62.434145 j-17.667420
g02 x118.097940 y169.990420 z-0.500000 i-23.587341 j-1.692584
g02 x113.722020 y156.087641 z-0.500000 i-191.682914 j52.692429
g03 x112.434840 y141.559460 z-0.500000 i27.425892 j-9.751013
g02 x114.214780 y137.480674 z-0.500000 i-2.258071 j-3.413166
g02 x113.208876 y132.210286 z-0.500000 i-104.961258 j17.301671
g03 x112.819039 y129.681818 z-0.500000 i20.559612 j-4.464155
g03 x113.140984 y128.457155 z-0.500000 i1.842614 j-0.170254
g03 x114.025710 y128.008356 z-0.500000 i0.857977 j0.594909
g03 x117.369500 y128.718230 z-0.500000 i-0.239889 j9.360202
g03 x120.415081 y128.854319 z-0.500000 i1.435037 j2.031914
g02 x124.891563 y132.380939 z-0.500000 i49.935459 j-58.780695
g02 x128.721902 y133.694358 z-0.500000 i4.038304 j-5.535010
g02 x133.707810 y130.951650 z-0.500000 i0.169884 j-5.594411
g03 x141.398145 y124.843684 z-0.500000 i17.730579 j14.428673
g02 x148.924280 y118.521800 z-0.500000 i-8.937240 j-18.280520
g03 x152.444565 y115.925411 z-0.500000 i21.392426 j25.320011
g02 x153.471410 y113.963150 z-0.500000 i-1.203227 j-1.879448
g02 x155.250413 y111.815003 z-0.500000 i-13.102540 j-12.661679
g02 x159.138590 y106.070180 z-0.500000 i-141.172763 j-99.735917
g03 x159.311525 y104.689316 z-0.500000 i0.739431 j-0.608657
g02 x162.309950 y101.810630 z-0.500000 i-9.333120 j-12.722245
g03 x164.835297 y96.251298 z-0.500000 i174.592731 j75.956167
g03 x167.007980 y92.632810 z-0.500000 i19.428357 j9.204023
g03 x168.326438 y89.512991 z-0.500000 i11.447868 j2.999447
g02 x169.712690 y85.639770 z-0.500000 i-8.873542 j-5.360585
g02 x171.489895 y80.157845 z-0.500000 i-10.079408 j-6.296722
g02 x171.788800 y73.053820 z-0.500000 i-133.542736 j-9.177168
g02 x172.297049 y69.067456 z-0.500000 i-4.547212 j-2.605338
g03 x172.751550 y61.087520 z-0.500000 i12.125243 j-3.312313
g02 x170.879425 y61.275630 z-0.500000 i-0.911053 j0.342952
g03 x166.750950 y62.818180 z-0.500000 i-2.503096 j-0.403283
g03 x169.105179 y74.531845 z-0.500000 i-32.084787 j12.541857
g03 x169.137950 y84.213660 z-0.500000 i-234.278224 j5.633944
g03 x159.950797 y91.218751 z-0.500000 i-12.004962 j-6.217462
g03 x148.531420 y86.758540 z-0.500000 i-2.323042 j-10.900860
g02 x146.078465 y85.485571 z-0.500000 i-3.254283 j3.271006
g02 x145.319571 y85.953747 z-0.500000 i-0.116458 j0.660383
g02 x145.135728 y87.787992 z-0.500000 i4.655990 j1.392996
g02 x145.575224 y91.388786 z-0.500000 i59.162383 j-5.393854
g03 x146.135396 y96.760186 z-0.500000 i-55.538690 j8.506922
g03 x144.716710 y97.318940 z-0.500000 i-0.801727 j0.044811
g02 x142.953756 y97.942258 z-0.500000 i-0.680274 j0.880729
g02 x142.513533 y100.984474 z-0.500000 i16.689702 j3.968039
g03 x142.341964 y102.834444 z-0.500000 i-24.110630 j-1.303110
g03 x142.006475 y103.311729 z-0.500000 i-0.624218 j-0.082217
g03 x141.599760 y103.240438 z-0.500000 i-0.156460 j-0.303191
g03 x139.820650 y100.819000 z-0.500000 i9.713995 j-9.001499
g03 x133.423075 y90.123859 z-0.500000 i16.587013 j-17.182959
g02 x126.671940 y84.664120 z-0.500000 i-7.234763 j2.042143
g02 x123.863210 y82.613513 z-0.500000 i-2.882551 j0.999379
g02 x121.489813 y83.036470 z-0.500000 i-0.146409 j6.049005
g02 x120.107004 y83.597737 z-0.500000 i31.706102 j80.099236
g03 x119.687175 y83.578138 z-0.500000 i-0.189147 j-0.454664
g03 x119.583840 y83.321126 z-0.500000 i0.100597 j-0.189726
g03 x120.478690 y81.293710 z-0.500000 i10.869437 j3.586300
g02 x123.186584 y79.654665 z-0.500000 i-0.422543 j-3.754491
g02 x123.096230 y78.375436 z-0.500000 i-0.861209 j-0.581977
g02 x120.594564 y76.296416 z-0.500000 i-8.516913 j7.703698
g03 x118.317540 y74.718450 z-0.500000 i13.266586 j-21.575714
g03 x117.804787 y64.543793 z-0.500000 i15.257885 j-5.869172
g02 x115.608660 y54.990690 z-0.500000 i-10.000110 j-2.730094
g02 x115.123710 y49.452762 z-0.500000 i-169.919280 j12.089446
g02 x113.511291 y42.058443 z-0.500000 i-33.965864 j3.533693
g02 x110.357281 y37.089450 z-0.500000 i-11.736868 j3.964358
g02 x105.289940 y35.786750 z-0.500000 i-3.687914 j3.838515
g02 x104.529533 y36.477005 z-0.500000 i19.258665 j21.979946
g01 x104.548475 y36.501116 z-0.500000
g03 x105.172369 y36.100899 z-0.500000 i29.581665 j45.428212
g03 x106.777820 y35.225819 z-0.500000 i7.579230 j11.994852
g03 x109.220014 y34.911128 z-0.500000 i1.718418 j3.702165
g03 x111.298070 y37.364940 z-0.500000 i-0.447976 j2.486202
g03 x115.346165 y48.180426 z-0.500000 i-9.602171 j9.759284
g02 x119.715560 y55.870750 z-0.500000 i7.879305 j0.609669
g03 x120.129061 y54.189277 z-0.500000 i5.922032 j0.564741
g03 x120.329963 y54.101547 z-0.500000 i0.145517 j0.059338
g03 x120.592255 y54.368438 z-0.500000 i-0.156842 j0.416471
g03 x120.853223 y55.517601 z-0.500000 i-4.655442 j1.661436
g03 x120.481763 y56.997294 z-0.500000 i-2.213951 j0.230686
g03 x118.558330 y57.370990 z-0.500000 i-1.149400 j-0.779167
g02 x120.930181 y59.268990 z-0.500000 i2.361435 j-0.519985
g03 x124.534530 y62.505050 z-0.500000 i0.015542 j3.607996
g02 x128.426270 y74.580812 z-0.500000 i106.269546 j-27.583242
g02 x133.553370 y86.189810 z-0.500000 i127.818468 j-49.514179
g02 x135.974876 y88.379576 z-0.500000 i17.845406 j-17.300192
g02 x136.305823 y88.418820 z-0.500000 i0.197376 j-0.249408
g02 x136.458801 y88.100562 z-0.500000 i-0.116580 j-0.251932
g02 x135.955450 y86.344419 z-0.500000 i-23.421765 j5.763012
g03 x134.670776 y82.297896 z-0.500000 i209.962592 j-68.885280
g03 x135.642290 y79.992470 z-0.500000 i1.863717 j-0.572036
g02 x135.110037 y72.872175 z-0.500000 i-14.637490 j-2.485866
g03 x135.787420 y64.740070 z-0.500000 i9.940954 j-3.266209
g03 x139.035776 y63.669684 z-0.500000 i1.972435 j0.521681
g03 x143.216484 y68.007166 z-0.500000 i-14.734819 j18.385784
g02 x145.615407 y71.182798 z-0.500000 i195.912190 j-145.501293
g02 x146.983520 y72.432723 z-0.500000 i4.210541 j-3.234973
g02 x147.747144 y72.235819 z-0.500000 i0.289439 j-0.456689
g02 x148.439190 y69.345420 z-0.500000 i-4.954319 j-2.714256
g03 x150.336881 y63.750342 z-0.500000 i6.203157 j-1.015426
g03 x156.282190 y61.524750 z-0.500000 i5.631659 j5.990302
g02 x155.442450 y58.563111 z-0.500000 i-2.503647 j-0.889988
g02 x152.962593 y56.906338 z-0.500000 i-10.662709 j13.275627
g02 x151.744839 y56.248185 z-0.500000 i-57.265065 j104.499620
g03 x151.747118 y56.123304 z-0.500000 i0.032970 j-0.061860
g03 x151.984144 y56.081954 z-0.500000 i0.190283 j0.390726
g03 x154.978360 y56.454070 z-0.500000 i-10.217728 j94.449081
g02 x153.764776 y53.942664 z-0.500000 i-2.282597 j-0.445905
g03 x147.389434 y50.430721 z-0.500000 i64.564091 j-124.747912
g03 x144.924581 y48.840049 z-0.500000 i16.966102 j-28.995183
g03 x144.632749 y48.231902 z-0.500000 i0.402043 j-0.567023
g03 x144.961311 y47.888905 z-0.500000 i0.365956 j0.021690
g03 x149.225540 y47.853300 z-0.500000 i2.321285 j22.638036
g02 x155.539742 y43.069178 z-0.500000 i0.644891 j-5.707737
g02 x152.012570 y35.915750 z-0.500000 i-6.777996 j-1.104237
g03 x157.742411 y38.307933 z-0.500000 i2.247007 j2.676141
g02 x160.754770 y44.401600 z-0.500000 i9.184334 j-0.748805
g02 x161.723977 y38.437011 z-0.500000 i-1.831301 j-3.358614
g03 x158.293970 y33.324960 z-0.500000 i14.280216 j-13.288259
g02 x155.139302 y31.495953 z-0.500000 i-4.452139 j4.043955
g02 x153.404455 y31.186280 z-0.500000 i-4.661364 j21.099524
g03 x153.378757 y30.976239 z-0.500000 i0.014818 j-0.108406
g03 x156.127980 y30.028180 z-0.500000 i11.396979 j28.589276
g03 x159.650644 y29.741841 z-0.500000 i2.675870 j11.107891
g02 x166.065871 y30.006705 z-0.500000 i7.229229 j-97.274632
g02 x170.796849 y29.391529 z-0.500000 i0.145072 j-17.383578
g02 x171.593260 y27.643100 z-0.500000 i-0.329770 j-1.205808
g03 x134.790740 y27.615413 z-0.500000 i-15.920404 j-3297.616652
g02 x97.998978 y27.953900 z-0.500000 i-7.500505 j1184.438457
g02 x100.515374 y40.050812 z-0.500000 i19.278979 j2.299778
g03 x106.501780 y51.694760 z-0.500000 i-104.642516 j61.159828
g02 x109.294501 y58.916641 z-0.500000 i14.956227 j-1.632697
g03 x110.672880 y65.066670 z-0.500000 i-6.409771 j4.666074
g03 x111.968439 y66.430933 z-0.500000 i-15.235673 j15.765695
g03 x111.962854 y66.527957 z-0.500000 i-0.052408 j0.045656
g03 x111.809547 y66.551852 z-0.500000 i-0.094710 j-0.103902
g02 x110.874961 y66.157358 z-0.500000 i-6.933529 j15.121728
g02 x110.048697 y66.256769 z-0.500000 i-0.319642 j0.826751
g02 x109.595020 y67.900080 z-0.500000 i0.762580 j1.094809
g03 x112.045730 y77.300415 z-0.500000 i-5.227438 j6.382440
g02 x113.632600 y83.033010 z-0.500000 i4.606797 j1.810701
g03 x110.474046 y83.377207 z-0.500000 i-11.332473 j-89.328861
g03 x108.136741 y83.453507 z-0.500000 i-1.822642 j-19.995534
g03 x108.072269 y83.211524 z-0.500000 i0.003345 j-0.130472
g03 x110.365890 y82.252760 z-0.500000 i4.308687 j7.084675
g02 x110.570390 y78.624130 z-0.500000 i-5.994392 j-2.157905
g02 x109.572528 y77.449460 z-0.500000 i-1.651625 j0.391858
g02 x107.412396 y77.104744 z-0.500000 i-1.793298 j4.297049
g02 x104.198887 y77.482794 z-0.500000 i3.333864 j42.185351
g03 x100.941772 y77.970694 z-0.500000 i-38.274551 j-244.396624
g03 x99.183643 y77.825006 z-0.500000 i-0.560369 j-3.918785
g03 x98.590292 y77.006109 z-0.500000 i0.257430 j-0.810938
g03 x99.465469 y73.948340 z-0.500000 i5.974604 j0.055888
g03 x97.565281 y70.845980 z-0.500000 i1.839871 j-3.260028
g03 x98.241080 y69.401104 z-0.500000 i1.726847 j-0.072798
g03 x99.447861 y69.398091 z-0.500000 i0.605367 j0.790270
g03 x100.769930 y72.396550 z-0.500000 i-2.039247 j2.689828
g02 x103.603792 y74.644083 z-0.500000 i3.676066 j-1.724725
g02 x105.751151 y74.262921 z-0.500000 i0.602827 j-2.843234
g02 x106.367259 y72.858958 z-0.500000 i-0.724680 j-1.155181
g02 x104.064070 y69.640600 z-0.500000 i-4.590352 j0.851737
g02 x98.467370 y65.854487 z-0.500000 i-8.552156 j6.612322
g03 x94.250058 y62.932030 z-0.500000 i2.170355 j-7.636144
g03 x93.116415 y63.239464 z-0.500000 i-0.630437 j-0.080862
g03 x91.043993 y60.308597 z-0.500000 i34.057007 j-26.279923
g02 x88.121787 y57.231592 z-0.500000 i-9.643408 j6.232162
g02 x84.146180 y57.458740 z-0.500000 i-1.848047 j2.559629
g03 x81.720762 y56.537891 z-0.500000 i-0.518341 j-2.289317
g03 x79.128604 y51.773371 z-0.500000 i17.792857 j-12.767679
g03 x77.163465 y45.889356 z-0.500000 i55.785058 j-21.901220
g02 x75.896261 y41.981610 z-0.500000 i-46.015166 j12.762457
g02 x73.821168 y38.733128 z-0.500000 i-4.694909 j0.712040
g02 x70.402586 y38.796750 z-0.500000 i-1.663093 j2.514190
g03 x73.679989 y45.386012 z-0.500000 i-1.493208 j4.852397
g03 x66.246798 y48.876690 z-0.500000 i-5.471736 j-1.992127
g02 x67.517740 y55.549381 z-0.500000 i4.491928 j2.601809
g03 x68.159168 y61.510800 z-0.500000 i-2.607720 j3.295799
g02 x69.814839 y72.067896 z-0.500000 i223.417313 j-29.630194
g03 x70.279667 y78.159480 z-0.500000 i-29.200968 j5.291753
g03 x67.579022 y74.638368 z-0.500000 i2.624906 j-4.809502
g03 x66.236886 y66.977490 z-0.500000 i59.161580 j-14.312731
g03 x65.380588 y58.791423 z-0.500000 i775.321925 j-85.239845
g02 x63.883862 y55.458180 z-0.500000 i-5.725864 j0.568425
g02 x64.354500 y68.605480 z-0.500000 i24.075995 j5.720217
g03 x65.772634 y81.406860 z-0.500000 i-31.783453 j10.000203
g03 x65.192043 y81.379807 z-0.500000 i-0.286867 j-0.087108
g03 x64.875990 y78.556434 z-0.500000 i15.449537 j-3.158828
g03 x64.750216 y72.642915 z-0.500000 i336030.836771 j-7149.943162
g02 x64.064624 y70.283650 z-0.500000 i-4.749641 j0.100978
g03 x63.226811 y53.634040 z-0.500000 i42.143886 j-10.466578
g02 x64.295228 y37.066530 z-0.500000 i-104.810877 j-15.077324
g02 x65.457409 y29.860028 z-0.500000 i-3.952987 j-4.334455
g02 x60.844836 y30.541560 z-0.500000 i-2.176105 j1.221832
g03 x61.970701 y45.998178 z-0.500000 i-172.165798 j20.309921
g03 x61.108901 y61.475260 z-0.500000 i-92.754679 j2.597739
g02 x59.952270 y55.842032 z-0.500000 i-12.682040 j-0.331441
g03 x60.805788 y51.484200 z-0.500000 i3.449633 j-1.586861
g02 x58.035405 y49.163740 z-0.500000 i-3.420817 j1.270091
g02 x56.598843 y49.763506 z-0.500000 i-0.255237 j1.408968
g02 x55.092359 y53.013523 z-0.500000 i8.914170 j6.106155
g02 x55.215213 y53.058490 z-0.500000 i0.063306 j0.017351
g02 x57.687761 y64.912319 z-0.500000 i25.783376 j0.806722
g03 x61.440820 y76.801500 z-0.500000 i-41.311821 j19.577861
g03 x62.340668 y80.777267 z-0.500000 i-29.673845 j8.805893
g02 x63.574676 y86.714940 z-0.500000 i62.135367 j-9.816336
g02 x64.327714 y88.945748 z-0.500000 i15.751463 j-4.074600
g02 x64.722197 y89.156078 z-0.500000 i0.326498 j-0.137261
g02 x65.038823 y88.861470 z-0.500000 i-0.078615 j-0.401939
g02 x65.756995 y85.066560 z-0.500000 i-23.877301 j-6.484095
g03 x66.642925 y89.337844 z-0.500000 i-3.251474 j2.901925
g03 x64.310897 y93.796930 z-0.500000 i-14.787299 j-4.894162
g03 x62.718415 y95.402138 z-0.500000 i-6.604578 j-4.959687
g03 x61.943455 y95.525665 z-0.500000 i-0.502169 j-0.657746
g03 x61.565030 y95.025839 z-0.500000 i0.186611 j-0.534455
g03 x61.883211 y91.703990 z-0.500000 i10.671493 j-0.654000
g02 x60.408958 y75.967775 z-0.500000 i-48.743888 j-3.370578
g02 x55.453397 y60.867310 z-0.500000 i-125.623556 j32.862859
g02 x56.664059 y71.858768 z-0.500000 i26.041661 j2.694025
g03 x59.080895 y83.905050 z-0.500000 i-46.923708 j15.679849
g03 x55.579294 y88.653690 z-0.500000 i-7.928881 j-2.181336
g03 x51.826617 y89.632387 z-0.500000 i-3.386368 j-5.300648
g03 x49.350774 y88.111143 z-0.500000 i0.178885 j-3.066491
g03 x49.170782 y83.280270 z-0.500000 i4.439654 j-2.584206
g02 x50.893131 y73.061341 z-0.500000 i-6.597087 j-6.366517
g03 x50.568143 y62.499430 z-0.500000 i12.227747 j-5.662201
g03 x49.348988 y53.312871 z-0.500000 i77.400630 j-14.946074
g02 x47.450577 y44.284140 z-0.500000 i-34.407015 j2.520583
g02 x44.665262 y42.990642 z-0.500000 i-11.365202 j20.827322
g02 x44.406323 y43.134196 z-0.500000 i-0.069674 j0.179634
g03 x44.254510 y43.705037 z-0.500000 i-4.057628 j-0.773505
g03 x42.662807 y45.547360 z-0.500000 i-3.095091 j-1.065301
g03 x42.310073 y37.689511 z-0.500000 i8.370466 j-4.312587
g02 x41.333641 y28.499690 z-0.500000 i-9.063906 j-3.683731
g02 x37.794538 y29.209551 z-0.500000 i-1.471781 j1.839504
g02 x37.825177 y34.053050 z-0.500000 i4.381420 j2.394130
g03 x36.550662 y38.016937 z-0.500000 i-9.039542 j-0.719657
g03 x34.919391 y39.466347 z-0.500000 i-3.145011 j-1.896941
g03 x33.746006 y39.136267 z-0.500000 i-0.390364 j-0.862958
g03 x32.690974 y35.275370 z-0.500000 i5.093799 j-3.466534
g02 x31.194739 y29.609277 z-0.500000 i-9.152676 j-0.613669
g02 x26.006179 y27.643110 z-0.500000 i-3.956073 j2.610581
g03 x23.207689 y27.599308 z-0.500000 i-1.182910 j-13.843496
g02 x21.384243 y27.612446 z-0.500000 i-0.858910 j7.336494
g02 x20.993116 y28.153153 z-0.500000 i0.059951 j0.455184
g02 x22.116252 y30.262980 z-0.500000 i3.950117 j-0.748933
g02 x18.891982 y30.331437 z-0.500000 i-1.577154 j1.681835
g02 x17.519047 y33.080024 z-0.500000 i3.577390 j3.504114
g02 x17.513672 y35.012371 z-0.500000 i6.448086 j0.984118
g02 x18.017280 y35.858034 z-0.500000 i1.276870 j-0.187615
g02 x18.738394 y35.919169 z-0.500000 i0.409544 j-0.547257
g02 x20.884272 y34.155770 z-0.500000 i-2.972868 j-5.805036
g03 x22.607453 y34.406990 z-0.500000 i0.800699 j0.543278
g03 x23.255044 y37.725044 z-0.500000 i-14.183064 j4.490361
g02 x23.580163 y40.348700 z-0.500000 i29.683796 j-2.346392
g02 x24.176278 y41.584183 z-0.500000 i2.431459 j-0.411615
g02 x25.000885 y41.764081 z-0.500000 i0.537080 j-0.481993
g02 x27.412912 y39.943290 z-0.500000 i-2.566269 j-5.907589
g03 x28.413940 y43.402311 z-0.500000 i-18.231699 j7.150544
g02 x29.844614 y48.312394 z-0.500000 i26.786038 j-5.141303
g02 x30.809909 y50.098651 z-0.500000 i8.014666 j-3.177178
g02 x31.624194 y50.588106 z-0.500000 i0.960932 j-0.676588
g02 x32.406274 y50.315024 z-0.500000 i0.116172 j-0.923734
g02 x34.071847 y47.916030 z-0.500000 i-6.285789 j-6.141780
g02 x38.026472 y57.768802 z-0.500000 i13.654538 j0.239477
g03 x42.178075 y64.611240 z-0.500000 i-12.178945 j12.070190
g03 x44.444405 y78.058478 z-0.500000 i-39.346012 j13.545777
g02 x49.062061 y91.102270 z-0.500000 i20.871261 j-0.049424
g02 x50.937199 y93.939648 z-0.500000 i138.693427 j-89.620022
g03 x54.005584 y98.759994 z-0.500000 i-86.355121 j58.356013
g03 x56.163744 y103.047019 z-0.500000 i-28.204570 j16.885386
g03 x55.640380 y103.715400 z-0.500000 i-0.450011 j0.186722
g02 x54.193472 y100.976890 z-0.500000 i-9.875700 j3.466387
g02 x52.590942 y99.199464 z-0.500000 i-9.738087 j7.168741
g02 x52.267567 y99.350176 z-0.500000 i-0.130121 j0.143086
g02 x52.915210 y101.676010 z-0.500000 i5.243191 j-0.206913
g03 x59.294918 y111.451363 z-0.500000 i-93.916691 j68.262506
g03 x64.013665 y122.688420 z-0.500000 i-40.494219 j23.613924
g03 x62.381875 y134.686751 z-0.500000 i-36.220767 j1.184052
g02 x61.103551 y144.492360 z-0.500000 i27.353568 j8.552121
g02 x56.755819 y157.724072 z-0.500000 i101.642181 j40.728176
g02 x58.491077 y170.751630 z-0.500000 i16.884706 j4.380320
g03 x58.503189 y174.070191 z-0.500000 i-16.537230 j1.719659
g02 x58.345530 y179.666461 z-0.500000 i40.915682 j3.953036
g02 x58.623632 y181.883035 z-0.500000 i13.173031 j-0.527018
g02 x59.086270 y182.526779 z-0.500000 i0.964836 j-0.205283
g02 x59.675539 y182.484392 z-0.500000 i0.264049 j-0.446406
g02 x61.548087 y180.407830 z-0.500000 i-5.528187 j-6.867635
g03 x65.368931 y181.278492 z-0.500000 i-2.732319 j20.809706
g03 x65.501136 y181.621851 z-0.500000 i-0.074176 j0.225691
g03 x65.004107 y181.980752 z-0.500000 i-0.642694 j-0.366435
g03 x60.959346 y182.520430 z-0.500000 i-6.133280 j-30.540380
g02 x63.966806 y184.287667 z-0.500000 i2.370462 j-0.591374
g02 x68.724403 y181.797948 z-0.500000 i-3.231668 j-11.965882
g02 x70.522503 y179.791314 z-0.500000 i-6.236989 j-7.397768
g02 x70.852924 y178.366713 z-0.500000 i-1.709799 j-1.147188
g02 x70.176926 y177.470392 z-0.500000 i-1.137261 j0.154636
g02 x66.610739 y176.792290 z-0.500000 i-3.259859 j7.427367
g03 x64.182144 y174.776631 z-0.500000 i-0.628358 j-1.713807
g02 x62.222289 y171.775310 z-0.500000 i-2.608293 j-0.437342
g03 x62.919672 y163.393620 z-0.500000 i7.845636 j-3.567076
g03 x68.252238 y159.812020 z-0.500000 i7.065227 j4.758693
g03 x70.711357 y151.216721 z-0.500000 i8.011069 j-2.357456
g02 x77.539468 y141.979920 z-0.500000 i-18.584295 j-20.880217
g03 x81.380934 y140.791285 z-0.500000 i6.471562 j14.113193
g02 x83.697295 y140.038950 z-0.500000 i-1.439199 j-8.373222
g02 x84.503505 y138.800111 z-0.500000 i-0.639669 j-1.298034
g02 x83.537954 y135.126870 z-0.500000 i-6.463183 j-0.264606
g03 x80.756686 y129.107101 z-0.500000 i231.977747 j-110.831292
g03 x79.427904 y121.860880 z-0.500000 i14.234543 j-6.355216
g03 x76.396011 y116.373139 z-0.500000 i4.062949 j-5.826125
g03 x77.913051 y113.347366 z-0.500000 i3.448008 j-0.164450
g03 x83.243314 y111.238385 z-0.500000 i7.450596 j11.040347
g03 x89.249978 y111.537960 z-0.500000 i2.299561 j14.260817
g03 x94.492832 y112.002099 z-0.500000 i1.782220 j9.711642
g03 x98.899254 y114.829260 z-0.500000 i-4.353027 j11.632152
g03 x100.494218 y115.496343 z-0.500000 i0.229404 j1.691789
g03 x103.981024 y120.636049 z-0.500000 i-52.129400 j39.117483
g03 x107.249956 y126.128958 z-0.500000 i-235.173940 j143.675526
g02 x109.690960 y129.601590 z-0.500000 i21.022115 j-12.182754
g01 x109.660757 y129.640314 z-0.500000
g02 x107.943517 y128.607772 z-0.500000 i-6.232985 j8.421937
g02 x107.090927 y128.835632 z-0.500000 i-0.292870 j0.613173
g02 x106.898990 y131.274960 z-0.500000 i2.012756 j1.385588
g02 x112.413733 y137.280703 z-0.500000 i5.318509 j0.651120
g02 x113.692010 y136.828250 z-0.500000 i-0.083066 j-2.266607
g02 x107.326124 y142.897286 z-0.500000 i5.206866 j11.834691
g02 x106.443580 y153.487190 z-0.500000 i12.851523 j6.402750
g02 x110.621805 y165.067065 z-0.500000 i12.824386 j1.916460
g03 x112.240370 y173.771210 z-0.500000 i-4.832628 j5.401205
g03 x106.733836 y163.086356 z-0.500000 i5.621837 j-9.658611
g02 x100.774270 y150.492540 z-0.500000 i-13.630248 j-1.256962
g02 x95.739308 y145.947200 z-0.500000 i-17.513665 j14.338898
g02 x87.536304 y142.151097 z-0.500000 i-16.617137 j25.147002
g02 x80.517192 y142.081606 z-0.500000 i-3.633644 j12.499083
g02 x75.697591 y146.764900 z-0.500000 i1.796817 j6.670699
g02 x81.666901 y147.142350 z-0.500000 i3.481196 j-7.663991
g03 x87.367022 y148.834920 z-0.500000 i1.582582 j5.114813
g03 x88.779931 y152.215866 z-0.500000 i-2.620897 j3.080985
g02 x91.618567 y156.273040 z-0.500000 i3.903806 j0.290294
g03 x89.015885 y157.492373 z-0.500000 i-2.079146 j-1.050569
g02 x82.077630 y155.897918 z-0.500000 i-1006.982018 j4365.978231
g02 x75.778737 y155.293392 z-0.500000 i-5.472098 j23.898740
g02 x71.767122 y158.078090 z-0.500000 i0.151863 j4.500673
g02 x72.095750 y161.230105 z-0.500000 i195.293557 j-18.768085
g03 x72.016334 y164.709361 z-0.500000 i-12.868393 j1.446806
g03 x71.072274 y165.480447 z-0.500000 i-0.904316 j-0.143716
g03 x68.198767 y164.021120 z-0.500000 i0.169072 j-3.891634
g02 x65.773064 y165.399431 z-0.500000 i-0.381199 j2.152790
g02 x65.599083 y168.932064 z-0.500000 i5.372609 j2.035200
g02 x67.587672 y172.455248 z-0.500000 i7.888455 j-2.129676
g02 x71.323394 y173.589740 z-0.500000 i2.877362 j-2.756897
g03 x70.954412 y180.616334 z-0.500000 i-5.401120 j3.239361
g03 x62.446732 y185.597000 z-0.500000 i-10.210534 j-7.684542
g03 x62.659530 y197.991006 z-0.500000 i-573.189625 j16.040163
g02 x67.012078 y209.887750 z-0.500000 i18.760929 j-0.119297
g02 x69.652638 y212.775692 z-0.500000 i7.796016 j-4.477051
g03 x73.302867 y215.684153 z-0.500000 i-21.578494 j30.826654
g03 x74.367731 y216.931462 z-0.500000 i-4.263798 j4.718334
g03 x74.269416 y217.424406 z-0.500000 i-0.301207 j0.196203
g03 x73.614032 y217.607262 z-0.500000 i-0.596684 j-0.872682
g03 x69.729357 y217.115120 z-0.500000 i1.544163 j-27.766433
g03 x60.773224 y208.211201 z-0.500000 i3.503797 j-12.480629
g03 x59.578335 y196.020870 z-0.500000 i32.552931 j-9.344547
g03 x57.851788 y181.547966 z-0.500000 i105.568934 j-19.933295
g02 x54.351847 y167.478980 z-0.500000 i-37.749535 j1.921117
g03 x52.958344 y154.767997 z-0.500000 i15.851486 j-8.169672
g03 x58.487128 y144.614200 z-0.500000 i23.410321 j6.164895
g02 x62.335419 y132.435749 z-0.500000 i-95.821605 j-36.976087
g02 x61.728782 y119.530480 z-0.500000 i-21.862042 j-5.439225
g03 x59.606227 y122.762256 z-0.500000 i-3.736516 j-0.141147
g02 x57.801202 y126.451870 z-0.500000 i1.428402 j2.985132
g03 x57.862453 y130.686637 z-0.500000 i-11.249991 j2.280545
g03 x56.874037 y134.349075 z-0.500000 i-20.230362 j-3.495161
g03 x56.249851 y135.429636 z-0.500000 i-3.503468 j-1.303216
g03 x55.925680 y135.405363 z-0.500000 i-0.153480 j-0.127067
g03 x55.742878 y134.814387 z-0.500000 i1.105378 j-0.665677
g03 x55.753743 y131.198600 z-0.500000 i29.640528 j-1.718846
g02 x55.561145 y126.951019 z-0.500000 i-18.669342 j-1.281632
g02 x54.499098 y122.350428 z-0.500000 i-34.451806 j5.530319
g02 x53.863474 y120.930037 z-0.500000 i-5.916027 j1.795004
g02 x53.550963 y120.926605 z-0.500000 i-0.157326 j0.095801
g02 x53.352955 y121.516615 z-0.500000 i1.080241 j0.690761
g02 x53.239985 y125.701950 z-0.500000 i40.407133 j3.184854
g03 x51.384270 y125.405444 z-0.500000 i-0.834297 j-0.733812
g03 x49.507723 y119.322136 z-0.500000 i27.837525 j-11.918266
g03 x48.451294 y111.398392 z-0.500000 i63.958267 j-12.559497
g03 x48.854745 y111.246160 z-0.500000 i0.224408 j-0.016001
g02 x51.601925 y114.975631 z-0.500000 i13.052351 j-6.738002
g02 x52.347938 y115.008713 z-0.500000 i0.391368 j-0.397532
g02 x52.786030 y114.046424 z-0.500000 i-0.765354 j-0.929302
g02 x52.099187 y109.632950 z-0.500000 i-17.628155 j0.483183
g03 x46.419805 y100.694768 z-0.500000 i28.517360 j-24.393577
g03 x42.537094 y90.327240 z-0.500000 i76.319510 j-34.492998
g03 x38.936630 y87.766658 z-0.500000 i13.741240 j-23.133334
g03 x34.139073 y82.757613 z-0.500000 i21.011934 j-24.926805
g03 x31.907336 y77.935979 z-0.500000 i9.477682 j-7.314138
g03 x33.388513 y74.490770 z-0.500000 i3.175237 j-0.675891
g03 x41.762830 y82.800858 z-0.500000 i-3.211833 j11.611222
g02 x47.251100 y93.199210 z-0.500000 i27.369489 j-7.798134
g02 x48.064569 y92.802453 z-0.500000 i0.326404 j-0.363080
g02 x47.399030 y89.649689 z-0.500000 i-11.599675 j0.802028
g02 x45.218735 y84.297382 z-0.500000 i-68.330540 j24.714627
g02 x44.345731 y82.570570 z-0.500000 i-21.242581 j9.655282
g03 x43.065032 y70.625163 z-0.500000 i20.110849 j-8.197496
g02 x39.198069 y63.193230 z-0.500000 i-6.789127 j-1.189491
g03 x38.030750 y63.269117 z-0.500000 i-0.614381 j-0.434624
g03 x37.076303 y61.557318 z-0.500000 i3.068046 j-2.832634
g03 x36.727039 y58.897355 z-0.500000 i9.182382 j-2.558595
g03 x37.368762 y58.411520 z-0.500000 i0.508866 j0.005412
g03 x34.388253 y52.381997 z-0.500000 i4.564395 j-6.007691
g02 x31.479921 y51.400240 z-0.500000 i-1.618290 j-0.004683
g02 x25.115762 y43.595057 z-0.500000 i-18.265267 j8.395876
g02 x17.441819 y38.341710 z-0.500000 i-82.758474 j112.659674
g03 x16.279283 y32.377282 z-0.500000 i24.561802 j-7.882889
g02 x13.046919 y30.096430 z-0.500000 i-2.555375 j0.190574
g02 x12.266208 y28.156566 z-0.500000 i-1.883283 j-0.369094
g02 x10.086538 y27.387215 z-0.500000 i-2.465282 j3.512144
g02 x7.088611 y27.698547 z-0.500000 i-0.592598 j8.883383
g02 x5.783156 y28.669830 z-0.500000 i0.614014 j2.188208
g01 x5.783156 y28.669830 z-0.500000
g0 z2.000000

(end cutting path id: path12817)


(start cutting path id: path12817)
(change tool to cone cutter)

g0 z2.000000
g0 x9.570741 y33.206190

g01 z-0.500000 f100.0(penetrate)
g02 x8.408993 y33.502227 z-0.500000 i2.904504 j13.825824 f400.000000
g01 x8.413579 y33.523279 z-0.500000
g02 x9.277004 y33.387002 z-0.500000 i-3.065151 j-22.223638
g02 x9.570741 y33.206190 z-0.500000 i-0.082297 j-0.462695
g01 x9.570741 y33.206190 z-0.500000
g0 z2.000000

(end cutting path id: path12817)


(start cutting path id: path12817)
(change tool to cone cutter)

g0 z2.000000
g0 x10.958839 y56.129540

g01 z-0.500000 f100.0(penetrate)
g01 x10.958851 y56.129540 z-0.500000 f400.000000
g01 x10.958839 y56.129540 z-0.500000
g0 z2.000000

(end cutting path id: path12817)


(start cutting path id: path12817)
(change tool to cone cutter)

g0 z2.000000
g0 x30.816820 y65.278530

g01 z-0.500000 f100.0(penetrate)
g02 x31.217447 y65.391369 z-0.500000 i0.291993 j-0.269085 f400.000000
g02 x31.271213 y65.273869 z-0.500000 i-0.023234 j-0.081683
g02 x31.068764 y65.093808 z-0.500000 i-0.309229 j0.143837
g02 x30.816820 y65.278530 z-0.500000 i-0.060077 j0.182235
g01 x30.816820 y65.278530 z-0.500000
g0 z2.000000

(end cutting path id: path12817)


(start cutting path id: path12817)
(change tool to cone cutter)

g0 z2.000000
g0 x33.129549 y70.846340

g01 z-0.500000 f100.0(penetrate)
g02 x32.867052 y72.598834 z-0.500000 i5.916421 j1.782096 f400.000000
g02 x33.025527 y72.743548 z-0.500000 i0.144679 j0.000693
g02 x33.410089 y72.550840 z-0.500000 i-0.056858 j-0.593527
g02 x34.152937 y71.587078 z-0.500000 i-5.597182 j-5.082355
g02 x34.733610 y70.516176 z-0.500000 i-6.452071 j-4.191377
g02 x34.768652 y70.060238 z-0.500000 i-0.625094 j-0.277358
g02 x34.572950 y69.964194 z-0.500000 i-0.140007 j0.037874
g02 x33.129549 y70.846340 z-0.500000 i2.111330 j5.076581
g01 x33.129549 y70.846340 z-0.500000
g0 z2.000000

(end cutting path id: path12817)


(start cutting path id: path12817)
(change tool to cone cutter)

g0 z2.000000
g0 x32.918792 y75.186480

g01 z-0.500000 f100.0(penetrate)
g02 x32.909771 y78.442956 z-0.500000 i2.557697 j1.635336 f400.000000
g02 x34.192883 y79.361914 z-0.500000 i1.772354 j-1.119420
g02 x34.669723 y78.937521 z-0.500000 i0.090753 j-0.378112
g02 x32.918792 y75.186480 z-0.500000 i-6.584262 j0.789261
g01 x32.918792 y75.186480 z-0.500000
g0 z2.000000

(end cutting path id: path12817)


(start cutting path id: path12817)
(change tool to cone cutter)

g0 z2.000000
g0 x36.041940 y78.858900

g01 z-0.500000 f100.0(penetrate)
g02 x36.289031 y82.396175 z-0.500000 i3.836035 j1.509307 f400.000000
g02 x38.261599 y84.959101 z-0.500000 i9.973661 j-5.635714
g02 x39.279334 y85.656101 z-0.500000 i2.506528 j-2.568415
g02 x39.576902 y85.515557 z-0.500000 i0.089381 j-0.196042
g02 x39.544148 y85.022395 z-0.500000 i-0.743761 j-0.198272
g02 x38.111270 y82.245580 z-0.500000 i-17.361323 j7.200602
g03 x38.732816 y81.779361 z-0.500000 i0.436956 j-0.064888
g02 x40.182817 y82.249375 z-0.500000 i2.713571 j-5.899761
g02 x40.396135 y81.988104 z-0.500000 i0.037169 j-0.187371
g02 x38.560593 y79.024240 z-0.500000 i-10.262927 j4.305588
g03 x37.372013 y78.788810 z-0.500000 i-0.421506 j-0.990027
g02 x36.041940 y78.858900 z-0.500000 i-0.634016 j0.623703
g01 x36.041940 y78.858900 z-0.500000
g0 z2.000000

(end cutting path id: path12817)


(start cutting path id: path12817)
(change tool to cone cutter)

g0 z2.000000
g0 x39.424985 y74.096860

g01 z-0.500000 f100.0(penetrate)
g03 x37.092241 y73.700507 z-0.500000 i-0.958323 j-1.422654 f400.000000
g03 x36.343940 y71.736814 z-0.500000 i3.075159 j-2.296268
g03 x36.818353 y71.340572 z-0.500000 i0.375409 j-0.032654
g03 x38.954578 y73.067210 z-0.500000 i-0.897158 j3.294785
g01 x39.425028 y74.096860 z-0.500000
g01 x39.424985 y74.096860 z-0.500000
g0 z2.000000

(end cutting path id: path12817)


(start cutting path id: path12817)
(change tool to cone cutter)

g0 z2.000000
g0 x38.618097 y69.806460

g01 z-0.500000 f100.0(penetrate)
g03 x38.064165 y69.788057 z-0.500000 i-0.272524 j-0.142894 f400.000000
g03 x37.908495 y68.954276 z-0.500000 i1.687317 j-0.746450
g03 x38.078026 y68.879741 z-0.500000 i0.103302 j0.004895
g03 x38.618097 y69.806460 z-0.500000 i-1.006773 j1.207454
g01 x38.618097 y69.806460 z-0.500000
g0 z2.000000

(end cutting path id: path12817)


(start cutting path id: path12817)
(change tool to cone cutter)

g0 z2.000000
g0 x40.784787 y73.922850

g01 z-0.500000 f100.0(penetrate)
g03 x40.323108 y74.582585 z-0.500000 i-0.659259 j0.030062 f400.000000
g03 x40.037167 y74.437594 z-0.500000 i-0.068705 j-0.218957
g03 x40.114698 y73.932719 z-0.500000 i0.523004 j-0.178075
g03 x40.784787 y73.922850 z-0.500000 i0.338777 j0.248527
g01 x40.784787 y73.922850 z-0.500000
g0 z2.000000

(end cutting path id: path12817)


(start cutting path id: path12817)
(change tool to cone cutter)

g0 z2.000000
g0 x50.386839 y77.747550

g01 z-0.500000 f100.0(penetrate)
g03 x49.881807 y80.320135 z-0.500000 i-15.457026 j-1.698550 f400.000000
g03 x49.692573 y80.496289 z-0.500000 i-0.240579 j-0.068723
g03 x49.452855 y80.357682 z-0.500000 i-0.042562 j-0.202988
g03 x49.186140 y79.156271 z-0.500000 i6.029242 j-1.968810
g03 x49.387336 y77.796779 z-0.500000 i2.573854 j-0.313721
g03 x50.386839 y77.747550 z-0.500000 i0.512081 j0.225704
g01 x50.386839 y77.747550 z-0.500000
g0 z2.000000

(end cutting path id: path12817)


(start cutting path id: path12817)
(change tool to cone cutter)

g0 z2.000000
g0 x54.474345 y82.572470

g01 z-0.500000 f100.0(penetrate)
g02 x51.708007 y86.046739 z-0.500000 i5.370730 j7.114832 f400.000000
g02 x51.284777 y88.602397 z-0.500000 i4.658890 j2.084409
g02 x52.140880 y89.239795 z-0.500000 i0.714673 j-0.066269
g02 x56.059969 y87.029170 z-0.500000 i-1.429877 j-7.114222
g02 x58.063468 y83.167461 z-0.500000 i-0.671335 j-2.798870
g02 x54.474345 y82.572470 z-0.500000 i-1.973901 j0.784326
g01 x54.474345 y82.572470 z-0.500000
g0 z2.000000

(end cutting path id: path12817)


(start cutting path id: path12817)
(change tool to cone cutter)

g0 z2.000000
g0 x49.434466 y85.874620

g01 z-0.500000 f100.0(penetrate)
g02 x49.992637 y86.237806 z-0.500000 i0.552486 j-0.238590 f400.000000
g02 x50.154764 y86.075132 z-0.500000 i-0.001546 j-0.163669
g02 x49.984894 y85.750927 z-0.500000 i-0.389789 j-0.002372
g02 x49.434466 y85.874620 z-0.500000 i-0.217563 j0.318388
g01 x49.434466 y85.874620 z-0.500000
g0 z2.000000

(end cutting path id: path12817)


(start cutting path id: path12817)
(change tool to cone cutter)

g0 z2.000000
g0 x44.643232 y91.318750

g01 z-0.500000 f100.0(penetrate)
g02 x45.460394 y95.484866 z-0.500000 i5.215439 j1.140218 f400.000000
g02 x48.856642 y99.611904 z-0.500000 i25.645680 j-17.643553
g02 x50.504787 y101.000219 z-0.500000 i8.014618 j-7.842131
g02 x50.794335 y100.918247 z-0.500000 i0.110870 j-0.160745
g02 x50.778948 y100.534466 z-0.500000 i-0.399615 j-0.176177
g02 x48.607666 y97.091970 z-0.500000 i-26.611512 j14.378658
g03 x47.999459 y96.541795 z-0.500000 i0.315284 j-0.959807
g02 x46.232082 y92.756701 z-0.500000 i-98.670254 j43.767035
g02 x45.152578 y91.114200 z-0.500000 i-7.062512 j3.465712
g02 x44.643232 y91.318750 z-0.500000 i-0.220234 j0.188032
g01 x44.643232 y91.318750 z-0.500000
g0 z2.000000

(end cutting path id: path12817)


(start cutting path id: path12817)
(change tool to cone cutter)

g0 z2.000000
g0 x41.426875 y86.016670

g01 z-0.500000 f100.0(penetrate)
g02 x42.210341 y87.613143 z-0.500000 i2.652545 j-0.311252 f400.000000
g02 x42.498406 y87.547064 z-0.500000 i0.122849 j-0.125389
g02 x42.512344 y86.655308 z-0.500000 i-1.298924 j-0.466288
g02 x41.426875 y86.016670 z-0.500000 i-0.902731 j0.292554
g01 x41.426875 y86.016670 z-0.500000
g0 z2.000000

(end cutting path id: path12817)


(start cutting path id: path12817)
(change tool to cone cutter)

g0 z2.000000
g0 x32.438764 y93.892870

g01 z-0.500000 f100.0(penetrate)
g03 x32.842403 y95.570503 z-0.500000 i-11.717590 j3.706629 f400.000000
g01 x32.772233 y95.614231 z-0.500000
g03 x32.557170 y95.371227 z-0.500000 i0.425203 j-0.592980
g03 x31.980380 y94.222956 z-0.500000 i16.230196 j-8.871619
g03 x31.485694 y93.042604 z-0.500000 i17.160894 j-7.885980
g03 x31.417719 y92.666638 z-0.500000 i0.975499 j-0.370496
g01 x31.498739 y92.636244 z-0.500000
g03 x32.438764 y93.892870 z-0.500000 i-7.290283 j6.433440
g01 x32.438764 y93.892870 z-0.500000
g0 z2.000000

(end cutting path id: path12817)


(start cutting path id: path12817)
(change tool to cone cutter)

g0 z2.000000
g0 x35.851457 y98.910490

g01 z-0.500000 f100.0(penetrate)
g02 x43.583126 y108.517315 z-0.500000 i26.617541 j-13.507389 f400.000000
g03 x47.694373 y120.231260 z-0.500000 i-7.536137 j9.223396
g02 x49.606906 y131.453082 z-0.500000 i19.994344 j2.366255
g03 x50.662072 y141.799250 z-0.500000 i-13.479571 j6.601620
g02 x47.257181 y127.649426 z-0.500000 i-102.186928 j17.104801
g03 x43.020193 y113.724550 z-0.500000 i627.378224 j-198.502399
g02 x41.883018 y111.060811 z-0.500000 i-6.485071 j1.193932
g03 x37.678595 y104.999793 z-0.500000 i162.278553 j-117.058596
g03 x34.999958 y100.106352 z-0.500000 i26.648235 j-17.766919
g03 x35.851457 y98.910490 z-0.500000 i0.782865 j-0.343651
g01 x35.851457 y98.910490 z-0.500000
g0 z2.000000

(end cutting path id: path12817)


(start cutting path id: path12817)
(change tool to cone cutter)

g0 z2.000000
g0 x30.266151 y101.713150

g01 z-0.500000 f100.0(penetrate)
g03 x33.302818 y103.743153 z-0.500000 i-1.382005 j5.353596 f400.000000
g03 x34.575237 y106.200763 z-0.500000 i-6.646950 j4.999637
g03 x34.167470 y106.657517 z-0.500000 i-0.338125 j0.108534
g03 x31.531538 y105.140760 z-0.500000 i0.934595 j-4.673044
g02 x29.364407 y103.493471 z-0.500000 i-134.513440 j174.713218
g03 x30.266151 y101.713150 z-0.500000 i0.608202 j-0.810471
g01 x30.266151 y101.713150 z-0.500000
g0 z2.000000

(end cutting path id: path12817)


(start cutting path id: path12817)
(change tool to cone cutter)

g0 z2.000000
g0 x15.802574 y99.230790

g01 z-0.500000 f100.0(penetrate)
g03 x14.016595 y100.467520 z-0.500000 i-2.099624 j-1.124154 f400.000000
g03 x13.597326 y100.097685 z-0.500000 i-0.048791 j-0.367260
g03 x14.069772 y99.102760 z-0.500000 i1.302901 j0.009055
g03 x15.802574 y99.230790 z-0.500000 i0.799698 j0.966797
g01 x15.802574 y99.230790 z-0.500000
g0 z2.000000

(end cutting path id: path12817)


(start cutting path id: path12817)
(change tool to cone cutter)

g0 z2.000000
g0 x20.249822 y99.356970

g01 z-0.500000 f100.0(penetrate)
g03 x28.524186 y106.046550 z-0.500000 i-0.924834 j9.606014 f400.000000
g03 x28.745464 y117.619940 z-0.500000 i-19.431292 j6.160328
g03 x24.332863 y112.455171 z-0.500000 i25.916577 j-26.609607
g03 x24.535538 y108.803650 z-0.500000 i2.401584 j-1.698087
g02 x23.840991 y107.183477 z-0.500000 i-3.467260 j0.527412
g03 x20.156035 y102.108999 z-0.500000 i80.118774 j-62.055391
g03 x18.814817 y99.998045 z-0.500000 i33.239871 j-22.600881
g03 x18.479620 y99.117418 z-0.500000 i2.379175 j-1.409704
g03 x18.717361 y98.853302 z-0.500000 i0.218307 j-0.042552
g03 x20.249822 y99.356970 z-0.500000 i-0.309078 j3.523572
g01 x20.249822 y99.356970 z-0.500000
g0 z2.000000

(end cutting path id: path12817)


(start cutting path id: path12817)
(change tool to cone cutter)

g0 z2.000000
g0 x49.495254 y102.732220

g01 z-0.500000 f100.0(penetrate)
g02 x50.315952 y102.976382 z-0.500000 i0.886607 j-1.478756 f400.000000
g02 x50.351091 y102.878091 z-0.500000 i0.002092 j-0.054679
g02 x49.654661 y102.496195 z-0.500000 i-1.639007 j2.162954
g02 x49.495254 y102.732220 z-0.500000 i-0.050912 j0.137458
g01 x49.495254 y102.732220 z-0.500000
g0 z2.000000

(end cutting path id: path12817)


(start cutting path id: path12817)
(change tool to cone cutter)

g0 z2.000000
g0 x51.836751 y104.240960

g01 z-0.500000 f100.0(penetrate)
g02 x53.915353 y105.929856 z-0.500000 i8.441988 j-8.266383 f400.000000
g02 x54.036358 y105.879485 z-0.500000 i0.042990 j-0.067256
g02 x53.967392 y105.669747 z-0.500000 i-0.213124 j-0.046128
g02 x51.836751 y104.240960 z-0.500000 i-6.464139 j7.336451
g01 x51.836751 y104.240960 z-0.500000
g0 z2.000000

(end cutting path id: path12817)


(start cutting path id: path12817)
(change tool to cone cutter)

g0 z2.000000
g0 x42.417018 y110.248140

g01 z-0.500000 f100.0(penetrate)
g02 x42.863817 y111.237906 z-0.500000 i1.361964 j-0.019086 f400.000000
g02 x43.086018 y111.185085 z-0.500000 i0.093006 j-0.102528
g02 x43.106966 y110.527385 z-0.500000 i-0.932826 j-0.358893
g02 x42.417018 y110.248140 z-0.500000 i-0.459784 j0.144045
g01 x42.417018 y110.248140 z-0.500000
g0 z2.000000

(end cutting path id: path12817)


(start cutting path id: path12817)
(change tool to cone cutter)

g0 z2.000000
g0 x30.224262 y134.754310

g01 z-0.500000 f100.0(penetrate)
g03 x30.862549 y134.894557 z-0.500000 i-1.618616 j8.889147 f400.000000
g01 x30.860998 y134.903894 z-0.500000
g03 x30.652609 y134.876828 z-0.500000 i0.153403 j-1.996841
g03 x30.224262 y134.754310 z-0.500000 i0.415779 j-2.263704
g01 x30.224262 y134.754310 z-0.500000
g0 z2.000000

(end cutting path id: path12817)


(start cutting path id: path12817)
(change tool to cone cutter)

g0 z2.000000
g0 x34.041064 y142.517690

g01 z-0.500000 f100.0(penetrate)
g02 x34.894841 y144.349885 z-0.500000 i1.941062 j0.210515 f400.000000
g02 x35.609595 y144.342879 z-0.500000 i0.352261 j-0.525396
g02 x35.759187 y143.758487 z-0.500000 i-0.265178 j-0.379222
g02 x34.041064 y142.517690 z-0.500000 i-2.033557 j1.005918
g01 x34.041064 y142.517690 z-0.500000
g0 z2.000000

(end cutting path id: path12817)


(start cutting path id: path12817)
(change tool to cone cutter)

g0 z2.000000
g0 x35.625394 y147.763520

g01 z-0.500000 f100.0(penetrate)
g02 x36.433791 y147.770096 z-0.500000 i0.410099 j-0.721992 f400.000000
g02 x36.525373 y147.541651 z-0.500000 i-0.092823 j-0.169792
g02 x36.305346 y147.375597 z-0.500000 i-0.227216 j0.072270
g02 x35.625394 y147.763520 z-0.500000 i-0.022629 j0.750207
g01 x35.625394 y147.763520 z-0.500000
g0 z2.000000

(end cutting path id: path12817)


(start cutting path id: path12817)
(change tool to cone cutter)

g0 z2.000000
g0 x45.303825 y139.423950

g01 z-0.500000 f100.0(penetrate)
g03 x45.087298 y139.331917 z-0.500000 i-0.089773 j-0.089521 f400.000000
g03 x45.176028 y138.842719 z-0.500000 i1.563820 j0.030999
g01 x45.246001 y138.842287 z-0.500000
g03 x45.303825 y139.423950 z-0.500000 i-1.099224 j0.402981
g01 x45.303825 y139.423950 z-0.500000
g0 z2.000000

(end cutting path id: path12817)


(start cutting path id: path12817)
(change tool to cone cutter)

g0 z2.000000
g0 x46.250455 y142.582460

g01 z-0.500000 f100.0(penetrate)
g02 x48.330429 y152.719775 z-0.500000 i77.809280 j-10.682866 f400.000000
g03 x47.689325 y157.760710 z-0.500000 i-6.369512 j1.751163
g02 x45.699988 y145.674404 z-0.500000 i-59.575540 j3.598924
g03 x45.892300 y140.990830 z-0.500000 i7.483861 j-2.038441
g01 x46.250455 y142.582460 z-0.500000
g0 z2.000000

(end cutting path id: path12817)


(start cutting path id: path12817)
(change tool to cone cutter)

g0 z2.000000
g0 x55.377647 y147.180680

g01 z-0.500000 f100.0(penetrate)
g03 x54.649875 y147.316082 z-0.500000 i-0.420442 j-0.236285 f400.000000
g03 x54.466510 y146.841267 z-0.500000 i0.331395 j-0.400792
g03 x54.739516 y146.617123 z-0.500000 i0.259107 j0.037259
g03 x55.377647 y147.180680 z-0.500000 i-0.036380 j0.684260
g01 x55.377647 y147.180680 z-0.500000
g0 z2.000000

(end cutting path id: path12817)


(start cutting path id: path12817)
(change tool to cone cutter)

g0 z2.000000
g0 x51.036016 y164.973210

g01 z-0.500000 f100.0(penetrate)
g03 x51.822627 y168.911728 z-0.500000 i-54.798568 j12.992320 f400.000000
g03 x51.764605 y169.090430 z-0.500000 i-0.202577 j0.032996
g03 x51.615193 y169.061655 z-0.500000 i-0.064882 j-0.065398
g03 x50.914437 y167.244964 z-0.500000 i21.955857 j-9.512570
g03 x50.336795 y165.368193 z-0.500000 i32.213539 j-10.942125
g03 x50.125059 y164.263620 z-0.500000 i6.754785 j-1.867408
g03 x50.292293 y164.162501 z-0.500000 i0.107097 j-0.011727
g03 x51.036016 y164.973210 z-0.500000 i-1.311678 j1.949789
g01 x51.036016 y164.973210 z-0.500000
g0 z2.000000

(end cutting path id: path12817)


(start cutting path id: path12817)
(change tool to cone cutter)

g0 z2.000000
g0 x39.024590 y168.101170

g01 z-0.500000 f100.0(penetrate)
g02 x41.411658 y171.162940 z-0.500000 i4.362551 j-0.939797 f400.000000
g02 x42.356756 y170.881855 z-0.500000 i0.320977 j-0.650176
g02 x42.309226 y169.587830 z-0.500000 i-1.031486 j-0.609998
g02 x39.024590 y168.101170 z-0.500000 i-2.887204 j2.007129
g01 x39.024590 y168.101170 z-0.500000
g0 z2.000000

(end cutting path id: path12817)


(start cutting path id: path12817)
(change tool to cone cutter)

g0 z2.000000
g0 x41.153965 y172.775160

g01 z-0.500000 f100.0(penetrate)
g02 x40.496311 y177.141634 z-0.500000 i2.843051 j2.660967 f400.000000
g02 x42.919523 y180.267756 z-0.500000 i8.689539 j-4.233452
g02 x44.399965 y181.090513 z-0.500000 i2.789717 j-3.276421
g02 x44.964307 y180.833278 z-0.500000 i0.140413 j-0.439616
g02 x44.992458 y180.068976 z-0.500000 i-0.972759 j-0.418498
g02 x43.182123 y176.218370 z-0.500000 i-18.859219 j6.515666
g03 x42.644155 y174.111226 z-0.500000 i1.020614 j-1.382815
g02 x41.890205 y172.380570 z-0.500000 i-1.143467 j-0.531410
g01 x41.153965 y172.775160 z-0.500000
g0 z2.000000

(end cutting path id: path12817)


(start cutting path id: path12817)
(change tool to cone cutter)

g0 z2.000000
g0 x60.821727 y203.047780

g01 z-0.500000 f100.0(penetrate)
g02 x60.607112 y207.440545 z-0.500000 i3.512763 j2.373246 f400.000000
g02 x62.807884 y209.929207 z-0.500000 i6.473998 j-3.507657
g02 x64.190989 y210.546392 z-0.500000 i2.218241 j-3.112703
g02 x64.694584 y210.294040 z-0.500000 i0.097289 j-0.434513
g02 x64.703168 y209.657980 z-0.500000 i-0.731506 j-0.327960
g02 x63.010047 y206.670170 z-0.500000 i-13.124744 j5.463848
g03 x61.660045 y203.865886 z-0.500000 i-0.015152 j-1.719798
g02 x60.821727 y203.047780 z-0.500000 i-0.456451 j-0.370840
g01 x60.821727 y203.047780 z-0.500000
g0 z2.000000

(end cutting path id: path12817)


(footer)
m5
g0 x105.658680 y208.806240

g01 z-0.500000 f100.0(penetrate)
g02 x102.740666 y210.332608 z-0.500000 i7.278972 j17.467895 f400.000000
g02 x98.597737 y213.239291 z-0.500000 i31.915803 j49.895791
g02 x97.178593 y214.480162 z-0.500000 i8.980069 j11.702171
g02 x97.216972 y214.686358 z-0.500000 i0.089481 j0.090015
g02 x97.534607 y214.694300 z-0.500000 i0.168495 j-0.383078
g02 x100.856310 y213.244230 z-0.500000 i-13.679736 j-35.866024
g03 x105.968876 y209.885587 z-0.500000 i9.211170 j8.450827
g02 x105.658680 y208.806240 z-0.500000 i-0.184379 j-0.531258
g01 x105.658680 y208.806240 z-0.500000
g0 z2.000000

(end cutting path id: path12817)


(start cutting path id: path12817)
(change tool to cone cutter)

g0 z2.000000
g0 x107.990090 y205.244880

g01 z-0.500000 f100.0(penetrate)
g02 x106.636235 y207.363139 z-0.500000 i11.782496 j9.022394 f400.000000
g02 x106.707881 y207.510461 z-0.500000 i0.090012 j0.047308
g02 x107.060844 y207.429900 z-0.500000 i0.082783 j-0.450805
g02 x108.302101 y206.413747 z-0.500000 i-8.507491 j-11.658312
g02 x109.423984 y205.277944 z-0.500000 i-10.798513 j-11.788129
g02 x109.740316 y204.732600 z-0.500000 i-1.162186 j-1.038555
g02 x109.613294 y204.594090 z-0.500000 i-0.101946 j-0.034008
g02 x107.990090 y205.244880 z-0.500000 i1.404289 j5.852283
g01 x107.990090 y205.244880 z-0.500000
g0 z2.000000

(end cutting path id: path12817)


(start cutting path id: path12817)
(change tool to cone cutter)

g0 z2.000000
g0 x114.097790 y193.002900

g01 z-0.500000 f100.0(penetrate)
g03 x113.281855 y194.514063 z-0.500000 i-4.985827 j-1.716180 f400.000000
g03 x113.120869 y194.463534 z-0.500000 i-0.071141 j-0.055061
g02 x112.776551 y194.077398 z-0.500000 i-0.411975 j0.020776
g02 x111.093040 y194.740930 z-0.500000 i-0.288539 j1.735383
g03 x111.835002 y192.760635 z-0.500000 i1.310965 j-0.637961
g03 x114.097790 y193.002900 z-0.500000 i0.913607 j2.155289
g01 x114.097790 y193.002900 z-0.500000
g0 z2.000000

(end cutting path id: path12817)


(start cutting path id: path12817)
(change tool to cone cutter)

g0 z2.000000
g0 x110.297740 y189.296310

g01 z-0.500000 f100.0(penetrate)
g02 x109.407536 y193.497693 z-0.500000 i367.359554 j80.032445 f400.000000
g02 x108.213380 y201.407810 z-0.500000 i73.606258 j15.157215
g03 x110.155658 y199.693121 z-0.500000 i18.727671 j19.255995
g03 x113.039354 y197.666874 z-0.500000 i17.632913 j22.029525
g03 x114.332023 y197.004889 z-0.500000 i4.951665 j8.076099
g03 x114.709553 y197.026173 z-0.500000 i0.166896 j0.398565
g03 x114.801562 y197.272962 z-0.500000 i-0.099092 j0.177490
g03 x113.978790 y198.874700 z-0.500000 i-6.701401 j-2.430153
g02 x111.623348 y200.415985 z-0.500000 i4.711309 j9.770454
g02 x110.151501 y201.968801 z-0.500000 i6.803873 j7.923049
g02 x110.316788 y202.259452 z-0.500000 i0.143693 j0.110608
g02 x112.583150 y201.464530 z-0.500000 i-0.661266 j-5.513523
g03 x104.586869 y211.830806 z-0.500000 i-29.716148 j-14.655077
g03 x92.127830 y216.547210 z-0.500000 i-12.630160 j-14.549983
g03 x100.423651 y208.745575 z-0.500000 i26.512317 j19.880238
g02 x107.805250 y197.200470 z-0.500000 i-9.238837 j-14.039380
g02 x108.296718 y192.414749 z-0.500000 i-2.895122 j-2.715410
g03 x110.297740 y189.296310 z-0.500000 i1.756760 j-1.073954
g01 x110.297740 y189.296310 z-0.500000
g0 z2.000000

(end cutting path id: path12817)


(start cutting path id: path12817)
(change tool to cone cutter)

g0 z2.000000
g0 x114.097040 y180.762680

g01 z-0.500000 f100.0(penetrate)
g03 x116.163069 y183.770751 z-0.500000 i-1.532147 j3.265861 f400.000000
g03 x115.600656 y185.724761 z-0.500000 i-2.943069 j0.210855
g03 x114.609429 y185.983019 z-0.500000 i-0.654029 j-0.478890
g03 x113.675280 y184.208260 z-0.500000 i0.682772 j-1.492604
g02 x113.923757 y183.091057 z-0.500000 i-0.481127 j-0.693241
g03 x112.668426 y180.845730 z-0.500000 i66.984300 j-38.923562
g03 x112.835474 y180.484337 z-0.500000 i0.219364 j-0.117907
g03 x114.097040 y180.762680 z-0.500000 i0.326364 j1.518923
g01 x114.097040 y180.762680 z-0.500000
g0 z2.000000

(end cutting path id: path12817)


(start cutting path id: path12817)
(change tool to cone cutter)

g0 z2.000000
g0 x118.299880 y177.632440

g01 z-0.500000 f100.0(penetrate)
g03 x117.809950 y177.675083 z-0.500000 i-0.258499 j-0.134174 f400.000000
g03 x117.646244 y177.182691 z-0.500000 i0.633564 j-0.484052
g03 x117.796056 y177.081406 z-0.500000 i0.109922 j0.001150
g03 x118.299880 y177.632440 z-0.500000 i-0.305904 j0.785542
g01 x118.299880 y177.632440 z-0.500000
g0 z2.000000

(end cutting path id: path12817)


(start cutting path id: path12817)
(change tool to cone cutter)

g0 z2.000000
g0 x109.282220 y169.277420

g01 z-0.500000 f100.0(penetrate)
g02 x110.371077 y172.560580 z-0.500000 i17.708308 j-4.050803 f400.000000
g02 x110.802713 y173.040802 z-0.500000 i0.948755 j-0.418674
g02 x111.262985 y172.923776 z-0.500000 i0.169916 j-0.295362
g02 x111.652263 y171.817862 z-0.500000 i-2.370187 j-1.455765
g02 x111.444739 y168.873185 z-0.500000 i-7.501154 j-0.951015
g02 x109.189320 y167.300610 z-0.500000 i-2.070565 j0.565974
g01 x109.282220 y169.277420 z-0.500000
g0 z2.000000

(end cutting path id: path12817)


(start cutting path id: path12817)
(change tool to cone cutter)

g0 z2.000000
g0 x90.227265 y175.346200

g01 z-0.500000 f100.0(penetrate)
g03 x87.401001 y176.950964 z-0.500000 i-2.833391 j-1.698937 f400.000000
g03 x84.355433 y176.470591 z-0.500000 i-0.021059 j-9.761131
g03 x84.297458 y175.959493 z-0.500000 i0.087590 j-0.268773
g03 x87.684956 y175.044420 z-0.500000 i3.302440 j5.497657
g01 x89.295556 y175.135720 z-0.500000
g01 x90.227265 y175.346200 z-0.500000
g0 z2.000000

(end cutting path id: path12817)


(start cutting path id: path12817)
(change tool to cone cutter)

g0 z2.000000
g0 x87.274241 y180.438210

g01 z-0.500000 f100.0(penetrate)
g02 x88.983395 y182.300699 z-0.500000 i1.710561 j0.145732 f400.000000
g02 x91.975515 y181.597126 z-0.500000 i0.005485 j-6.690835
g02 x93.236572 y180.682159 z-0.500000 i-2.117568 j-4.245056
g02 x93.351962 y180.060425 z-0.500000 i-0.401948 j-0.396174
g02 x92.887659 y179.676114 z-0.500000 i-0.612099 j0.266875
g02 x89.659011 y179.386900 z-0.500000 i-2.688284 j11.844575
g01 x88.157358 y179.589700 z-0.500000
g01 x87.274241 y180.438210 z-0.500000
g0 z2.000000

(end cutting path id: path12817)


(start cutting path id: path12817)
(change tool to cone cutter)

g0 z2.000000
g0 x80.747653 y185.247320

g01 z-0.500000 f100.0(penetrate)
g02 x83.706185 y186.539188 z-0.500000 i3.710879 j-4.464728 f400.000000
g02 x85.793285 y186.461435 z-0.500000 i0.813197 j-6.222193
g02 x85.909564 y186.034502 z-0.500000 i-0.050385 j-0.243024
g02 x83.409723 y184.762010 z-0.500000 i-3.590664 j3.962202
g03 x83.285179 y184.907605 z-0.500000 i-0.099021 j0.041362
g02 x81.571968 y184.582824 z-0.500000 i-3.929895 j16.049096
g02 x80.837774 y184.702942 z-0.500000 i-0.170670 j1.260678
g02 x80.747653 y185.247320 z-0.500000 i0.150476 j0.304560
g01 x80.747653 y185.247320 z-0.500000
g0 z2.000000

(end cutting path id: path12817)


(start cutting path id: path12817)
(change tool to cone cutter)

g0 z2.000000
g0 x82.666052 y180.965720

g01 z-0.500000 f100.0(penetrate)
g02 x84.046925 y182.088555 z-0.500000 i2.371764 j-1.506296 f400.000000
g02 x84.280173 y181.933014 z-0.500000 i0.060839 j-0.161425
g02 x84.044148 y181.316743 z-0.500000 i-0.847080 j-0.028910
g02 x82.666052 y180.965720 z-0.500000 i-0.971652 j0.933975
g01 x82.666052 y180.965720 z-0.500000
g0 z2.000000

(end cutting path id: path12817)


(start cutting path id: path12817)
(change tool to cone cutter)

g0 z2.000000
g0 x83.667002 y179.386900

g01 z-0.500000 f100.0(penetrate)
g02 x84.067624 y179.499714 z-0.500000 i0.291964 j-0.269069 f400.000000
g02 x84.121388 y179.382205 z-0.500000 i-0.023243 j-0.081688
g02 x83.918939 y179.202161 z-0.500000 i-0.309192 j0.143826
g02 x83.667002 y179.386900 z-0.500000 i-0.060066 j0.182245
g01 x83.667002 y179.386900 z-0.500000
g0 z2.000000

(end cutting path id: path12817)


(start cutting path id: path12817)
(change tool to cone cutter)

g0 z2.000000
g0 x84.313054 y178.210100

g01 z-0.500000 f100.0(penetrate)
g02 x88.907764 y179.533969 z-0.500000 i2.893356 j-1.406585 f400.000000
g03 x95.360460 y180.434950 z-0.500000 i2.687107 j4.312459
g03 x93.337685 y182.906971 z-0.500000 i-3.091457 j-0.466043
g03 x89.971551 y184.073886 z-0.500000 i-40.165442 j-110.424473
g02 x88.535213 y184.653560 z-0.500000 i3.731289 j11.314878
g02 x88.317899 y185.054159 z-0.500000 i0.168896 j0.350864
g02 x88.572275 y185.427102 z-0.500000 i0.493809 j-0.063592
g02 x91.228130 y186.599860 z-0.500000 i8.141023 j-14.842720
g03 x91.189623 y187.285723 z-0.500000 i-0.122888 j0.337113
g03 x88.576736 y187.515005 z-0.500000 i-2.065677 j-8.537540
g03 x82.599292 y186.916601 z-0.500000 i4.998943 j-80.087791
g03 x80.500808 y186.300630 z-0.500000 i1.012378 j-7.331492
g03 x78.551831 y184.281695 z-0.500000 i0.405035 j-2.341188
g03 x79.072413 y181.122336 z-0.500000 i5.378624 j-0.736308
g03 x81.429785 y178.370771 z-0.500000 i6.664313 j3.323966
g03 x84.313054 y178.210100 z-0.500000 i1.569486 j2.213975
g01 x84.313054 y178.210100 z-0.500000
g0 z2.000000

(end cutting path id: path12817)


(start cutting path id: path12817)
(change tool to cone cutter)

g0 z2.000000
g0 x80.664156 y157.365990

g01 z-0.500000 f100.0(penetrate)
g03 x83.753743 y159.237363 z-0.500000 i-0.128776 j3.698706 f400.000000
g02 x85.674453 y162.436031 z-0.500000 i66.568009 j-37.796213
g02 x87.502152 y163.489172 z-0.500000 i1.918142 j-1.216354
g02 x91.658793 y161.689740 z-0.500000 i0.208029 j-5.220042
g03 x94.614629 y160.417340 z-0.500000 i2.868577 j2.594358
g03 x95.187197 y161.089955 z-0.500000 i-0.013345 j0.591369
g03 x94.276946 y162.863007 z-0.500000 i-2.989411 j-0.414528
g03 x90.423270 y164.126740 z-0.500000 i-3.258232 j-3.428136
g03 x87.299334 y166.014603 z-0.500000 i-11.744804 j-15.906092
g03 x85.535208 y166.340051 z-0.500000 i-1.472954 j-3.040260
g03 x84.417841 y165.597199 z-0.500000 i0.120514 j-1.393047
g03 x83.763127 y162.585020 z-0.500000 i5.122709 j-2.690691
g02 x80.289350 y161.180524 z-0.500000 i-5.860720 j9.497337
g03 x75.870663 y159.917425 z-0.500000 i7.820898 j-35.720227
g03 x74.361551 y159.173364 z-0.500000 i2.417288 j-6.805198
g03 x74.229318 y158.701585 z-0.500000 i0.201378 j-0.310865
g03 x74.667529 y158.304671 z-0.500000 i0.708310 j0.341647
g03 x78.061681 y157.365990 z-0.500000 i7.494038 j20.491750
g01 x79.686595 y156.565230 z-0.500000
g01 x80.664156 y157.365990 z-0.500000
g0 z2.000000

(end cutting path id: path12817)


(start cutting path id: path12817)
(change tool to cone cutter)

g0 z2.000000
g0 x78.805637 y148.939680

g01 z-0.500000 f100.0(penetrate)
g02 x74.645405 y150.923905 z-0.500000 i1.734441 j8.989917 f400.000000
g02 x72.579916 y153.571999 z-0.500000 i5.213324 j6.195923
g02 x73.030781 y154.710075 z-0.500000 i0.745087 j0.363170
g02 x77.340508 y154.683600 z-0.500000 i2.120634 j-5.585216
g03 x80.890066 y154.908480 z-0.500000 i0.922971 j13.557554
g02 x86.190087 y155.734462 z-0.500000 i12.992188 j-65.948925
g02 x88.173091 y155.825461 z-0.500000 i1.651467 j-14.336211
g02 x88.366041 y155.584275 z-0.500000 i-0.004630 j-0.201477
g02 x88.130543 y155.249059 z-0.500000 i-0.499114 j0.100311
g02 x84.727478 y153.438600 z-0.500000 i-18.033644 j29.793742
g02 x81.059152 y152.605804 z-0.500000 i-3.906002 j8.709706
g03 x76.869007 y152.399234 z-0.500000 i2.144518 j-86.100616
g03 x75.436996 y152.189017 z-0.500000 i0.738457 j-10.013017
g03 x75.381937 y151.985802 z-0.500000 i0.025690 j-0.116027
g03 x75.785557 y151.753917 z-0.500000 i0.706984 j0.763366
g03 x79.310152 y150.805940 z-0.500000 i16.067339 j52.712397
g02 x83.237122 y151.536056 z-0.500000 i3.175943 j-6.156216
g02 x83.594160 y150.938271 z-0.500000 i-0.047307 j-0.433771
g02 x82.473117 y149.618379 z-0.500000 i-2.560245 j1.038507
g02 x78.805637 y148.939680 z-0.500000 i-2.721992 j4.460488
g01 x78.805637 y148.939680 z-0.500000
g0 z2.000000

(end cutting path id: path12817)


(start cutting path id: path12817)
(change tool to cone cutter)

g0 z2.000000
g0 x99.309840 y144.108200

g01 z-0.500000 f100.0(penetrate)
g02 x100.336192 y146.043433 z-0.500000 i3.276885 j-0.498119 f400.000000
g02 x100.685528 y145.953586 z-0.500000 i0.145704 j-0.157540
g02 x100.672372 y144.881567 z-0.500000 i-1.555231 j-0.517004
g02 x99.309840 y144.108200 z-0.500000 i-1.131997 j0.407421
g01 x99.309840 y144.108200 z-0.500000
g0 z2.000000

(end cutting path id: path12817)


(start cutting path id: path12817)
(change tool to cone cutter)

g0 z2.000000
g0 x106.716980 y138.247960

g01 z-0.500000 f100.0(penetrate)
g02 x107.424681 y139.490732 z-0.500000 i1.914721 j-0.267457 f400.000000
g02 x107.677771 y139.390019 z-0.500000 i0.097860 j-0.122442
g02 x107.542779 y138.359783 z-0.500000 i-1.933382 j-0.270630
g02 x106.716980 y138.247960 z-0.500000 i-0.445979 j0.188373
g01 x106.716980 y138.247960 z-0.500000
g0 z2.000000

(end cutting path id: path12817)


(start cutting path id: path12817)
(change tool to cone cutter)

g0 z2.000000
g0 x113.895670 y140.950520

g01 z-0.500000 f100.0(penetrate)
g02 x114.507679 y141.159577 z-0.500000 i0.451568 j-0.321604 f400.000000
g02 x114.662875 y140.950520 z-0.500000 i-0.063207 j-0.209057
g02 x114.507679 y140.741463 z-0.500000 i-0.218403 j0.000000
g02 x113.895670 y140.950520 z-0.500000 i-0.160441 j0.530661
g01 x113.895670 y140.950520 z-0.500000
g0 z2.000000

(end cutting path id: path12817)


(start cutting path id: path12817)
(change tool to cone cutter)

g0 z2.000000
g0 x135.516240 y127.875990

g01 z-0.500000 f100.0(penetrate)
g03 x134.080764 y129.253137 z-0.500000 i-7.658372 j-6.546031 f400.000000
g01 x134.012130 y129.215122 z-0.500000
g03 x134.115105 y128.992261 z-0.500000 i0.380862 j0.040759
g03 x135.516240 y127.875990 z-0.500000 i4.689481 j4.448718
g01 x135.516240 y127.875990 z-0.500000
g0 z2.000000

(end cutting path id: path12817)


(start cutting path id: path12817)
(change tool to cone cutter)

g0 z2.000000
g0 x164.651060 y93.305170

g01 z-0.500000 f100.0(penetrate)
g03 x162.514534 y94.090545 z-0.500000 i-2.577502 j-3.713032 f400.000000
g03 x162.382201 y93.857193 z-0.500000 i-0.014320 j-0.146078
g03 x163.438294 y92.917509 z-0.500000 i2.766522 j2.045939
g03 x164.651060 y93.305170 z-0.500000 i0.428984 j0.748809
g01 x164.651060 y93.305170 z-0.500000
g0 z2.000000

(end cutting path id: path12817)


(start cutting path id: path12817)
(change tool to cone cutter)

g0 z2.000000
g0 x160.434870 y79.757430

g01 z-0.500000 f100.0(penetrate)
g02 x160.424698 y80.869568 z-0.500000 i1.067161 j0.565876 f400.000000
g02 x160.705680 y80.914714 z-0.500000 i0.156900 j-0.079556
g02 x161.027810 y80.228335 z-0.500000 i-0.781773 j-0.785680
g02 x160.434870 y79.757430 z-0.500000 i-0.451227 j-0.040590
g01 x160.434870 y79.757430 z-0.500000
g0 z2.000000

(end cutting path id: path12817)


(start cutting path id: path12817)
(change tool to cone cutter)

g0 z2.000000
g0 x148.328370 y74.487410

g01 z-0.500000 f100.0(penetrate)
g02 x148.940391 y74.696470 z-0.500000 i0.451577 j-0.321612 f400.000000
g02 x149.095590 y74.487410 z-0.500000 i-0.063208 j-0.209060
g02 x148.940391 y74.278350 z-0.500000 i-0.218407 j0.000000
g02 x148.328370 y74.487410 z-0.500000 i-0.160444 j0.530673
g01 x148.328370 y74.487410 z-0.500000
g0 z2.000000

(end cutting path id: path12817)


(start cutting path id: path12817)
(change tool to cone cutter)

g0 z2.000000
g0 x170.622800 y64.152510

g01 z-0.500000 f100.0(penetrate)
g03 x170.406293 y64.060487 z-0.500000 i-0.089767 j-0.089507 f400.000000
g03 x170.495030 y63.571283 z-0.500000 i1.563998 j0.031045
g01 x170.564996 y63.570852 z-0.500000
g03 x170.622800 y64.152510 z-0.500000 i-1.099314 j0.402948
g01 x170.622800 y64.152510 z-0.500000
g0 z2.000000

(end cutting path id: path12817)


(start cutting path id: path12817)
(change tool to cone cutter)

g0 z2.000000
g0 x162.742060 y51.265380

g01 z-0.500000 f100.0(penetrate)
g02 x163.354102 y51.474406 z-0.500000 i0.451570 j-0.321665 f400.000000
g02 x163.509280 y51.265346 z-0.500000 i-0.063210 j-0.209040
g02 x163.354062 y51.056289 z-0.500000 i-0.218421 j0.000020
g02 x162.742060 y51.265380 z-0.500000 i-0.160418 j0.530663
g01 x162.742060 y51.265380 z-0.500000
g0 z2.000000

(end cutting path id: path12817)


(start cutting path id: path12817)
(change tool to cone cutter)

g0 z2.000000
g0 x164.343580 y51.441930

g01 z-0.500000 f100.0(penetrate)
g02 x164.815601 y51.840317 z-0.500000 i0.533112 j-0.152822 f400.000000
g02 x164.967906 y51.697057 z-0.500000 i0.015129 j-0.136506
g02 x164.776670 y51.304355 z-0.500000 i-0.554918 j0.027316
g02 x164.343580 y51.441930 z-0.500000 i-0.174411 j0.201428
g01 x164.343580 y51.441930 z-0.500000
g0 z2.000000

(end cutting path id: path12817)


(start cutting path id: path12817)
(change tool to cone cutter)

g0 z2.000000
g0 x172.351150 y43.481480

g01 z-0.500000 f100.0(penetrate)
g03 x169.680628 y52.454467 z-0.500000 i-15.519153 j0.265114 f400.000000
g02 x172.461630 y56.760350 z-0.500000 i2.305105 j1.562234
g02 x173.295307 y41.489621 z-0.500000 i-1278.541511 j-77.457683
g02 x172.409930 y39.930200 z-0.500000 i-1.672787 j-0.081310
g01 x172.366930 y41.529060 z-0.500000
g01 x172.351150 y43.481480 z-0.500000
g0 z2.000000

(end cutting path id: path12817)


(start cutting path id: path12817)
(change tool to cone cutter)

g0 z2.000000
