%
(Header)
(Generated by gcodetools from Inkscape.)
(Using default header. To add your own header create file "header" in the output dir.)
M3
(Header end.)
G21 (All units in mm)

(Start cutting path id: path745)
(Change tool to Default tool)

G00 Z2.000000
G00 X30.184821 Y51.185700

G01 Z-1.000000 F100.0(Penetrate)
G01 X10.434821 Y51.185700 Z-1.000000 F400.000000
G00 Z2.000000

(End cutting path id: path745)


(Start cutting path id: path43)
(Change tool to Default tool)

G00 Z2.000000
G00 X30.184821 Y15.269150

G01 Z-1.000000 F100.0(Penetrate)
G01 X10.434821 Y15.269150 Z-1.000000 F400.000000
G01 X10.434821 Y51.185700 Z-1.000000
G00 Z2.000000

(Change tool to Default tool)

G00 Z2.000000
G00 X30.184821 Y85.352110

G01 Z-1.000000 F100.0(Penetrate)
G01 X10.434821 Y85.352110 Z-1.000000 F400.000000
G01 X10.434821 Y72.782110 Z-1.000000
G01 X24.434821 Y72.782110 Z-1.000000
G01 X24.434821 Y62.862110 Z-1.000000
G01 X10.434821 Y62.862110 Z-1.000000
G01 X10.434821 Y51.185700 Z-1.000000
G00 Z2.000000

(End cutting path id: path43)


(Start cutting path id: path733)
(Change tool to Default tool)

G00 Z2.000000
G00 X50.078090 Y20.199570

G01 Z-1.000000 F100.0(Penetrate)
G01 X48.358090 Y20.199570 Z-1.000000 F400.000000
G01 X48.358090 Y18.479570 Z-1.000000
G01 X50.078090 Y18.479570 Z-1.000000
G01 X50.078090 Y20.199570 Z-1.000000
G00 Z2.000000

(End cutting path id: path733)


(Start cutting path id: path731)
(Change tool to Default tool)

G00 Z2.000000
G00 X50.078090 Y23.819570

G01 Z-1.000000 F100.0(Penetrate)
G01 X48.358090 Y23.819570 Z-1.000000 F400.000000
G01 X48.358090 Y22.099570 Z-1.000000
G01 X50.078090 Y22.099570 Z-1.000000
G01 X50.078090 Y23.819570 Z-1.000000
G00 Z2.000000

(End cutting path id: path731)


(Start cutting path id: path729)
(Change tool to Default tool)

G00 Z2.000000
G00 X50.078090 Y27.439570

G01 Z-1.000000 F100.0(Penetrate)
G01 X48.358090 Y27.439570 Z-1.000000 F400.000000
G01 X48.358090 Y25.719570 Z-1.000000
G01 X50.078090 Y25.719570 Z-1.000000
G01 X50.078090 Y27.439570 Z-1.000000
G00 Z2.000000

(End cutting path id: path729)


(Start cutting path id: path727)
(Change tool to Default tool)

G00 Z2.000000
G00 X46.458090 Y20.199570

G01 Z-1.000000 F100.0(Penetrate)
G01 X44.738090 Y20.199570 Z-1.000000 F400.000000
G01 X44.738090 Y18.479570 Z-1.000000
G01 X46.458090 Y18.479570 Z-1.000000
G01 X46.458090 Y20.199570 Z-1.000000
G00 Z2.000000

(End cutting path id: path727)


(Start cutting path id: path725)
(Change tool to Default tool)

G00 Z2.000000
G00 X46.458090 Y23.819570

G01 Z-1.000000 F100.0(Penetrate)
G01 X44.738090 Y23.819570 Z-1.000000 F400.000000
G01 X44.738090 Y22.099570 Z-1.000000
G01 X46.458090 Y22.099570 Z-1.000000
G01 X46.458090 Y23.819570 Z-1.000000
G00 Z2.000000

(End cutting path id: path725)


(Start cutting path id: path723)
(Change tool to Default tool)

G00 Z2.000000
G00 X46.458090 Y27.439570

G01 Z-1.000000 F100.0(Penetrate)
G01 X44.738090 Y27.439570 Z-1.000000 F400.000000
G01 X44.738090 Y25.719570 Z-1.000000
G01 X46.458090 Y25.719570 Z-1.000000
G01 X46.458090 Y27.439570 Z-1.000000
G00 Z2.000000

(End cutting path id: path723)


(Start cutting path id: path721)
(Change tool to Default tool)

G00 Z2.000000
G00 X42.838090 Y20.199570

G01 Z-1.000000 F100.0(Penetrate)
G01 X41.118090 Y20.199570 Z-1.000000 F400.000000
G01 X41.118090 Y18.479570 Z-1.000000
G01 X42.838090 Y18.479570 Z-1.000000
G01 X42.838090 Y20.199570 Z-1.000000
G00 Z2.000000

(End cutting path id: path721)


(Start cutting path id: path719)
(Change tool to Default tool)

G00 Z2.000000
G00 X42.838090 Y23.819570

G01 Z-1.000000 F100.0(Penetrate)
G01 X41.118090 Y23.819570 Z-1.000000 F400.000000
G01 X41.118090 Y22.099570 Z-1.000000
G01 X42.838090 Y22.099570 Z-1.000000
G01 X42.838090 Y23.819570 Z-1.000000
G00 Z2.000000

(End cutting path id: path719)


(Start cutting path id: path717)
(Change tool to Default tool)

G00 Z2.000000
G00 X42.838090 Y27.439570

G01 Z-1.000000 F100.0(Penetrate)
G01 X41.118090 Y27.439570 Z-1.000000 F400.000000
G01 X41.118090 Y25.719570 Z-1.000000
G01 X42.838090 Y25.719570 Z-1.000000
G01 X42.838090 Y27.439570 Z-1.000000
G00 Z2.000000

(End cutting path id: path717)


(Start cutting path id: path715)
(Change tool to Default tool)

G00 Z2.000000
G00 X39.218090 Y27.439570

G01 Z-1.000000 F100.0(Penetrate)
G01 X37.498090 Y27.439570 Z-1.000000 F400.000000
G01 X37.498090 Y25.719570 Z-1.000000
G01 X39.218090 Y25.719570 Z-1.000000
G01 X39.218090 Y27.439570 Z-1.000000
G00 Z2.000000

(End cutting path id: path715)


(Start cutting path id: path713)
(Change tool to Default tool)

G00 Z2.000000
G00 X39.218090 Y23.819570

G01 Z-1.000000 F100.0(Penetrate)
G01 X37.498090 Y23.819570 Z-1.000000 F400.000000
G01 X37.498090 Y22.099570 Z-1.000000
G01 X39.218090 Y22.099570 Z-1.000000
G01 X39.218090 Y23.819570 Z-1.000000
G00 Z2.000000

(End cutting path id: path713)


(Start cutting path id: path711)
(Change tool to Default tool)

G00 Z2.000000
G00 X39.218090 Y20.199570

G01 Z-1.000000 F100.0(Penetrate)
G01 X37.498090 Y20.199570 Z-1.000000 F400.000000
G01 X37.498090 Y18.479570 Z-1.000000
G01 X39.218090 Y18.479570 Z-1.000000
G01 X39.218090 Y20.199570 Z-1.000000
G00 Z2.000000

(End cutting path id: path711)


(Start cutting path id: path707)
(Change tool to Default tool)

G00 Z2.000000
G00 X60.835995 Y92.515120

G01 Z-1.000000 F100.0(Penetrate)
G01 X34.545465 Y92.513120 Z-1.000000 F400.000000
G01 X34.547465 Y52.596610 Z-1.000000
G01 X60.837995 Y52.596750 Z-1.000000
G01 X60.835995 Y92.515120 Z-1.000000
G00 Z2.000000

(End cutting path id: path707)


(Start cutting path id: path23)
(Change tool to Default tool)

G00 Z2.000000
G00 X18.144821 Y85.352110

G01 Z-1.000000 F100.0(Penetrate)
G01 X21.144821 Y85.352110 Z-1.000000 F400.000000
G01 X21.144821 Y15.269150 Z-1.000000
G01 X18.144821 Y15.269150 Z-1.000000
G01 X18.144821 Y85.352110 Z-1.000000
G00 Z2.000000

(End cutting path id: path23)


(Start cutting path id: path701)
(Change tool to Default tool)

G00 Z2.000000
G00 X30.184821 Y15.269150

G01 Z-1.000000 F100.0(Penetrate)
G01 X30.184821 Y51.185700 Z-1.000000 F400.000000
G00 Z2.000000

(End cutting path id: path701)


(Start cutting path id: path699)
(Change tool to Default tool)

G00 Z2.000000
G00 X30.184821 Y51.185700

G01 Z-1.000000 F100.0(Penetrate)
G01 X30.184821 Y85.352110 Z-1.000000 F400.000000
G00 Z2.000000

(End cutting path id: path699)


(Start cutting path id: path697)
(Change tool to Default tool)

G00 Z2.000000
G00 X70.413278 Y49.647520

G01 Z-1.000000 F100.0(Penetrate)
G01 X34.496719 Y49.645520 Z-1.000000 F400.000000
G01 X34.498219 Y15.479110 Z-1.000000
G01 X70.414778 Y15.481110 Z-1.000000
G01 X70.413278 Y49.647520 Z-1.000000
G00 Z2.000000

(End cutting path id: path697)


(Footer)
M5
G00 X0.0000 Y0.0000
M2
(Using default footer. To add your own footer create file "footer" in the output dir.)
(end)
%