%
(Header)
(Generated by gcodetools from Inkscape.)
(Using default header. To add your own header create file "header" in the output dir.)
M3
(Header end.)
G21 (All units in mm)

(Start cutting path id: path16025)
(Change tool to Cylindrical cutter)

G00 Z2.000000
G00 X2.606523 Y216.911140

G01 Z-3.000000 F100.0(Penetrate)
G01 X2.607483 Y203.414370 Z-3.000000 F500.000000
G00 Z2.000000

(End cutting path id: path16025)


(Start cutting path id: path16025)
(Change tool to Cylindrical cutter)

G00 Z2.000000
G00 X16.784213 Y280.845613

G01 Z-3.000000 F100.0(Penetrate)
G01 X16.785213 Y267.262293 Z-3.000000 F500.000000
G00 Z2.000000

(End cutting path id: path16025)


(Start cutting path id: path16025)
(Change tool to Cylindrical cutter)

G00 Z2.000000
G00 X-37.997806 Y265.907737

G01 Z-3.000000 F100.0(Penetrate)
G01 X-37.998806 Y280.840970 Z-3.000000 F500.000000
G00 Z2.000000

(End cutting path id: path16025)


(Start cutting path id: path16025)
(Change tool to Cylindrical cutter)

G00 Z2.000000
G00 X-7.641837 Y215.385280

G01 Z-3.000000 F100.0(Penetrate)
G01 X-9.361837 Y215.385210 Z-3.000000 F500.000000
G01 X-9.361767 Y213.665210 Z-3.000000
G01 X-7.641767 Y213.665280 Z-3.000000
G01 X-7.641837 Y215.385280 Z-3.000000
G00 Z2.000000

(End cutting path id: path16025)


(Start cutting path id: path16025)
(Change tool to Cylindrical cutter)

G00 Z2.000000
G00 X-4.021767 Y213.665430

G01 Z-3.000000 F100.0(Penetrate)
G01 X-4.021837 Y215.385430 Z-3.000000 F500.000000
G01 X-5.741837 Y215.385360 Z-3.000000
G01 X-5.741767 Y213.665360 Z-3.000000
G01 X-4.021767 Y213.665430 Z-3.000000
G00 Z2.000000

(End cutting path id: path16025)


(Start cutting path id: path16025)
(Change tool to Cylindrical cutter)

G00 Z2.000000
G00 X-0.401767 Y213.665580

G01 Z-3.000000 F100.0(Penetrate)
G01 X-0.401837 Y215.385580 Z-3.000000 F500.000000
G01 X-2.121837 Y215.385510 Z-3.000000
G01 X-2.121767 Y213.665510 Z-3.000000
G01 X-0.401767 Y213.665580 Z-3.000000
G00 Z2.000000

(End cutting path id: path16025)


(Start cutting path id: path16025)
(Change tool to Cylindrical cutter)

G00 Z2.000000
G00 X-2.121607 Y210.045510

G01 Z-3.000000 F100.0(Penetrate)
G01 X-0.401607 Y210.045580 Z-3.000000 F500.000000
G01 X-0.401677 Y211.765580 Z-3.000000
G01 X-2.121677 Y211.765510 Z-3.000000
G01 X-2.121607 Y210.045510 Z-3.000000
G00 Z2.000000

(End cutting path id: path16025)


(Start cutting path id: path16025)
(Change tool to Cylindrical cutter)

G00 Z2.000000
G00 X-4.021677 Y211.765430

G01 Z-3.000000 F100.0(Penetrate)
G01 X-5.741677 Y211.765360 Z-3.000000 F500.000000
G01 X-5.741607 Y210.045360 Z-3.000000
G01 X-4.021607 Y210.045430 Z-3.000000
G01 X-4.021677 Y211.765430 Z-3.000000
G00 Z2.000000

(End cutting path id: path16025)


(Start cutting path id: path16025)
(Change tool to Cylindrical cutter)

G00 Z2.000000
G00 X-7.641677 Y211.765280

G01 Z-3.000000 F100.0(Penetrate)
G01 X-9.361677 Y211.765210 Z-3.000000 F500.000000
G01 X-9.361607 Y210.045210 Z-3.000000
G01 X-7.641607 Y210.045280 Z-3.000000
G01 X-7.641677 Y211.765280 Z-3.000000
G00 Z2.000000

(End cutting path id: path16025)


(Start cutting path id: path16025)
(Change tool to Cylindrical cutter)

G00 Z2.000000
G00 X-2.121527 Y208.145510

G01 Z-3.000000 F100.0(Penetrate)
G01 X-2.121457 Y206.425510 Z-3.000000 F500.000000
G01 X-0.401457 Y206.425580 Z-3.000000
G01 X-0.401527 Y208.145580 Z-3.000000
G01 X-2.121527 Y208.145510 Z-3.000000
G00 Z2.000000

(End cutting path id: path16025)


(Start cutting path id: path16025)
(Change tool to Cylindrical cutter)

G00 Z2.000000
G00 X-4.021527 Y208.145430

G01 Z-3.000000 F100.0(Penetrate)
G01 X-5.741527 Y208.145360 Z-3.000000 F500.000000
G01 X-5.741457 Y206.425360 Z-3.000000
G01 X-4.021457 Y206.425430 Z-3.000000
G01 X-4.021527 Y208.145430 Z-3.000000
G00 Z2.000000

(End cutting path id: path16025)


(Start cutting path id: path16025)
(Change tool to Cylindrical cutter)

G00 Z2.000000
G00 X-7.641457 Y206.425280

G01 Z-3.000000 F100.0(Penetrate)
G01 X-7.641527 Y208.145280 Z-3.000000 F500.000000
G01 X-9.361527 Y208.145210 Z-3.000000
G01 X-9.361457 Y206.425210 Z-3.000000
G01 X-7.641457 Y206.425280 Z-3.000000
G00 Z2.000000

(End cutting path id: path16025)


(Start cutting path id: path16025)
(Change tool to Cylindrical cutter)

G00 Z2.000000
G00 X-5.855097 Y253.007792

G01 Z-3.000000 F100.0(Penetrate)
G01 X-5.855097 Y253.007792 Z-3.000000 F500.000000
G00 Z2.000000

(End cutting path id: path16025)


(Start cutting path id: path16025)
(Change tool to Cylindrical cutter)

G00 Z2.000000
G00 X-1.813337 Y256.050117

G01 Z-3.000000 F100.0(Penetrate)
G01 X-1.813337 Y256.050117 Z-3.000000 F500.000000
G00 Z2.000000

(End cutting path id: path16025)


(Start cutting path id: path16025)
(Change tool to Cylindrical cutter)

G00 Z2.000000
G00 X-4.355457 Y257.549897

G01 Z-3.000000 F100.0(Penetrate)
G01 X-4.355647 Y259.986716 Z-3.000000 F500.000000
G01 X-1.918887 Y259.986923 Z-3.000000
G01 X-1.918677 Y257.550091 Z-3.000000
G01 X-4.355457 Y257.549897 Z-3.000000
G00 Z2.000000

(End cutting path id: path16025)


(Start cutting path id: path16025)
(Change tool to Cylindrical cutter)

G00 Z2.000000
G00 X-4.355327 Y255.549908

G01 Z-3.000000 F100.0(Penetrate)
G01 X-1.918537 Y255.550108 Z-3.000000 F500.000000
G01 X-1.918337 Y253.113344 Z-3.000000
G01 X-4.355127 Y253.113137 Z-3.000000
G01 X-4.355327 Y255.549908 Z-3.000000
G00 Z2.000000

(End cutting path id: path16025)


(Start cutting path id: path16025)
(Change tool to Cylindrical cutter)

G00 Z2.000000
G00 X-6.355447 Y257.549768

G01 Z-3.000000 F100.0(Penetrate)
G01 X-8.792227 Y257.549574 Z-3.000000 F500.000000
G01 X-8.792427 Y259.986372 Z-3.000000
G01 X-6.355647 Y259.986580 Z-3.000000
G01 X-6.355447 Y257.549768 Z-3.000000
G00 Z2.000000

(End cutting path id: path16025)


(Start cutting path id: path16025)
(Change tool to Cylindrical cutter)

G00 Z2.000000
G00 X-6.355307 Y255.549776

G01 Z-3.000000 F100.0(Penetrate)
G01 X-6.355107 Y253.113001 Z-3.000000 F500.000000
G01 X-8.791877 Y253.112793 Z-3.000000
G01 X-8.792087 Y255.549576 Z-3.000000
G01 X-6.355307 Y255.549776 Z-3.000000
G00 Z2.000000

(End cutting path id: path16025)


(Start cutting path id: path16025)
(Change tool to Cylindrical cutter)

G00 Z2.000000
G00 X12.711363 Y269.484823

G01 Z-3.000000 F100.0(Penetrate)
G01 X12.711443 Y267.764823 Z-3.000000 F500.000000
G01 X14.431443 Y267.764895 Z-3.000000
G01 X14.431363 Y269.484895 Z-3.000000
G01 X12.711363 Y269.484823 Z-3.000000
G00 Z2.000000

(End cutting path id: path16025)


(Start cutting path id: path16025)
(Change tool to Cylindrical cutter)

G00 Z2.000000
G00 X10.811443 Y267.764742

G01 Z-3.000000 F100.0(Penetrate)
G01 X10.811363 Y269.484742 Z-3.000000 F500.000000
G01 X9.091363 Y269.484669 Z-3.000000
G01 X9.091443 Y267.764669 Z-3.000000
G01 X10.811443 Y267.764742 Z-3.000000
G00 Z2.000000

(End cutting path id: path16025)


(Start cutting path id: path16025)
(Change tool to Cylindrical cutter)

G00 Z2.000000
G00 X5.471443 Y267.764516

G01 Z-3.000000 F100.0(Penetrate)
G01 X7.191443 Y267.764589 Z-3.000000 F500.000000
G01 X7.191363 Y269.484589 Z-3.000000
G01 X5.471363 Y269.484516 Z-3.000000
G01 X5.471443 Y267.764516 Z-3.000000
G00 Z2.000000

(End cutting path id: path16025)


(Start cutting path id: path16025)
(Change tool to Cylindrical cutter)

G00 Z2.000000
G00 X1.851363 Y269.484363

G01 Z-3.000000 F100.0(Penetrate)
G01 X1.851443 Y267.764363 Z-3.000000 F500.000000
G01 X3.571443 Y267.764436 Z-3.000000
G01 X3.571363 Y269.484436 Z-3.000000
G01 X1.851363 Y269.484363 Z-3.000000
G00 Z2.000000

(End cutting path id: path16025)


(Start cutting path id: path16025)
(Change tool to Cylindrical cutter)

G00 Z2.000000
G00 X1.850983 Y278.624363

G01 Z-3.000000 F100.0(Penetrate)
G01 X3.570983 Y278.624436 Z-3.000000 F500.000000
G01 X3.570903 Y280.344436 Z-3.000000
G01 X1.850903 Y280.344363 Z-3.000000
G01 X1.850983 Y278.624363 Z-3.000000
G00 Z2.000000

(End cutting path id: path16025)


(Start cutting path id: path16025)
(Change tool to Cylindrical cutter)

G00 Z2.000000
G00 X5.470983 Y278.624516

G01 Z-3.000000 F100.0(Penetrate)
G01 X7.190983 Y278.624589 Z-3.000000 F500.000000
G01 X7.190903 Y280.344589 Z-3.000000
G01 X5.470903 Y280.344516 Z-3.000000
G01 X5.470983 Y278.624516 Z-3.000000
G00 Z2.000000

(End cutting path id: path16025)


(Start cutting path id: path16025)
(Change tool to Cylindrical cutter)

G00 Z2.000000
G00 X9.090903 Y280.344669

G01 Z-3.000000 F100.0(Penetrate)
G01 X9.090983 Y278.624669 Z-3.000000 F500.000000
G01 X10.810983 Y278.624742 Z-3.000000
G01 X10.810903 Y280.344742 Z-3.000000
G01 X9.090903 Y280.344669 Z-3.000000
G00 Z2.000000

(End cutting path id: path16025)


(Start cutting path id: path16025)
(Change tool to Cylindrical cutter)

G00 Z2.000000
G00 X12.710983 Y278.624823

G01 Z-3.000000 F100.0(Penetrate)
G01 X14.430983 Y278.624895 Z-3.000000 F500.000000
G01 X14.430903 Y280.344895 Z-3.000000
G01 X12.710903 Y280.344823 Z-3.000000
G01 X12.710983 Y278.624823 Z-3.000000
G00 Z2.000000

(End cutting path id: path16025)


(Start cutting path id: path16025)
(Change tool to Cylindrical cutter)

G00 Z2.000000
G00 X14.431063 Y276.724895

G01 Z-3.000000 F100.0(Penetrate)
G01 X12.711063 Y276.724823 Z-3.000000 F500.000000
G01 X12.711133 Y275.004823 Z-3.000000
G01 X14.431133 Y275.004895 Z-3.000000
G01 X14.431063 Y276.724895 Z-3.000000
G00 Z2.000000

(End cutting path id: path16025)


(Start cutting path id: path16025)
(Change tool to Cylindrical cutter)

G00 Z2.000000
G00 X10.811063 Y276.724742

G01 Z-3.000000 F100.0(Penetrate)
G01 X9.091063 Y276.724669 Z-3.000000 F500.000000
G01 X9.091133 Y275.004669 Z-3.000000
G01 X10.811133 Y275.004742 Z-3.000000
G01 X10.811063 Y276.724742 Z-3.000000
G00 Z2.000000

(End cutting path id: path16025)


(Start cutting path id: path16025)
(Change tool to Cylindrical cutter)

G00 Z2.000000
G00 X7.191063 Y276.724589

G01 Z-3.000000 F100.0(Penetrate)
G01 X5.471063 Y276.724516 Z-3.000000 F500.000000
G01 X5.471133 Y275.004516 Z-3.000000
G01 X7.191133 Y275.004589 Z-3.000000
G01 X7.191063 Y276.724589 Z-3.000000
G00 Z2.000000

(End cutting path id: path16025)


(Start cutting path id: path16025)
(Change tool to Cylindrical cutter)

G00 Z2.000000
G00 X1.851133 Y275.004363

G01 Z-3.000000 F100.0(Penetrate)
G01 X3.571133 Y275.004436 Z-3.000000 F500.000000
G01 X3.571063 Y276.724436 Z-3.000000
G01 X1.851063 Y276.724363 Z-3.000000
G01 X1.851133 Y275.004363 Z-3.000000
G00 Z2.000000

(End cutting path id: path16025)


(Start cutting path id: path16025)
(Change tool to Cylindrical cutter)

G00 Z2.000000
G00 X14.431213 Y273.104895

G01 Z-3.000000 F100.0(Penetrate)
G01 X12.711213 Y273.104823 Z-3.000000 F500.000000
G01 X12.711283 Y271.384823 Z-3.000000
G01 X14.431283 Y271.384895 Z-3.000000
G01 X14.431213 Y273.104895 Z-3.000000
G00 Z2.000000

(End cutting path id: path16025)


(Start cutting path id: path16025)
(Change tool to Cylindrical cutter)

G00 Z2.000000
G00 X10.811213 Y273.104742

G01 Z-3.000000 F100.0(Penetrate)
G01 X9.091213 Y273.104669 Z-3.000000 F500.000000
G01 X9.091283 Y271.384669 Z-3.000000
G01 X10.811283 Y271.384742 Z-3.000000
G01 X10.811213 Y273.104742 Z-3.000000
G00 Z2.000000

(End cutting path id: path16025)


(Start cutting path id: path16025)
(Change tool to Cylindrical cutter)

G00 Z2.000000
G00 X5.471283 Y271.384516

G01 Z-3.000000 F100.0(Penetrate)
G01 X7.191283 Y271.384589 Z-3.000000 F500.000000
G01 X7.191213 Y273.104589 Z-3.000000
G01 X5.471213 Y273.104516 Z-3.000000
G01 X5.471283 Y271.384516 Z-3.000000
G00 Z2.000000

(End cutting path id: path16025)


(Start cutting path id: path16025)
(Change tool to Cylindrical cutter)

G00 Z2.000000
G00 X3.571283 Y271.384436

G01 Z-3.000000 F100.0(Penetrate)
G01 X3.571213 Y273.104436 Z-3.000000 F500.000000
G01 X1.851213 Y273.104363 Z-3.000000
G01 X1.851283 Y271.384363 Z-3.000000
G01 X3.571283 Y271.384436 Z-3.000000
G00 Z2.000000

(End cutting path id: path16025)


(Start cutting path id: path16025)
(Change tool to Cylindrical cutter)

G00 Z2.000000
G00 X-33.277967 Y269.127958

G01 Z-3.000000 F100.0(Penetrate)
G01 X-34.997966 Y269.127886 Z-3.000000 F500.000000
G01 X-34.997966 Y269.127886 Z-3.000000
G01 X-34.997886 Y267.407886 Z-3.000000
G01 X-34.997886 Y267.407886 Z-3.000000
G01 X-33.277887 Y267.407958 Z-3.000000
G01 X-33.277887 Y267.407958 Z-3.000000
G01 X-33.277967 Y269.127958 Z-3.000000
G00 Z2.000000

(End cutting path id: path16025)


(Start cutting path id: path16025)
(Change tool to Cylindrical cutter)

G00 Z2.000000
G00 X-29.657967 Y269.128112

G01 Z-3.000000 F100.0(Penetrate)
G01 X-31.377967 Y269.128039 Z-3.000000 F500.000000
G01 X-31.377967 Y269.128039 Z-3.000000
G01 X-31.377887 Y267.408039 Z-3.000000
G01 X-31.377887 Y267.408039 Z-3.000000
G01 X-29.657887 Y267.408112 Z-3.000000
G01 X-29.657887 Y267.408112 Z-3.000000
G01 X-29.657967 Y269.128112 Z-3.000000
G00 Z2.000000

(End cutting path id: path16025)


(Start cutting path id: path16025)
(Change tool to Cylindrical cutter)

G00 Z2.000000
G00 X-26.037887 Y267.408265

G01 Z-3.000000 F100.0(Penetrate)
G01 X-26.037967 Y269.128265 Z-3.000000 F500.000000
G01 X-26.037967 Y269.128265 Z-3.000000
G01 X-27.757967 Y269.128192 Z-3.000000
G01 X-27.757967 Y269.128192 Z-3.000000
G01 X-27.757887 Y267.408192 Z-3.000000
G01 X-27.757887 Y267.408192 Z-3.000000
G01 X-26.037887 Y267.408265 Z-3.000000
G00 Z2.000000

(End cutting path id: path16025)


(Start cutting path id: path16025)
(Change tool to Cylindrical cutter)

G00 Z2.000000
G00 X-22.417887 Y267.408418

G01 Z-3.000000 F100.0(Penetrate)
G01 X-22.417967 Y269.128418 Z-3.000000 F500.000000
G01 X-22.417967 Y269.128418 Z-3.000000
G01 X-24.137967 Y269.128345 Z-3.000000
G01 X-24.137967 Y269.128345 Z-3.000000
G01 X-24.137887 Y267.408345 Z-3.000000
G01 X-24.137887 Y267.408345 Z-3.000000
G01 X-22.417887 Y267.408418 Z-3.000000
G00 Z2.000000

(End cutting path id: path16025)


(Start cutting path id: path16025)
(Change tool to Cylindrical cutter)

G00 Z2.000000
G00 X-18.797887 Y267.408571

G01 Z-3.000000 F100.0(Penetrate)
G01 X-18.797967 Y269.128571 Z-3.000000 F500.000000
G01 X-18.797967 Y269.128571 Z-3.000000
G01 X-20.517967 Y269.128498 Z-3.000000
G01 X-20.517967 Y269.128498 Z-3.000000
G01 X-20.517887 Y267.408498 Z-3.000000
G01 X-20.517887 Y267.408498 Z-3.000000
G01 X-18.797887 Y267.408571 Z-3.000000
G00 Z2.000000

(End cutting path id: path16025)


(Start cutting path id: path16025)
(Change tool to Cylindrical cutter)

G00 Z2.000000
G00 X-15.177967 Y269.128724

G01 Z-3.000000 F100.0(Penetrate)
G01 X-16.897967 Y269.128652 Z-3.000000 F500.000000
G01 X-16.897967 Y269.128652 Z-3.000000
G01 X-16.897887 Y267.408652 Z-3.000000
G01 X-16.897887 Y267.408652 Z-3.000000
G01 X-15.177887 Y267.408724 Z-3.000000
G01 X-15.177887 Y267.408724 Z-3.000000
G01 X-15.177967 Y269.128724 Z-3.000000
G00 Z2.000000

(End cutting path id: path16025)


(Start cutting path id: path16025)
(Change tool to Cylindrical cutter)

G00 Z2.000000
G00 X-27.758337 Y277.868192

G01 Z-3.000000 F100.0(Penetrate)
G01 X-26.038337 Y277.868265 Z-3.000000 F500.000000
G01 X-26.038337 Y277.868265 Z-3.000000
G01 X-26.038407 Y279.588265 Z-3.000000
G01 X-26.038407 Y279.588265 Z-3.000000
G01 X-27.758407 Y279.588192 Z-3.000000
G01 X-27.758407 Y279.588192 Z-3.000000
G01 X-27.758337 Y277.868192 Z-3.000000
G00 Z2.000000

(End cutting path id: path16025)


(Start cutting path id: path16025)
(Change tool to Cylindrical cutter)

G00 Z2.000000
G00 X-29.658407 Y279.588112

G01 Z-3.000000 F100.0(Penetrate)
G01 X-31.378407 Y279.588039 Z-3.000000 F500.000000
G01 X-31.378407 Y279.588039 Z-3.000000
G01 X-31.378337 Y277.868039 Z-3.000000
G01 X-31.378337 Y277.868039 Z-3.000000
G01 X-29.658337 Y277.868112 Z-3.000000
G01 X-29.658337 Y277.868112 Z-3.000000
G01 X-29.658407 Y279.588112 Z-3.000000
G00 Z2.000000

(End cutting path id: path16025)


(Start cutting path id: path16025)
(Change tool to Cylindrical cutter)

G00 Z2.000000
G00 X-33.278407 Y279.587958

G01 Z-3.000000 F100.0(Penetrate)
G01 X-34.998406 Y279.587886 Z-3.000000 F500.000000
G01 X-34.998406 Y279.587886 Z-3.000000
G01 X-34.998336 Y277.867886 Z-3.000000
G01 X-34.998336 Y277.867886 Z-3.000000
G01 X-33.278337 Y277.867958 Z-3.000000
G01 X-33.278337 Y277.867958 Z-3.000000
G01 X-33.278407 Y279.587958 Z-3.000000
G00 Z2.000000

(End cutting path id: path16025)


(Start cutting path id: path16025)
(Change tool to Cylindrical cutter)

G00 Z2.000000
G00 X-33.278177 Y274.247958

G01 Z-3.000000 F100.0(Penetrate)
G01 X-33.278257 Y275.967958 Z-3.000000 F500.000000
G01 X-33.278257 Y275.967958 Z-3.000000
G01 X-34.998256 Y275.967886 Z-3.000000
G01 X-34.998256 Y275.967886 Z-3.000000
G01 X-34.998176 Y274.247886 Z-3.000000
G01 X-34.998176 Y274.247886 Z-3.000000
G01 X-33.278177 Y274.247958 Z-3.000000
G00 Z2.000000

(End cutting path id: path16025)


(Start cutting path id: path16025)
(Change tool to Cylindrical cutter)

G00 Z2.000000
G00 X-29.658177 Y274.248112

G01 Z-3.000000 F100.0(Penetrate)
G01 X-29.658257 Y275.968112 Z-3.000000 F500.000000
G01 X-29.658257 Y275.968112 Z-3.000000
G01 X-31.378257 Y275.968039 Z-3.000000
G01 X-31.378257 Y275.968039 Z-3.000000
G01 X-31.378177 Y274.248039 Z-3.000000
G01 X-31.378177 Y274.248039 Z-3.000000
G01 X-29.658177 Y274.248112 Z-3.000000
G00 Z2.000000

(End cutting path id: path16025)


(Start cutting path id: path16025)
(Change tool to Cylindrical cutter)

G00 Z2.000000
G00 X-26.038177 Y274.248265

G01 Z-3.000000 F100.0(Penetrate)
G01 X-26.038257 Y275.968265 Z-3.000000 F500.000000
G01 X-26.038257 Y275.968265 Z-3.000000
G01 X-27.758257 Y275.968192 Z-3.000000
G01 X-27.758257 Y275.968192 Z-3.000000
G01 X-27.758177 Y274.248192 Z-3.000000
G01 X-27.758177 Y274.248192 Z-3.000000
G01 X-26.038177 Y274.248265 Z-3.000000
G00 Z2.000000

(End cutting path id: path16025)


(Start cutting path id: path16025)
(Change tool to Cylindrical cutter)

G00 Z2.000000
G00 X-24.138257 Y275.968345

G01 Z-3.000000 F100.0(Penetrate)
G01 X-24.138177 Y274.248345 Z-3.000000 F500.000000
G01 X-24.138177 Y274.248345 Z-3.000000
G01 X-22.418177 Y274.248418 Z-3.000000
G01 X-22.418177 Y274.248418 Z-3.000000
G01 X-22.418257 Y275.968418 Z-3.000000
G01 X-22.418257 Y275.968418 Z-3.000000
G01 X-24.138257 Y275.968345 Z-3.000000
G00 Z2.000000

(End cutting path id: path16025)


(Start cutting path id: path16025)
(Change tool to Cylindrical cutter)

G00 Z2.000000
G00 X-24.138337 Y277.868345

G01 Z-3.000000 F100.0(Penetrate)
G01 X-22.418337 Y277.868418 Z-3.000000 F500.000000
G01 X-22.418337 Y277.868418 Z-3.000000
G01 X-22.418407 Y279.588418 Z-3.000000
G01 X-22.418407 Y279.588418 Z-3.000000
G01 X-24.138407 Y279.588345 Z-3.000000
G01 X-24.138407 Y279.588345 Z-3.000000
G01 X-24.138337 Y277.868345 Z-3.000000
G00 Z2.000000

(End cutting path id: path16025)


(Start cutting path id: path16025)
(Change tool to Cylindrical cutter)

G00 Z2.000000
G00 X-18.798337 Y277.868571

G01 Z-3.000000 F100.0(Penetrate)
G01 X-18.798407 Y279.588571 Z-3.000000 F500.000000
G01 X-18.798407 Y279.588571 Z-3.000000
G01 X-20.518407 Y279.588498 Z-3.000000
G01 X-20.518407 Y279.588498 Z-3.000000
G01 X-20.518337 Y277.868498 Z-3.000000
G01 X-20.518337 Y277.868498 Z-3.000000
G01 X-18.798337 Y277.868571 Z-3.000000
G00 Z2.000000

(End cutting path id: path16025)


(Start cutting path id: path16025)
(Change tool to Cylindrical cutter)

G00 Z2.000000
G00 X-18.798257 Y275.968571

G01 Z-3.000000 F100.0(Penetrate)
G01 X-20.518257 Y275.968498 Z-3.000000 F500.000000
G01 X-20.518257 Y275.968498 Z-3.000000
G01 X-20.518177 Y274.248498 Z-3.000000
G01 X-20.518177 Y274.248498 Z-3.000000
G01 X-18.798177 Y274.248571 Z-3.000000
G01 X-18.798177 Y274.248571 Z-3.000000
G01 X-18.798257 Y275.968571 Z-3.000000
G00 Z2.000000

(End cutting path id: path16025)


(Start cutting path id: path16025)
(Change tool to Cylindrical cutter)

G00 Z2.000000
G00 X-16.898257 Y275.968652

G01 Z-3.000000 F100.0(Penetrate)
G01 X-16.898177 Y274.248652 Z-3.000000 F500.000000
G01 X-16.898177 Y274.248652 Z-3.000000
G01 X-15.178177 Y274.248724 Z-3.000000
G01 X-15.178177 Y274.248724 Z-3.000000
G01 X-15.178257 Y275.968724 Z-3.000000
G01 X-15.178257 Y275.968724 Z-3.000000
G01 X-16.898257 Y275.968652 Z-3.000000
G00 Z2.000000

(End cutting path id: path16025)


(Start cutting path id: path16025)
(Change tool to Cylindrical cutter)

G00 Z2.000000
G00 X-16.898407 Y279.588652

G01 Z-3.000000 F100.0(Penetrate)
G01 X-16.898337 Y277.868652 Z-3.000000 F500.000000
G01 X-16.898337 Y277.868652 Z-3.000000
G01 X-15.178337 Y277.868724 Z-3.000000
G01 X-15.178337 Y277.868724 Z-3.000000
G01 X-15.178407 Y279.588724 Z-3.000000
G01 X-15.178407 Y279.588724 Z-3.000000
G01 X-16.898407 Y279.588652 Z-3.000000
G00 Z2.000000

(End cutting path id: path16025)


(Start cutting path id: path16025)
(Change tool to Cylindrical cutter)

G00 Z2.000000
G00 X-16.898107 Y272.548652

G01 Z-3.000000 F100.0(Penetrate)
G01 X-16.898037 Y270.828652 Z-3.000000 F500.000000
G01 X-16.898037 Y270.828652 Z-3.000000
G01 X-15.178037 Y270.828724 Z-3.000000
G01 X-15.178037 Y270.828724 Z-3.000000
G01 X-15.178107 Y272.548724 Z-3.000000
G01 X-15.178107 Y272.548724 Z-3.000000
G01 X-16.898107 Y272.548652 Z-3.000000
G00 Z2.000000

(End cutting path id: path16025)


(Start cutting path id: path16025)
(Change tool to Cylindrical cutter)

G00 Z2.000000
G00 X-20.518107 Y272.548498

G01 Z-3.000000 F100.0(Penetrate)
G01 X-20.518037 Y270.828498 Z-3.000000 F500.000000
G01 X-20.518037 Y270.828498 Z-3.000000
G01 X-18.798037 Y270.828571 Z-3.000000
G01 X-18.798037 Y270.828571 Z-3.000000
G01 X-18.798107 Y272.548571 Z-3.000000
G01 X-18.798107 Y272.548571 Z-3.000000
G01 X-20.518107 Y272.548498 Z-3.000000
G00 Z2.000000

(End cutting path id: path16025)


(Start cutting path id: path16025)
(Change tool to Cylindrical cutter)

G00 Z2.000000
G00 X-24.138107 Y272.548345

G01 Z-3.000000 F100.0(Penetrate)
G01 X-24.138037 Y270.828345 Z-3.000000 F500.000000
G01 X-24.138037 Y270.828345 Z-3.000000
G01 X-22.418037 Y270.828418 Z-3.000000
G01 X-22.418037 Y270.828418 Z-3.000000
G01 X-22.418107 Y272.548418 Z-3.000000
G01 X-22.418107 Y272.548418 Z-3.000000
G01 X-24.138107 Y272.548345 Z-3.000000
G00 Z2.000000

(End cutting path id: path16025)


(Start cutting path id: path16025)
(Change tool to Cylindrical cutter)

G00 Z2.000000
G00 X-26.038107 Y272.548265

G01 Z-3.000000 F100.0(Penetrate)
G01 X-27.758107 Y272.548192 Z-3.000000 F500.000000
G01 X-27.758107 Y272.548192 Z-3.000000
G01 X-27.758037 Y270.828192 Z-3.000000
G01 X-27.758037 Y270.828192 Z-3.000000
G01 X-26.038037 Y270.828265 Z-3.000000
G01 X-26.038037 Y270.828265 Z-3.000000
G01 X-26.038107 Y272.548265 Z-3.000000
G00 Z2.000000

(End cutting path id: path16025)


(Start cutting path id: path16025)
(Change tool to Cylindrical cutter)

G00 Z2.000000
G00 X-31.378037 Y270.828039

G01 Z-3.000000 F100.0(Penetrate)
G01 X-29.658037 Y270.828112 Z-3.000000 F500.000000
G01 X-29.658037 Y270.828112 Z-3.000000
G01 X-29.658107 Y272.548112 Z-3.000000
G01 X-29.658107 Y272.548112 Z-3.000000
G01 X-31.378107 Y272.548039 Z-3.000000
G01 X-31.378107 Y272.548039 Z-3.000000
G01 X-31.378037 Y270.828039 Z-3.000000
G00 Z2.000000

(End cutting path id: path16025)


(Start cutting path id: path16025)
(Change tool to Cylindrical cutter)

G00 Z2.000000
G00 X-34.998036 Y270.827886

G01 Z-3.000000 F100.0(Penetrate)
G01 X-33.278037 Y270.827958 Z-3.000000 F500.000000
G01 X-33.278037 Y270.827958 Z-3.000000
G01 X-33.278107 Y272.547958 Z-3.000000
G01 X-33.278107 Y272.547958 Z-3.000000
G01 X-34.998106 Y272.547886 Z-3.000000
G01 X-34.998106 Y272.547886 Z-3.000000
G01 X-34.998036 Y270.827886 Z-3.000000
G00 Z2.000000

(End cutting path id: path16025)


(Start cutting path id: path16025)
(Change tool to Cylindrical cutter)

G00 Z2.000000
G00 X-8.889757 Y228.586344

G01 Z-3.000000 F100.0(Penetrate)
G01 X-5.316227 Y228.586644 Z-3.000000 F500.000000
G01 X-5.315917 Y225.013110 Z-3.000000
G01 X-8.889457 Y225.012800 Z-3.000000
G01 X-8.889757 Y228.586344 Z-3.000000
G00 Z2.000000

(End cutting path id: path16025)


(Start cutting path id: path16025)
(Change tool to Cylindrical cutter)

G00 Z2.000000
G00 X-8.394267 Y281.512780

G01 Z-3.000000 F100.0(Penetrate)
G01 X-8.394487 Y284.086325 Z-3.000000 F500.000000
G01 X-5.820947 Y284.086544 Z-3.000000
G01 X-5.820727 Y281.512999 Z-3.000000
G01 X-8.394267 Y281.512780 Z-3.000000
G00 Z2.000000

(End cutting path id: path16025)


(Start cutting path id: path16025)
(Change tool to Cylindrical cutter)

G00 Z2.000000
G00 X-8.390667 Y239.512825

G01 Z-3.000000 F100.0(Penetrate)
G01 X-8.390887 Y242.086370 Z-3.000000 F500.000000
G01 X-5.817357 Y242.086589 Z-3.000000
G01 X-5.817137 Y239.513044 Z-3.000000
G01 X-8.390667 Y239.512825 Z-3.000000
G00 Z2.000000

(End cutting path id: path16025)


(Footer)
M5
G00 X0.0000 Y0.0000
M2
(Using default footer. To add your own footer create file "footer" in the output dir.)
(end)
%