%
(Header)
(Generated by gcodetools from Inkscape.)
(Using default header. To add your own header create file "header" in the output dir.)
M3
(Header end.)
G21 (All units in mm)

(Start cutting path id: path15543)
(Change tool to Cylindrical cutter)

G00 Z2.000000
G00 X21.034011 Y191.159310

G01 Z-3.000000 F100.0(Penetrate)
G01 X21.034011 Y141.309360 Z-3.000000 F500.000000
G00 Z2.000000

(End cutting path id: path15543)


(Start cutting path id: path15541)
(Change tool to Cylindrical cutter)

G00 Z2.000000
G00 X21.035471 Y93.504460

G01 Z-3.000000 F100.0(Penetrate)
G01 X21.034471 Y78.029440 Z-3.000000 F500.000000
G00 Z2.000000

(End cutting path id: path15541)


(Start cutting path id: path15541)
(Change tool to Cylindrical cutter)

G00 Z2.000000
G00 X21.034011 Y78.029440

G01 Z-3.000000 F100.0(Penetrate)
G01 X21.034011 Y15.032630 Z-3.000000 F500.000000
G00 Z2.000000

(End cutting path id: path15541)


(Start cutting path id: path15537)
(Change tool to Cylindrical cutter)

G00 Z2.000000
G00 X21.033431 Y302.225884

G01 Z-3.000000 F100.0(Penetrate)
G01 X21.033286 Y253.495154 Z-3.000000 F500.000000
G01 X21.033431 Y204.242623 Z-3.000000
G00 Z2.000000

(End cutting path id: path15537)


(Footer)
M5
G00 X0.0000 Y0.0000
M2
(Using default footer. To add your own footer create file "footer" in the output dir.)
(end)
%