%
(Header)
(Generated by gcodetools from Inkscape.)
(Using default header. To add your own header create file "header" in the output dir.)
M3
(Header end.)
G21 (All units in mm)

(Start cutting path id: path15601)
(Change tool to Cylindrical cutter)

G00 Z2.000000
G00 X-5.101288 Y217.411380

G01 Z-3.000000 F100.0(Penetrate)
G01 X-16.284418 Y217.412330 Z-3.000000 F500.000000
G01 X-16.280418 Y264.262272 Z-3.000000
G00 Z2.000000

(End cutting path id: path15601)


(Start cutting path id: path15597)
(Change tool to Cylindrical cutter)

G00 Z2.000000
G00 X-16.278888 Y283.845592

G01 Z-3.000000 F100.0(Penetrate)
G01 X-16.276988 Y302.695555 Z-3.000000 F500.000000
G01 X37.506181 Y302.690955 Z-3.000000
G00 Z2.000000

(End cutting path id: path15597)


(Start cutting path id: path15593)
(Change tool to Cylindrical cutter)

G00 Z2.000000
G00 X37.506151 Y302.691003

G01 Z-3.000000 F100.0(Penetrate)
G01 X37.504151 Y283.841013 Z-3.000000 F500.000000
G00 Z2.000000

(End cutting path id: path15593)


(Start cutting path id: path15591)
(Change tool to Cylindrical cutter)

G00 Z2.000000
G00 X27.002972 Y263.408673

G01 Z-3.000000 F100.0(Penetrate)
G01 X26.997872 Y203.410445 Z-3.000000 F500.000000
G01 X0.897737 Y203.417045 Z-3.000000
G00 Z2.000000

(End cutting path id: path15591)


(Start cutting path id: path15589)
(Change tool to Cylindrical cutter)

G00 Z2.000000
G00 X-2.190833 Y190.145490

G01 Z-3.000000 F100.0(Penetrate)
G01 X-2.191003 Y186.145490 Z-3.000000 F500.000000
G01 X1.808987 Y186.145330 Z-3.000000
G00 Z2.000000

(End cutting path id: path15589)


(Start cutting path id: path15585)
(Change tool to Cylindrical cutter)

G00 Z2.000000
G00 X1.807477 Y168.228680

G01 Z-3.000000 F100.0(Penetrate)
G01 X-2.192523 Y168.228850 Z-3.000000 F500.000000
G01 X-2.192693 Y164.228850 Z-3.000000
G00 Z2.000000

(End cutting path id: path15585)


(Start cutting path id: path15581)
(Change tool to Cylindrical cutter)

G00 Z2.000000
G00 X26.240267 Y188.906680

G01 Z-3.000000 F100.0(Penetrate)
G01 X26.240097 Y184.906680 Z-3.000000 F500.000000
G01 X30.240077 Y184.906510 Z-3.000000
G00 Z2.000000

(End cutting path id: path15581)


(Start cutting path id: path15577)
(Change tool to Cylindrical cutter)

G00 Z2.000000
G00 X30.238567 Y166.989860

G01 Z-3.000000 F100.0(Penetrate)
G01 X26.238567 Y166.990030 Z-3.000000 F500.000000
G01 X26.238397 Y162.990030 Z-3.000000
G00 Z2.000000

(End cutting path id: path15577)


(Footer)
M5
G00 X0.0000 Y0.0000
M2
(Using default footer. To add your own footer create file "footer" in the output dir.)
(end)
%