%
(Header)
(Generated by gcodetools from Inkscape.)
(Using default header. To add your own header create file "header" in the output dir.)
M3
(Header end.)
G21 (All units in mm)

(Start cutting path id: path43)
(Change tool to Cylindrical cutter)

G00 Z2.000000
G00 X0.038269 Y15.421842

G01 Z-3.000000 F100.0(Penetrate)
G01 X-19.909231 Y15.421842 Z-3.000000 F400.000000
G01 X-19.909231 Y51.697557 Z-3.000000
G00 Z2.000000

(End cutting path id: path43)


(Start cutting path id: path43)
(Change tool to Cylindrical cutter)

G00 Z2.000000
G00 X0.038269 Y15.421842

G01 Z-3.100000 F100.0(Penetrate)
G01 X-19.909231 Y15.421842 Z-3.100000 F400.000000
G01 X-19.909231 Y51.697557 Z-3.100000
G00 Z2.000000

(End cutting path id: path43)


(Start cutting path id: path43)
(Change tool to Cylindrical cutter)

G00 Z2.000000
G00 X0.038269 Y86.205631

G01 Z-3.000000 F100.0(Penetrate)
G01 X-19.909231 Y86.205631 Z-3.000000 F400.000000
G01 X-19.909231 Y73.509931 Z-3.000000
G01 X-5.769231 Y73.509931 Z-3.000000
G01 X-5.769231 Y63.490731 Z-3.000000
G01 X-19.909231 Y63.490731 Z-3.000000
G01 X-19.909231 Y51.697557 Z-3.000000
G00 Z2.000000

(End cutting path id: path43)


(Start cutting path id: path43)
(Change tool to Cylindrical cutter)

G00 Z2.000000
G00 X0.038269 Y86.205631

G01 Z-3.100000 F100.0(Penetrate)
G01 X-19.909231 Y86.205631 Z-3.100000 F400.000000
G01 X-19.909231 Y73.509931 Z-3.100000
G01 X-5.769231 Y73.509931 Z-3.100000
G01 X-5.769231 Y63.490731 Z-3.100000
G01 X-19.909231 Y63.490731 Z-3.100000
G01 X-19.909231 Y51.697557 Z-3.100000
G00 Z2.000000

(End cutting path id: path43)


(Start cutting path id: path733)
(Change tool to Cylindrical cutter)

G00 Z2.000000
G00 X20.130471 Y20.401566

G01 Z-3.000000 F100.0(Penetrate)
G01 X18.393271 Y20.401566 Z-3.000000 F400.000000
G01 X18.393271 Y18.664366 Z-3.000000
G01 X20.130471 Y18.664366 Z-3.000000
G01 X20.130471 Y20.401566 Z-3.000000
G00 Z2.000000

(End cutting path id: path733)


(Start cutting path id: path733)
(Change tool to Cylindrical cutter)

G00 Z2.000000
G00 X20.130471 Y20.401566

G01 Z-3.100000 F100.0(Penetrate)
G01 X18.393271 Y20.401566 Z-3.100000 F400.000000
G01 X18.393271 Y18.664366 Z-3.100000
G01 X20.130471 Y18.664366 Z-3.100000
G01 X20.130471 Y20.401566 Z-3.100000
G00 Z2.000000

(End cutting path id: path733)


(Start cutting path id: path731)
(Change tool to Cylindrical cutter)

G00 Z2.000000
G00 X20.130471 Y24.057766

G01 Z-3.000000 F100.0(Penetrate)
G01 X18.393271 Y24.057766 Z-3.000000 F400.000000
G01 X18.393271 Y22.320566 Z-3.000000
G01 X20.130471 Y22.320566 Z-3.000000
G01 X20.130471 Y24.057766 Z-3.000000
G00 Z2.000000

(End cutting path id: path731)


(Start cutting path id: path731)
(Change tool to Cylindrical cutter)

G00 Z2.000000
G00 X20.130471 Y24.057766

G01 Z-3.100000 F100.0(Penetrate)
G01 X18.393271 Y24.057766 Z-3.100000 F400.000000
G01 X18.393271 Y22.320566 Z-3.100000
G01 X20.130471 Y22.320566 Z-3.100000
G01 X20.130471 Y24.057766 Z-3.100000
G00 Z2.000000

(End cutting path id: path731)


(Start cutting path id: path729)
(Change tool to Cylindrical cutter)

G00 Z2.000000
G00 X20.130471 Y27.713966

G01 Z-3.000000 F100.0(Penetrate)
G01 X18.393271 Y27.713966 Z-3.000000 F400.000000
G01 X18.393271 Y25.976766 Z-3.000000
G01 X20.130471 Y25.976766 Z-3.000000
G01 X20.130471 Y27.713966 Z-3.000000
G00 Z2.000000

(End cutting path id: path729)


(Start cutting path id: path729)
(Change tool to Cylindrical cutter)

G00 Z2.000000
G00 X20.130471 Y27.713966

G01 Z-3.100000 F100.0(Penetrate)
G01 X18.393271 Y27.713966 Z-3.100000 F400.000000
G01 X18.393271 Y25.976766 Z-3.100000
G01 X20.130471 Y25.976766 Z-3.100000
G01 X20.130471 Y27.713966 Z-3.100000
G00 Z2.000000

(End cutting path id: path729)


(Start cutting path id: path727)
(Change tool to Cylindrical cutter)

G00 Z2.000000
G00 X16.474271 Y20.401566

G01 Z-3.000000 F100.0(Penetrate)
G01 X14.737071 Y20.401566 Z-3.000000 F400.000000
G01 X14.737071 Y18.664366 Z-3.000000
G01 X16.474271 Y18.664366 Z-3.000000
G01 X16.474271 Y20.401566 Z-3.000000
G00 Z2.000000

(End cutting path id: path727)


(Start cutting path id: path727)
(Change tool to Cylindrical cutter)

G00 Z2.000000
G00 X16.474271 Y20.401566

G01 Z-3.100000 F100.0(Penetrate)
G01 X14.737071 Y20.401566 Z-3.100000 F400.000000
G01 X14.737071 Y18.664366 Z-3.100000
G01 X16.474271 Y18.664366 Z-3.100000
G01 X16.474271 Y20.401566 Z-3.100000
G00 Z2.000000

(End cutting path id: path727)


(Start cutting path id: path725)
(Change tool to Cylindrical cutter)

G00 Z2.000000
G00 X16.474271 Y24.057766

G01 Z-3.000000 F100.0(Penetrate)
G01 X14.737071 Y24.057766 Z-3.000000 F400.000000
G01 X14.737071 Y22.320566 Z-3.000000
G01 X16.474271 Y22.320566 Z-3.000000
G01 X16.474271 Y24.057766 Z-3.000000
G00 Z2.000000

(End cutting path id: path725)


(Start cutting path id: path725)
(Change tool to Cylindrical cutter)

G00 Z2.000000
G00 X16.474271 Y24.057766

G01 Z-3.100000 F100.0(Penetrate)
G01 X14.737071 Y24.057766 Z-3.100000 F400.000000
G01 X14.737071 Y22.320566 Z-3.100000
G01 X16.474271 Y22.320566 Z-3.100000
G01 X16.474271 Y24.057766 Z-3.100000
G00 Z2.000000

(End cutting path id: path725)


(Start cutting path id: path723)
(Change tool to Cylindrical cutter)

G00 Z2.000000
G00 X16.474271 Y27.713966

G01 Z-3.000000 F100.0(Penetrate)
G01 X14.737071 Y27.713966 Z-3.000000 F400.000000
G01 X14.737071 Y25.976766 Z-3.000000
G01 X16.474271 Y25.976766 Z-3.000000
G01 X16.474271 Y27.713966 Z-3.000000
G00 Z2.000000

(End cutting path id: path723)


(Start cutting path id: path723)
(Change tool to Cylindrical cutter)

G00 Z2.000000
G00 X16.474271 Y27.713966

G01 Z-3.100000 F100.0(Penetrate)
G01 X14.737071 Y27.713966 Z-3.100000 F400.000000
G01 X14.737071 Y25.976766 Z-3.100000
G01 X16.474271 Y25.976766 Z-3.100000
G01 X16.474271 Y27.713966 Z-3.100000
G00 Z2.000000

(End cutting path id: path723)


(Start cutting path id: path721)
(Change tool to Cylindrical cutter)

G00 Z2.000000
G00 X12.818071 Y20.401566

G01 Z-3.000000 F100.0(Penetrate)
G01 X11.080871 Y20.401566 Z-3.000000 F400.000000
G01 X11.080871 Y18.664366 Z-3.000000
G01 X12.818071 Y18.664366 Z-3.000000
G01 X12.818071 Y20.401566 Z-3.000000
G00 Z2.000000

(End cutting path id: path721)


(Start cutting path id: path721)
(Change tool to Cylindrical cutter)

G00 Z2.000000
G00 X12.818071 Y20.401566

G01 Z-3.100000 F100.0(Penetrate)
G01 X11.080871 Y20.401566 Z-3.100000 F400.000000
G01 X11.080871 Y18.664366 Z-3.100000
G01 X12.818071 Y18.664366 Z-3.100000
G01 X12.818071 Y20.401566 Z-3.100000
G00 Z2.000000

(End cutting path id: path721)


(Start cutting path id: path719)
(Change tool to Cylindrical cutter)

G00 Z2.000000
G00 X12.818071 Y24.057766

G01 Z-3.000000 F100.0(Penetrate)
G01 X11.080871 Y24.057766 Z-3.000000 F400.000000
G01 X11.080871 Y22.320566 Z-3.000000
G01 X12.818071 Y22.320566 Z-3.000000
G01 X12.818071 Y24.057766 Z-3.000000
G00 Z2.000000

(End cutting path id: path719)


(Start cutting path id: path719)
(Change tool to Cylindrical cutter)

G00 Z2.000000
G00 X12.818071 Y24.057766

G01 Z-3.100000 F100.0(Penetrate)
G01 X11.080871 Y24.057766 Z-3.100000 F400.000000
G01 X11.080871 Y22.320566 Z-3.100000
G01 X12.818071 Y22.320566 Z-3.100000
G01 X12.818071 Y24.057766 Z-3.100000
G00 Z2.000000

(End cutting path id: path719)


(Start cutting path id: path717)
(Change tool to Cylindrical cutter)

G00 Z2.000000
G00 X12.818071 Y27.713966

G01 Z-3.000000 F100.0(Penetrate)
G01 X11.080871 Y27.713966 Z-3.000000 F400.000000
G01 X11.080871 Y25.976766 Z-3.000000
G01 X12.818071 Y25.976766 Z-3.000000
G01 X12.818071 Y27.713966 Z-3.000000
G00 Z2.000000

(End cutting path id: path717)


(Start cutting path id: path717)
(Change tool to Cylindrical cutter)

G00 Z2.000000
G00 X12.818071 Y27.713966

G01 Z-3.100000 F100.0(Penetrate)
G01 X11.080871 Y27.713966 Z-3.100000 F400.000000
G01 X11.080871 Y25.976766 Z-3.100000
G01 X12.818071 Y25.976766 Z-3.100000
G01 X12.818071 Y27.713966 Z-3.100000
G00 Z2.000000

(End cutting path id: path717)


(Start cutting path id: path715)
(Change tool to Cylindrical cutter)

G00 Z2.000000
G00 X9.161871 Y27.713966

G01 Z-3.000000 F100.0(Penetrate)
G01 X7.424671 Y27.713966 Z-3.000000 F400.000000
G01 X7.424671 Y25.976766 Z-3.000000
G01 X9.161871 Y25.976766 Z-3.000000
G01 X9.161871 Y27.713966 Z-3.000000
G00 Z2.000000

(End cutting path id: path715)


(Start cutting path id: path715)
(Change tool to Cylindrical cutter)

G00 Z2.000000
G00 X9.161871 Y27.713966

G01 Z-3.100000 F100.0(Penetrate)
G01 X7.424671 Y27.713966 Z-3.100000 F400.000000
G01 X7.424671 Y25.976766 Z-3.100000
G01 X9.161871 Y25.976766 Z-3.100000
G01 X9.161871 Y27.713966 Z-3.100000
G00 Z2.000000

(End cutting path id: path715)


(Start cutting path id: path713)
(Change tool to Cylindrical cutter)

G00 Z2.000000
G00 X9.161871 Y24.057766

G01 Z-3.000000 F100.0(Penetrate)
G01 X7.424671 Y24.057766 Z-3.000000 F400.000000
G01 X7.424671 Y22.320566 Z-3.000000
G01 X9.161871 Y22.320566 Z-3.000000
G01 X9.161871 Y24.057766 Z-3.000000
G00 Z2.000000

(End cutting path id: path713)


(Start cutting path id: path713)
(Change tool to Cylindrical cutter)

G00 Z2.000000
G00 X9.161871 Y24.057766

G01 Z-3.100000 F100.0(Penetrate)
G01 X7.424671 Y24.057766 Z-3.100000 F400.000000
G01 X7.424671 Y22.320566 Z-3.100000
G01 X9.161871 Y22.320566 Z-3.100000
G01 X9.161871 Y24.057766 Z-3.100000
G00 Z2.000000

(End cutting path id: path713)


(Start cutting path id: path711)
(Change tool to Cylindrical cutter)

G00 Z2.000000
G00 X9.161871 Y20.401566

G01 Z-3.000000 F100.0(Penetrate)
G01 X7.424671 Y20.401566 Z-3.000000 F400.000000
G01 X7.424671 Y18.664366 Z-3.000000
G01 X9.161871 Y18.664366 Z-3.000000
G01 X9.161871 Y20.401566 Z-3.000000
G00 Z2.000000

(End cutting path id: path711)


(Start cutting path id: path711)
(Change tool to Cylindrical cutter)

G00 Z2.000000
G00 X9.161871 Y20.401566

G01 Z-3.100000 F100.0(Penetrate)
G01 X7.424671 Y20.401566 Z-3.100000 F400.000000
G01 X7.424671 Y18.664366 Z-3.100000
G01 X9.161871 Y18.664366 Z-3.100000
G01 X9.161871 Y20.401566 Z-3.100000
G00 Z2.000000

(End cutting path id: path711)


(Start cutting path id: path707)
(Change tool to Cylindrical cutter)

G00 Z2.000000
G00 X30.995955 Y93.440271

G01 Z-3.000000 F100.0(Penetrate)
G01 X4.442520 Y93.438251 Z-3.000000 F400.000000
G01 X4.444540 Y53.122576 Z-3.000000
G01 X30.997975 Y53.122717 Z-3.000000
G01 X30.995955 Y93.440271 Z-3.000000
G00 Z2.000000

(End cutting path id: path707)


(Start cutting path id: path707)
(Change tool to Cylindrical cutter)

G00 Z2.000000
G00 X30.995955 Y93.440271

G01 Z-3.100000 F100.0(Penetrate)
G01 X4.442520 Y93.438251 Z-3.100000 F400.000000
G01 X4.444540 Y53.122576 Z-3.100000
G01 X30.997975 Y53.122717 Z-3.100000
G01 X30.995955 Y93.440271 Z-3.100000
G00 Z2.000000

(End cutting path id: path707)


(Footer)
M5
G00 X0.0000 Y0.0000
M2
(Using default footer. To add your own footer create file "footer" in the output dir.)
(end)
%