%
(Header)
(Generated by gcodetools from Inkscape.)
(Using default header. To add your own header create file "header" in the output dir.)
M3
(Header end.)
G21 (All units in mm)

(Start cutting path id: path3134)
(Change tool to Cylindrical cutter)

G00 Z2.000000
G00 X-42.031444 Y16.520120

G01 Z-3.200000 F100.0(Penetrate)
G01 X-42.031444 Y14.900120 Z-3.200000 F400.000000
G01 X-40.411444 Y14.900120 Z-3.200000
G01 X-40.411444 Y16.520120 Z-3.200000
G01 X-42.031444 Y16.520120 Z-3.200000
G00 Z2.000000

(End cutting path id: path3134)


(Start cutting path id: path3132)
(Change tool to Cylindrical cutter)

G00 Z2.000000
G00 X-38.411444 Y16.520120

G01 Z-3.200000 F100.0(Penetrate)
G01 X-38.411444 Y14.900120 Z-3.200000 F400.000000
G01 X-36.791444 Y14.900120 Z-3.200000
G01 X-36.791444 Y16.520120 Z-3.200000
G01 X-38.411444 Y16.520120 Z-3.200000
G00 Z2.000000

(End cutting path id: path3132)


(Start cutting path id: path3130)
(Change tool to Cylindrical cutter)

G00 Z2.000000
G00 X-34.791444 Y16.520120

G01 Z-3.200000 F100.0(Penetrate)
G01 X-34.791444 Y14.900120 Z-3.200000 F400.000000
G01 X-33.171444 Y14.900120 Z-3.200000
G01 X-33.171444 Y16.520120 Z-3.200000
G01 X-34.791444 Y16.520120 Z-3.200000
G00 Z2.000000

(End cutting path id: path3130)


(Start cutting path id: path3128)
(Change tool to Cylindrical cutter)

G00 Z2.000000
G00 X-31.171444 Y16.520120

G01 Z-3.200000 F100.0(Penetrate)
G01 X-31.171444 Y14.900120 Z-3.200000 F400.000000
G01 X-29.551444 Y14.900120 Z-3.200000
G01 X-29.551444 Y16.520120 Z-3.200000
G01 X-31.171444 Y16.520120 Z-3.200000
G00 Z2.000000

(End cutting path id: path3128)


(Start cutting path id: path3126)
(Change tool to Cylindrical cutter)

G00 Z2.000000
G00 X-42.031444 Y12.900120

G01 Z-3.200000 F100.0(Penetrate)
G01 X-42.031444 Y11.280120 Z-3.200000 F400.000000
G01 X-40.411444 Y11.280120 Z-3.200000
G01 X-40.411444 Y12.900120 Z-3.200000
G01 X-42.031444 Y12.900120 Z-3.200000
G00 Z2.000000

(End cutting path id: path3126)


(Start cutting path id: path3124)
(Change tool to Cylindrical cutter)

G00 Z2.000000
G00 X-38.411444 Y12.900120

G01 Z-3.200000 F100.0(Penetrate)
G01 X-38.411444 Y11.280120 Z-3.200000 F400.000000
G01 X-36.791444 Y11.280120 Z-3.200000
G01 X-36.791444 Y12.900120 Z-3.200000
G01 X-38.411444 Y12.900120 Z-3.200000
G00 Z2.000000

(End cutting path id: path3124)


(Start cutting path id: path3122)
(Change tool to Cylindrical cutter)

G00 Z2.000000
G00 X-34.791444 Y12.900120

G01 Z-3.200000 F100.0(Penetrate)
G01 X-34.791444 Y11.280120 Z-3.200000 F400.000000
G01 X-33.171444 Y11.280120 Z-3.200000
G01 X-33.171444 Y12.900120 Z-3.200000
G01 X-34.791444 Y12.900120 Z-3.200000
G00 Z2.000000

(End cutting path id: path3122)


(Start cutting path id: path3120)
(Change tool to Cylindrical cutter)

G00 Z2.000000
G00 X-31.171444 Y12.900120

G01 Z-3.200000 F100.0(Penetrate)
G01 X-31.171444 Y11.280120 Z-3.200000 F400.000000
G01 X-29.551444 Y11.280120 Z-3.200000
G01 X-29.551444 Y12.900120 Z-3.200000
G01 X-31.171444 Y12.900120 Z-3.200000
G00 Z2.000000

(End cutting path id: path3120)


(Start cutting path id: path3118)
(Change tool to Cylindrical cutter)

G00 Z2.000000
G00 X-42.031444 Y9.280120

G01 Z-3.200000 F100.0(Penetrate)
G01 X-42.031444 Y7.660120 Z-3.200000 F400.000000
G01 X-40.411444 Y7.660120 Z-3.200000
G01 X-40.411444 Y9.280120 Z-3.200000
G01 X-42.031444 Y9.280120 Z-3.200000
G00 Z2.000000

(End cutting path id: path3118)


(Start cutting path id: path3116)
(Change tool to Cylindrical cutter)

G00 Z2.000000
G00 X-38.411444 Y9.280120

G01 Z-3.200000 F100.0(Penetrate)
G01 X-38.411444 Y7.660120 Z-3.200000 F400.000000
G01 X-36.791444 Y7.660120 Z-3.200000
G01 X-36.791444 Y9.280120 Z-3.200000
G01 X-38.411444 Y9.280120 Z-3.200000
G00 Z2.000000

(End cutting path id: path3116)


(Start cutting path id: path3114)
(Change tool to Cylindrical cutter)

G00 Z2.000000
G00 X-34.791444 Y9.280120

G01 Z-3.200000 F100.0(Penetrate)
G01 X-34.791444 Y7.660120 Z-3.200000 F400.000000
G01 X-33.171444 Y7.660120 Z-3.200000
G01 X-33.171444 Y9.280120 Z-3.200000
G01 X-34.791444 Y9.280120 Z-3.200000
G00 Z2.000000

(End cutting path id: path3114)


(Start cutting path id: path3112)
(Change tool to Cylindrical cutter)

G00 Z2.000000
G00 X-31.171444 Y9.280120

G01 Z-3.200000 F100.0(Penetrate)
G01 X-31.171444 Y7.660120 Z-3.200000 F400.000000
G01 X-29.551444 Y7.660120 Z-3.200000
G01 X-29.551444 Y9.280120 Z-3.200000
G01 X-31.171444 Y9.280120 Z-3.200000
G00 Z2.000000

(End cutting path id: path3112)


(Footer)
M5
G00 X0.0000 Y0.0000
M2
(Using default footer. To add your own footer create file "footer" in the output dir.)
(end)
%