%
(Header)
(Generated by gcodetools from Inkscape.)
(Using default header. To add your own header create file "header" in the output dir.)
M3
(Header end.)
G21 (All units in mm)

(Start cutting path id: path4290)
(Change tool to Cylindrical cutter)

G00 Z2.000000
G00 X11.701504 Y85.005701

G01 Z-1.500000 F100.0(Penetrate)
G01 X11.701504 Y16.621600 Z-1.500000 F400.000000
G01 X12.332754 Y16.621600 Z-1.500000
G01 X12.332754 Y85.005701 Z-1.500000
G01 X11.701504 Y85.005701 Z-1.500000
G00 Z2.000000

(End cutting path id: path4290)


(Start cutting path id: path4290)
(Change tool to Cylindrical cutter)

G00 Z2.000000
G00 X11.701504 Y85.005701

G01 Z-1.500000 F100.0(Penetrate)
G01 X11.701504 Y16.621600 Z-1.500000 F400.000000
G01 X12.332754 Y16.621600 Z-1.500000
G01 X12.332754 Y85.005701 Z-1.500000
G01 X11.701504 Y85.005701 Z-1.500000
G00 Z2.000000

(End cutting path id: path4290)


(Start cutting path id: path4290)
(Change tool to Cylindrical cutter)

G00 Z2.000000
G00 X11.001211 Y85.705994

G01 Z-1.500000 F100.0(Penetrate)
G01 X11.001211 Y15.921307 Z-1.500000 F400.000000
G01 X13.031074 Y15.921307 Z-1.500000
G01 X13.031074 Y85.705994 Z-1.500000
G01 X11.001211 Y85.705994 Z-1.500000
G00 Z2.000000

(End cutting path id: path4290)


(Footer)
M5
G00 X0.0000 Y0.0000
M2
(Using default footer. To add your own footer create file "footer" in the output dir.)
(end)
%