%
(Header)
(Generated by gcodetools from Inkscape.)
(Using default header. To add your own header create file "header" in the output dir.)
M3
(Header end.)
G21 (All units in mm)

(Start cutting path id: path905)
(Change tool to Cylindrical cutter)

G00 Z2.000000
G00 X-34.039342 Y15.392700

G01 Z-3.000000 F100.0(Penetrate)
G01 X1.877222 Y15.392700 Z-3.000000 F400.000000
G00 Z2.000000

(End cutting path id: path905)


(Start cutting path id: path905)
(Change tool to Cylindrical cutter)

G00 Z2.000000
G00 X1.877222 Y15.392700

G01 Z-3.000000 F100.0(Penetrate)
G01 X36.043632 Y15.392700 Z-3.000000 F400.000000
G00 Z2.000000

(End cutting path id: path905)


(Footer)
M5
G00 X0.0000 Y0.0000
M2
(Using default footer. To add your own footer create file "footer" in the output dir.)
(end)
%