%
(Header)
(Generated by gcodetools from Inkscape.)
(Using default header. To add your own header create file "header" in the output dir.)
M3
(Header end.)
G21 (All units in mm)

(Start cutting path id: path975)
(Change tool to Cylindrical cutter)

G00 Z1.000000
G00 X34.943632 Y15.392700

G01 Z-3.100000 F100.0(Penetrate)
G01 X34.943632 Y35.642700 Z-3.100000 F400.000000
G01 X-1.472932 Y35.642700 Z-3.100000
G01 X-13.649342 Y35.642700 Z-3.100000
G01 X-13.649342 Y21.642700 Z-3.100000
G01 X-22.569342 Y21.642700 Z-3.100000
G01 X-22.569342 Y35.642700 Z-3.100000
G01 X-36.139342 Y35.642700 Z-3.100000
G01 X-36.139342 Y15.392700 Z-3.100000
G00 Z1.000000

(End cutting path id: path975)


(Footer)
M5
G00 X0.0000 Y0.0000
M2
(Using default footer. To add your own footer create file "footer" in the output dir.)
(end)
%