%
(Header)
(Generated by gcodetools from Inkscape.)
(Using default header. To add your own header create file "header" in the output dir.)
M3
(Header end.)
G21 (All units in mm)

(Start cutting path id: path43)
(Change tool to Cylindrical cutter)

G00 Z2.000000
G00 X1.371435 Y15.421842

G01 Z-2.800000 F100.0(Penetrate)
G01 X21.318935 Y15.421842 Z-2.800000 F400.000000
G01 X21.318935 Y51.697557 Z-2.800000
G00 Z2.000000

(End cutting path id: path43)


(Start cutting path id: path43)
(Change tool to Cylindrical cutter)

G00 Z2.000000
G00 X1.371435 Y86.205631

G01 Z-2.800000 F100.0(Penetrate)
G01 X21.318935 Y86.205631 Z-2.800000 F400.000000
G01 X21.318935 Y73.509931 Z-2.800000
G01 X7.178935 Y73.509931 Z-2.800000
G01 X7.178935 Y63.490731 Z-2.800000
G01 X21.318935 Y63.490731 Z-2.800000
G01 X21.318935 Y51.697557 Z-2.800000
G00 Z2.000000

(End cutting path id: path43)


(Start cutting path id: path733)
(Change tool to Cylindrical cutter)

G00 Z2.000000
G00 X-18.720767 Y20.401566

G01 Z-2.800000 F100.0(Penetrate)
G01 X-16.983567 Y20.401566 Z-2.800000 F400.000000
G01 X-16.983567 Y18.664366 Z-2.800000
G01 X-18.720767 Y18.664366 Z-2.800000
G01 X-18.720767 Y20.401566 Z-2.800000
G00 Z2.000000

(End cutting path id: path733)


(Start cutting path id: path731)
(Change tool to Cylindrical cutter)

G00 Z2.000000
G00 X-18.720767 Y24.057766

G01 Z-2.800000 F100.0(Penetrate)
G01 X-16.983567 Y24.057766 Z-2.800000 F400.000000
G01 X-16.983567 Y22.320566 Z-2.800000
G01 X-18.720767 Y22.320566 Z-2.800000
G01 X-18.720767 Y24.057766 Z-2.800000
G00 Z2.000000

(End cutting path id: path731)


(Start cutting path id: path729)
(Change tool to Cylindrical cutter)

G00 Z2.000000
G00 X-18.720767 Y27.713966

G01 Z-2.800000 F100.0(Penetrate)
G01 X-16.983567 Y27.713966 Z-2.800000 F400.000000
G01 X-16.983567 Y25.976766 Z-2.800000
G01 X-18.720767 Y25.976766 Z-2.800000
G01 X-18.720767 Y27.713966 Z-2.800000
G00 Z2.000000

(End cutting path id: path729)


(Start cutting path id: path727)
(Change tool to Cylindrical cutter)

G00 Z2.000000
G00 X-15.064567 Y20.401566

G01 Z-2.800000 F100.0(Penetrate)
G01 X-13.327367 Y20.401566 Z-2.800000 F400.000000
G01 X-13.327367 Y18.664366 Z-2.800000
G01 X-15.064567 Y18.664366 Z-2.800000
G01 X-15.064567 Y20.401566 Z-2.800000
G00 Z2.000000

(End cutting path id: path727)


(Start cutting path id: path725)
(Change tool to Cylindrical cutter)

G00 Z2.000000
G00 X-15.064567 Y24.057766

G01 Z-2.800000 F100.0(Penetrate)
G01 X-13.327367 Y24.057766 Z-2.800000 F400.000000
G01 X-13.327367 Y22.320566 Z-2.800000
G01 X-15.064567 Y22.320566 Z-2.800000
G01 X-15.064567 Y24.057766 Z-2.800000
G00 Z2.000000

(End cutting path id: path725)


(Start cutting path id: path723)
(Change tool to Cylindrical cutter)

G00 Z2.000000
G00 X-15.064567 Y27.713966

G01 Z-2.800000 F100.0(Penetrate)
G01 X-13.327367 Y27.713966 Z-2.800000 F400.000000
G01 X-13.327367 Y25.976766 Z-2.800000
G01 X-15.064567 Y25.976766 Z-2.800000
G01 X-15.064567 Y27.713966 Z-2.800000
G00 Z2.000000

(End cutting path id: path723)


(Start cutting path id: path721)
(Change tool to Cylindrical cutter)

G00 Z2.000000
G00 X-11.408367 Y20.401566

G01 Z-2.800000 F100.0(Penetrate)
G01 X-9.671167 Y20.401566 Z-2.800000 F400.000000
G01 X-9.671167 Y18.664366 Z-2.800000
G01 X-11.408367 Y18.664366 Z-2.800000
G01 X-11.408367 Y20.401566 Z-2.800000
G00 Z2.000000

(End cutting path id: path721)


(Start cutting path id: path719)
(Change tool to Cylindrical cutter)

G00 Z2.000000
G00 X-11.408367 Y24.057766

G01 Z-2.800000 F100.0(Penetrate)
G01 X-9.671167 Y24.057766 Z-2.800000 F400.000000
G01 X-9.671167 Y22.320566 Z-2.800000
G01 X-11.408367 Y22.320566 Z-2.800000
G01 X-11.408367 Y24.057766 Z-2.800000
G00 Z2.000000

(End cutting path id: path719)


(Start cutting path id: path717)
(Change tool to Cylindrical cutter)

G00 Z2.000000
G00 X-11.408367 Y27.713966

G01 Z-2.800000 F100.0(Penetrate)
G01 X-9.671167 Y27.713966 Z-2.800000 F400.000000
G01 X-9.671167 Y25.976766 Z-2.800000
G01 X-11.408367 Y25.976766 Z-2.800000
G01 X-11.408367 Y27.713966 Z-2.800000
G00 Z2.000000

(End cutting path id: path717)


(Start cutting path id: path715)
(Change tool to Cylindrical cutter)

G00 Z2.000000
G00 X-7.752167 Y27.713966

G01 Z-2.800000 F100.0(Penetrate)
G01 X-6.014967 Y27.713966 Z-2.800000 F400.000000
G01 X-6.014967 Y25.976766 Z-2.800000
G01 X-7.752167 Y25.976766 Z-2.800000
G01 X-7.752167 Y27.713966 Z-2.800000
G00 Z2.000000

(End cutting path id: path715)


(Start cutting path id: path713)
(Change tool to Cylindrical cutter)

G00 Z2.000000
G00 X-7.752167 Y24.057766

G01 Z-2.800000 F100.0(Penetrate)
G01 X-6.014967 Y24.057766 Z-2.800000 F400.000000
G01 X-6.014967 Y22.320566 Z-2.800000
G01 X-7.752167 Y22.320566 Z-2.800000
G01 X-7.752167 Y24.057766 Z-2.800000
G00 Z2.000000

(End cutting path id: path713)


(Start cutting path id: path711)
(Change tool to Cylindrical cutter)

G00 Z2.000000
G00 X-7.752167 Y20.401566

G01 Z-2.800000 F100.0(Penetrate)
G01 X-6.014967 Y20.401566 Z-2.800000 F400.000000
G01 X-6.014967 Y18.664366 Z-2.800000
G01 X-7.752167 Y18.664366 Z-2.800000
G01 X-7.752167 Y20.401566 Z-2.800000
G00 Z2.000000

(End cutting path id: path711)


(Start cutting path id: path707)
(Change tool to Cylindrical cutter)

G00 Z2.000000
G00 X-29.586251 Y93.440271

G01 Z-2.800000 F100.0(Penetrate)
G01 X-3.032816 Y93.438251 Z-2.800000 F400.000000
G01 X-3.034836 Y53.122576 Z-2.800000
G01 X-29.588271 Y53.122717 Z-2.800000
G01 X-29.586251 Y93.440271 Z-2.800000
G00 Z2.000000

(End cutting path id: path707)


(Footer)
M5
G00 X0.0000 Y0.0000
M2
(Using default footer. To add your own footer create file "footer" in the output dir.)
(end)
%