%
(Header)
(Generated by gcodetools from Inkscape.)
(Using default header. To add your own header create file "header" in the output dir.)
M3
(Header end.)
G21 (All units in mm)

(Start cutting path id: path2786)
(Change tool to Cylindrical cutter)

G00 Z2.000000
G00 X33.842962 Y26.433590

G01 Z-1.000000 F100.0(Penetrate)
G01 X33.842962 Y25.433590 Z-1.000000 F400.000000
G01 X-35.039851 Y25.433590 Z-1.000000
G01 X-35.039851 Y26.433590 Z-1.000000
G01 X33.842962 Y26.433590 Z-1.000000
G00 Z2.000000

(End cutting path id: path2786)


(Start cutting path id: path2786)
(Change tool to Cylindrical cutter)

G00 Z2.000000
G00 X34.444524 Y27.033200

G01 Z-1.000000 F100.0(Penetrate)
G01 X34.444524 Y24.832030 Z-1.000000 F400.000000
G01 X-35.639460 Y24.832030 Z-1.000000
G01 X-35.639460 Y27.033200 Z-1.000000
G01 X34.444524 Y27.033200 Z-1.000000
G00 Z2.000000

(End cutting path id: path2786)


(Footer)
M5
G00 X0.0000 Y0.0000
M2
(Using default footer. To add your own footer create file "footer" in the output dir.)
(end)
%