%
(Header)
(Generated by gcodetools from Inkscape.)
(Using default header. To add your own header create file "header" in the output dir.)
M3
(Header end.)
G21 (All units in mm)

(Start cutting path id: path701)
(Change tool to Cylindrical cutter)

G00 Z2.000000
G00 X1.371435 Y15.421842

G01 Z-3.000000 F100.0(Penetrate)
G01 X1.371435 Y51.697557 Z-3.000000 F400.000000
G00 Z2.000000

(End cutting path id: path701)


(Start cutting path id: path699)
(Change tool to Cylindrical cutter)

G00 Z2.000000
G00 X1.371435 Y51.697557

G01 Z-3.000000 F100.0(Penetrate)
G01 X1.371435 Y86.205631 Z-3.000000 F400.000000
G00 Z2.000000

(End cutting path id: path699)


(Start cutting path id: path697)
(Change tool to Cylindrical cutter)

G00 Z2.000000
G00 X-39.259307 Y50.143995

G01 Z-3.000000 F100.0(Penetrate)
G01 X-2.983582 Y50.141975 Z-3.000000 F400.000000
G01 X-2.985097 Y15.633901 Z-3.000000
G01 X-39.260822 Y15.635921 Z-3.000000
G01 X-39.259307 Y50.143995 Z-3.000000
G00 Z2.000000

(End cutting path id: path697)


(Footer)
M5
G00 X0.0000 Y0.0000
M2
(Using default footer. To add your own footer create file "footer" in the output dir.)
(end)
%