%
(Header)
(Generated by gcodetools from Inkscape.)
(Using default header. To add your own header create file "header" in the output dir.)
M3
(Header end.)
G21 (All units in mm)

(Start cutting path id: path975)
(Change tool to Cylindrical cutter)

G00 Z2.000000
G00 X-34.539342 Y15.392700

G01 Z-3.100000 F100.0(Penetrate)
G01 X-34.539342 Y35.642700 Z-3.100000 F400.000000
G01 X1.877222 Y35.642700 Z-3.100000
G01 X14.053632 Y35.642700 Z-3.100000
G01 X14.053632 Y21.642700 Z-3.100000
G01 X22.973632 Y21.642700 Z-3.100000
G01 X22.973632 Y35.642700 Z-3.100000
G01 X36.543632 Y35.642700 Z-3.100000
G01 X36.543632 Y15.392700 Z-3.100000
G00 Z2.000000

(End cutting path id: path975)


(Footer)
M5
G00 X0.0000 Y0.0000
M2
(Using default footer. To add your own footer create file "footer" in the output dir.)
(end)
%