%
(Header)
(Generated by gcodetools from Inkscape.)
(Using default header. To add your own header create file "header" in the output dir.)
M3
(Header end.)
G21 (All units in mm)

(Start cutting path id: path777)
(Change tool to Cylindrical cutter)

G00 Z2.000000
G00 X35.610780 Y29.199280

G01 Z-3.000000 F100.0(Penetrate)
G01 X35.610780 Y29.179280 Z-3.000000 F400.000000
G01 X35.630780 Y29.179280 Z-3.000000
G01 X35.630780 Y29.199280 Z-3.000000
G01 X35.610780 Y29.199280 Z-3.000000
G00 Z2.000000

(End cutting path id: path777)


(Start cutting path id: path775)
(Change tool to Cylindrical cutter)

G00 Z2.000000
G00 X39.230780 Y29.199280

G01 Z-3.000000 F100.0(Penetrate)
G01 X39.230780 Y29.179280 Z-3.000000 F400.000000
G01 X39.250780 Y29.179280 Z-3.000000
G01 X39.250780 Y29.199280 Z-3.000000
G01 X39.230780 Y29.199280 Z-3.000000
G00 Z2.000000

(End cutting path id: path775)


(Start cutting path id: path773)
(Change tool to Cylindrical cutter)

G00 Z2.000000
G00 X42.850779 Y29.199280

G01 Z-3.000000 F100.0(Penetrate)
G01 X42.850779 Y29.179280 Z-3.000000 F400.000000
G01 X42.870779 Y29.179280 Z-3.000000
G01 X42.870779 Y29.199280 Z-3.000000
G01 X42.850779 Y29.199280 Z-3.000000
G00 Z2.000000

(End cutting path id: path773)


(Start cutting path id: path771)
(Change tool to Cylindrical cutter)

G00 Z2.000000
G00 X46.470779 Y29.199280

G01 Z-3.000000 F100.0(Penetrate)
G01 X46.470779 Y29.179280 Z-3.000000 F400.000000
G01 X46.490779 Y29.179280 Z-3.000000
G01 X46.490779 Y29.199280 Z-3.000000
G01 X46.470779 Y29.199280 Z-3.000000
G00 Z2.000000

(End cutting path id: path771)


(Start cutting path id: path769)
(Change tool to Cylindrical cutter)

G00 Z2.000000
G00 X35.610780 Y25.579280

G01 Z-3.000000 F100.0(Penetrate)
G01 X35.610780 Y25.559280 Z-3.000000 F400.000000
G01 X35.630780 Y25.559280 Z-3.000000
G01 X35.630780 Y25.579280 Z-3.000000
G01 X35.610780 Y25.579280 Z-3.000000
G00 Z2.000000

(End cutting path id: path769)


(Start cutting path id: path767)
(Change tool to Cylindrical cutter)

G00 Z2.000000
G00 X39.230780 Y25.579280

G01 Z-3.000000 F100.0(Penetrate)
G01 X39.230780 Y25.559280 Z-3.000000 F400.000000
G01 X39.250780 Y25.559280 Z-3.000000
G01 X39.250780 Y25.579280 Z-3.000000
G01 X39.230780 Y25.579280 Z-3.000000
G00 Z2.000000

(End cutting path id: path767)


(Start cutting path id: path765)
(Change tool to Cylindrical cutter)

G00 Z2.000000
G00 X42.850779 Y25.579280

G01 Z-3.000000 F100.0(Penetrate)
G01 X42.850779 Y25.559280 Z-3.000000 F400.000000
G01 X42.870779 Y25.559280 Z-3.000000
G01 X42.870779 Y25.579280 Z-3.000000
G01 X42.850779 Y25.579280 Z-3.000000
G00 Z2.000000

(End cutting path id: path765)


(Start cutting path id: path763)
(Change tool to Cylindrical cutter)

G00 Z2.000000
G00 X46.470779 Y25.579280

G01 Z-3.000000 F100.0(Penetrate)
G01 X46.470779 Y25.559280 Z-3.000000 F400.000000
G01 X46.490779 Y25.559280 Z-3.000000
G01 X46.490779 Y25.579280 Z-3.000000
G01 X46.470779 Y25.579280 Z-3.000000
G00 Z2.000000

(End cutting path id: path763)


(Start cutting path id: path761)
(Change tool to Cylindrical cutter)

G00 Z2.000000
G00 X46.470779 Y21.959280

G01 Z-3.000000 F100.0(Penetrate)
G01 X46.470779 Y21.939280 Z-3.000000 F400.000000
G01 X46.490779 Y21.939280 Z-3.000000
G01 X46.490779 Y21.959280 Z-3.000000
G01 X46.470779 Y21.959280 Z-3.000000
G00 Z2.000000

(End cutting path id: path761)


(Start cutting path id: path759)
(Change tool to Cylindrical cutter)

G00 Z2.000000
G00 X42.850779 Y21.959280

G01 Z-3.000000 F100.0(Penetrate)
G01 X42.850779 Y21.939280 Z-3.000000 F400.000000
G01 X42.870779 Y21.939280 Z-3.000000
G01 X42.870779 Y21.959280 Z-3.000000
G01 X42.850779 Y21.959280 Z-3.000000
G00 Z2.000000

(End cutting path id: path759)


(Start cutting path id: path757)
(Change tool to Cylindrical cutter)

G00 Z2.000000
G00 X39.230780 Y21.959280

G01 Z-3.000000 F100.0(Penetrate)
G01 X39.230780 Y21.939280 Z-3.000000 F400.000000
G01 X39.250780 Y21.939280 Z-3.000000
G01 X39.250780 Y21.959280 Z-3.000000
G01 X39.230780 Y21.959280 Z-3.000000
G00 Z2.000000

(End cutting path id: path757)


(Start cutting path id: path755)
(Change tool to Cylindrical cutter)

G00 Z2.000000
G00 X35.610780 Y21.959280

G01 Z-3.000000 F100.0(Penetrate)
G01 X35.610780 Y21.939280 Z-3.000000 F400.000000
G01 X35.630780 Y21.939280 Z-3.000000
G01 X35.630780 Y21.959280 Z-3.000000
G01 X35.610780 Y21.959280 Z-3.000000
G00 Z2.000000

(End cutting path id: path755)


(Footer)
M5
G00 X0.0000 Y0.0000
M2
(Using default footer. To add your own footer create file "footer" in the output dir.)
(end)
%