%
(Header)
(Generated by gcodetools from Inkscape.)
(Using default header. To add your own header create file "header" in the output dir.)
M3
(Header end.)
G21 (All units in mm)

(Start cutting path id: path777)
(Change tool to Cylindrical cutter)

G00 Z2.000000
G00 X-14.189220 Y29.199280

G01 Z-3.000000 F100.0(Penetrate)
G01 X-14.189220 Y29.179280 Z-3.000000 F400.000000
G01 X-14.169220 Y29.179280 Z-3.000000
G01 X-14.169220 Y29.199280 Z-3.000000
G01 X-14.189220 Y29.199280 Z-3.000000
G00 Z2.000000

(End cutting path id: path777)


(Start cutting path id: path775)
(Change tool to Cylindrical cutter)

G00 Z2.000000
G00 X-10.569220 Y29.199280

G01 Z-3.000000 F100.0(Penetrate)
G01 X-10.569220 Y29.179280 Z-3.000000 F400.000000
G01 X-10.549220 Y29.179280 Z-3.000000
G01 X-10.549220 Y29.199280 Z-3.000000
G01 X-10.569220 Y29.199280 Z-3.000000
G00 Z2.000000

(End cutting path id: path775)


(Start cutting path id: path773)
(Change tool to Cylindrical cutter)

G00 Z2.000000
G00 X-6.949221 Y29.199280

G01 Z-3.000000 F100.0(Penetrate)
G01 X-6.949221 Y29.179280 Z-3.000000 F400.000000
G01 X-6.929221 Y29.179280 Z-3.000000
G01 X-6.929221 Y29.199280 Z-3.000000
G01 X-6.949221 Y29.199280 Z-3.000000
G00 Z2.000000

(End cutting path id: path773)


(Start cutting path id: path771)
(Change tool to Cylindrical cutter)

G00 Z2.000000
G00 X-3.329221 Y29.199280

G01 Z-3.000000 F100.0(Penetrate)
G01 X-3.329221 Y29.179280 Z-3.000000 F400.000000
G01 X-3.309221 Y29.179280 Z-3.000000
G01 X-3.309221 Y29.199280 Z-3.000000
G01 X-3.329221 Y29.199280 Z-3.000000
G00 Z2.000000

(End cutting path id: path771)


(Start cutting path id: path769)
(Change tool to Cylindrical cutter)

G00 Z2.000000
G00 X-14.189220 Y25.579280

G01 Z-3.000000 F100.0(Penetrate)
G01 X-14.189220 Y25.559280 Z-3.000000 F400.000000
G01 X-14.169220 Y25.559280 Z-3.000000
G01 X-14.169220 Y25.579280 Z-3.000000
G01 X-14.189220 Y25.579280 Z-3.000000
G00 Z2.000000

(End cutting path id: path769)


(Start cutting path id: path767)
(Change tool to Cylindrical cutter)

G00 Z2.000000
G00 X-10.569220 Y25.579280

G01 Z-3.000000 F100.0(Penetrate)
G01 X-10.569220 Y25.559280 Z-3.000000 F400.000000
G01 X-10.549220 Y25.559280 Z-3.000000
G01 X-10.549220 Y25.579280 Z-3.000000
G01 X-10.569220 Y25.579280 Z-3.000000
G00 Z2.000000

(End cutting path id: path767)


(Start cutting path id: path765)
(Change tool to Cylindrical cutter)

G00 Z2.000000
G00 X-6.949221 Y25.579280

G01 Z-3.000000 F100.0(Penetrate)
G01 X-6.949221 Y25.559280 Z-3.000000 F400.000000
G01 X-6.929221 Y25.559280 Z-3.000000
G01 X-6.929221 Y25.579280 Z-3.000000
G01 X-6.949221 Y25.579280 Z-3.000000
G00 Z2.000000

(End cutting path id: path765)


(Start cutting path id: path763)
(Change tool to Cylindrical cutter)

G00 Z2.000000
G00 X-3.329221 Y25.579280

G01 Z-3.000000 F100.0(Penetrate)
G01 X-3.329221 Y25.559280 Z-3.000000 F400.000000
G01 X-3.309221 Y25.559280 Z-3.000000
G01 X-3.309221 Y25.579280 Z-3.000000
G01 X-3.329221 Y25.579280 Z-3.000000
G00 Z2.000000

(End cutting path id: path763)


(Start cutting path id: path761)
(Change tool to Cylindrical cutter)

G00 Z2.000000
G00 X-3.329221 Y21.959280

G01 Z-3.000000 F100.0(Penetrate)
G01 X-3.329221 Y21.939280 Z-3.000000 F400.000000
G01 X-3.309221 Y21.939280 Z-3.000000
G01 X-3.309221 Y21.959280 Z-3.000000
G01 X-3.329221 Y21.959280 Z-3.000000
G00 Z2.000000

(End cutting path id: path761)


(Start cutting path id: path759)
(Change tool to Cylindrical cutter)

G00 Z2.000000
G00 X-6.949221 Y21.959280

G01 Z-3.000000 F100.0(Penetrate)
G01 X-6.949221 Y21.939280 Z-3.000000 F400.000000
G01 X-6.929221 Y21.939280 Z-3.000000
G01 X-6.929221 Y21.959280 Z-3.000000
G01 X-6.949221 Y21.959280 Z-3.000000
G00 Z2.000000

(End cutting path id: path759)


(Start cutting path id: path757)
(Change tool to Cylindrical cutter)

G00 Z2.000000
G00 X-10.569220 Y21.959280

G01 Z-3.000000 F100.0(Penetrate)
G01 X-10.569220 Y21.939280 Z-3.000000 F400.000000
G01 X-10.549220 Y21.939280 Z-3.000000
G01 X-10.549220 Y21.959280 Z-3.000000
G01 X-10.569220 Y21.959280 Z-3.000000
G00 Z2.000000

(End cutting path id: path757)


(Start cutting path id: path755)
(Change tool to Cylindrical cutter)

G00 Z2.000000
G00 X-14.189220 Y21.959280

G01 Z-3.000000 F100.0(Penetrate)
G01 X-14.189220 Y21.939280 Z-3.000000 F400.000000
G01 X-14.169220 Y21.939280 Z-3.000000
G01 X-14.169220 Y21.959280 Z-3.000000
G01 X-14.189220 Y21.959280 Z-3.000000
G00 Z2.000000

(End cutting path id: path755)


(Footer)
M5
G00 X0.0000 Y0.0000
M2
(Using default footer. To add your own footer create file "footer" in the output dir.)
(end)
%