%
(Header)
(Generated by gcodetools from Inkscape.)
(Using default header. To add your own header create file "header" in the output dir.)
M3
(Header end.)
G21 (All units in mm)

(Start cutting path id: path651)
(Change tool to Cylindrical cutter)

G00 Z2.000000
G00 X-0.488500 Y16.723690

G01 Z-2.100000 F20.0(Penetrate)
G01 X-0.488500 Y33.473690 Z-2.100000 F200.000000
G00 Z2.000000

(End cutting path id: path651)


(Start cutting path id: path651)
(Change tool to Cylindrical cutter)

G00 Z2.000000
G00 X-0.488500 Y16.723690

G01 Z-3.000000 F20.0(Penetrate)
G01 X-0.488500 Y33.473690 Z-3.000000 F200.000000
G00 Z2.000000

(End cutting path id: path651)


(Start cutting path id: path647)
(Change tool to Cylindrical cutter)

G00 Z2.000000
G00 X-33.905059 Y33.473690

G01 Z-2.100000 F20.0(Penetrate)
G01 X-0.488500 Y33.473690 Z-2.100000 F200.000000
G00 Z2.000000

(Change tool to Cylindrical cutter)

G00 Z2.000000
G00 X-0.488500 Y33.473690

G01 Z-2.100000 F20.0(Penetrate)
G01 X31.177907 Y33.473690 Z-2.100000 F200.000000
G00 Z2.000000

(End cutting path id: path647)


(Start cutting path id: path647)
(Change tool to Cylindrical cutter)

G00 Z2.000000
G00 X-33.905059 Y33.473690

G01 Z-3.000000 F20.0(Penetrate)
G01 X-0.488500 Y33.473690 Z-3.000000 F200.000000
G00 Z2.000000

(Change tool to Cylindrical cutter)

G00 Z2.000000
G00 X-0.488500 Y33.473690

G01 Z-3.000000 F20.0(Penetrate)
G01 X31.177907 Y33.473690 Z-3.000000 F200.000000
G00 Z2.000000

(End cutting path id: path647)


(Footer)
M5
G00 X0.0000 Y0.0000
M2
(Using default footer. To add your own footer create file "footer" in the output dir.)
(end)
%