%
(Header)
(Generated by gcodetools from Inkscape.)
(Using default header. To add your own header create file "header" in the output dir.)
M3
(Header end.)
G21 (All units in mm)

(Start cutting path id: path2115)
(Change tool to Cylindrical cutter)

G00 Z2.000000
G00 X-33.817578 Y24.462890

G01 Z-1.500000 F20.0(Penetrate)
G01 X-33.817578 Y23.664060 Z-1.500000 F200.000000
G01 X30.867969 Y23.664060 Z-1.500000
G01 X30.867969 Y24.462890 Z-1.500000
G01 X-33.817578 Y24.462890 Z-1.500000
G00 Z2.000000

(End cutting path id: path2115)


(Start cutting path id: path2115)
(Change tool to Cylindrical cutter)

G00 Z2.000000
G00 X-34.516797 Y25.164060

G01 Z-1.500000 F20.0(Penetrate)
G01 X-34.516797 Y22.962890 Z-1.500000 F200.000000
G01 X31.567188 Y22.962890 Z-1.500000
G01 X31.567188 Y25.164060 Z-1.500000
G01 X-34.516797 Y25.164060 Z-1.500000
G00 Z2.000000

(End cutting path id: path2115)


(Footer)
M5
G00 X0.0000 Y0.0000
M2
(Using default footer. To add your own footer create file "footer" in the output dir.)
(end)
%