%
(Header)
(Generated by gcodetools from Inkscape.)
(Using default header. To add your own header create file "header" in the output dir.)
M3
(Header end.)
G21 (All units in mm)

(Start cutting path id: path4320)
(Change tool to Cylindrical cutter)

G00 Z1.000000
G00 X-31.261956 Y39.674700

G01 Z-1.600000 F100.0(Penetrate)
G01 X-31.261956 Y20.424700 Z-1.600000 F400.000000
G01 X2.154603 Y20.424700 Z-1.600000
G01 X33.821012 Y20.424700 Z-1.600000
G01 X33.821012 Y39.674700 Z-1.600000
G00 Z1.000000

(End cutting path id: path4320)


(Start cutting path id: path4320)
(Change tool to Cylindrical cutter)

G00 Z1.000000
G00 X-31.261956 Y39.674700

G01 Z-3.100000 F100.0(Penetrate)
G01 X-31.261956 Y20.424700 Z-3.100000 F400.000000
G01 X2.154603 Y20.424700 Z-3.100000
G01 X33.821012 Y20.424700 Z-3.100000
G01 X33.821012 Y39.674700 Z-3.100000
G00 Z1.000000

(End cutting path id: path4320)


(Footer)
M5
G00 X0.0000 Y0.0000
M2
(Using default footer. To add your own footer create file "footer" in the output dir.)
(end)
%