%
(Header)
(Generated by gcodetools from Inkscape.)
(Using default header. To add your own header create file "header" in the output dir.)
M3
(Header end.)
G21 (All units in mm)

(Start cutting path id: path1455)
(Change tool to Default tool)

G00 Z2.000000
G00 X42.232049 Y63.537420

G01 Z-0.125000 F100.0(Penetrate)
G01 X48.275549 Y63.537500 Z-0.125000 F400.000000
G01 X48.275564 Y57.495810 Z-0.125000
G01 X42.232064 Y57.495720 Z-0.125000
G01 X42.232049 Y63.537420 Z-0.125000
G00 Z2.000000

(End cutting path id: path1455)


(Start cutting path id: path1453)
(Change tool to Default tool)

G00 Z2.000000
G00 X51.275549 Y63.537550

G01 Z-0.125000 F100.0(Penetrate)
G01 X57.319049 Y63.537630 Z-0.125000 F400.000000
G01 X57.319064 Y57.495940 Z-0.125000
G01 X51.275564 Y57.495850 Z-0.125000
G01 X51.275549 Y63.537550 Z-0.125000
G00 Z2.000000

(End cutting path id: path1453)


(Start cutting path id: path1451)
(Change tool to Default tool)

G00 Z2.000000
G00 X48.275481 Y90.662210

G01 Z-0.125000 F100.0(Penetrate)
G01 X42.231981 Y90.662120 Z-0.125000 F400.000000
G01 X42.231996 Y84.620620 Z-0.125000
G01 X48.275496 Y84.620700 Z-0.125000
G01 X48.275481 Y90.662210 Z-0.125000
G00 Z2.000000

(End cutting path id: path1451)


(Start cutting path id: path1449)
(Change tool to Default tool)

G00 Z2.000000
G00 X57.318981 Y90.662340

G01 Z-0.125000 F100.0(Penetrate)
G01 X51.275481 Y90.662250 Z-0.125000 F400.000000
G01 X51.275496 Y84.620750 Z-0.125000
G01 X57.318996 Y84.620830 Z-0.125000
G01 X57.318981 Y90.662340 Z-0.125000
G00 Z2.000000

(End cutting path id: path1449)


(Start cutting path id: path1447)
(Change tool to Default tool)

G00 Z2.000000
G00 X33.188525 Y72.578880

G01 Z-0.125000 F100.0(Penetrate)
G01 X33.188545 Y66.537280 Z-0.125000 F400.000000
G01 X39.232041 Y66.537370 Z-0.125000
G01 X39.232026 Y72.578970 Z-0.125000
G01 X33.188525 Y72.578880 Z-0.125000
G00 Z2.000000

(End cutting path id: path1447)


(Start cutting path id: path1445)
(Change tool to Default tool)

G00 Z2.000000
G00 X33.188505 Y81.620480

G01 Z-0.125000 F100.0(Penetrate)
G01 X33.188515 Y75.578880 Z-0.125000 F400.000000
G01 X39.232019 Y75.578970 Z-0.125000
G01 X39.232004 Y81.620570 Z-0.125000
G01 X33.188505 Y81.620480 Z-0.125000
G00 Z2.000000

(End cutting path id: path1445)


(Start cutting path id: path1443)
(Change tool to Default tool)

G00 Z2.000000
G00 X48.275504 Y81.620700

G01 Z-0.125000 F100.0(Penetrate)
G01 X48.275519 Y75.579100 Z-0.125000 F400.000000
G01 X42.232019 Y75.579020 Z-0.125000
G01 X42.232004 Y81.620620 Z-0.125000
G01 X48.275504 Y81.620700 Z-0.125000
G00 Z2.000000

(End cutting path id: path1443)


(Start cutting path id: path1441)
(Change tool to Default tool)

G00 Z2.000000
G00 X57.319004 Y81.620830

G01 Z-0.125000 F100.0(Penetrate)
G01 X57.319019 Y75.579230 Z-0.125000 F400.000000
G01 X51.275519 Y75.579150 Z-0.125000
G01 X51.275504 Y81.620750 Z-0.125000
G01 X57.319004 Y81.620830 Z-0.125000
G00 Z2.000000

(End cutting path id: path1441)


(Start cutting path id: path1439)
(Change tool to Default tool)

G00 Z2.000000
G00 X66.362504 Y81.620960

G01 Z-0.125000 F100.0(Penetrate)
G01 X66.362519 Y75.579360 Z-0.125000 F400.000000
G01 X60.319019 Y75.579280 Z-0.125000
G01 X60.319004 Y81.620880 Z-0.125000
G01 X66.362504 Y81.620960 Z-0.125000
G00 Z2.000000

(End cutting path id: path1439)


(Start cutting path id: path1437)
(Change tool to Default tool)

G00 Z2.000000
G00 X60.319049 Y63.537680

G01 Z-0.125000 F100.0(Penetrate)
G01 X60.319064 Y57.495980 Z-0.125000 F400.000000
G01 X66.362564 Y57.496070 Z-0.125000
G01 X66.362549 Y63.537760 Z-0.125000
G01 X60.319049 Y63.537680 Z-0.125000
G00 Z2.000000

(End cutting path id: path1437)


(Start cutting path id: path1435)
(Change tool to Default tool)

G00 Z2.000000
G00 X33.188545 Y63.537280

G01 Z-0.125000 F100.0(Penetrate)
G01 X33.188565 Y57.495590 Z-0.125000 F400.000000
G01 X39.232064 Y57.495670 Z-0.125000
G01 X39.232049 Y63.537370 Z-0.125000
G01 X33.188545 Y63.537280 Z-0.125000
G00 Z2.000000

(End cutting path id: path1435)


(Start cutting path id: path1433)
(Change tool to Default tool)

G00 Z2.000000
G00 X69.362514 Y119.012480

G01 Z-0.125000 F100.0(Penetrate)
G01 X30.188375 Y119.012480 Z-0.125000 F400.000000
G00 Z2.000000

(End cutting path id: path1433)


(Start cutting path id: path1431)
(Change tool to Default tool)

G00 Z2.000000
G00 X94.712514 Y93.662480

G01 Z-0.125000 F100.0(Penetrate)
G01 X94.712514 Y54.495560 Z-0.125000 F400.000000
G00 Z2.000000

(End cutting path id: path1431)


(Start cutting path id: path1429)
(Change tool to Default tool)

G00 Z2.000000
G00 X69.362571 Y29.145560

G01 Z-0.125000 F100.0(Penetrate)
G01 X30.188375 Y29.145560 Z-0.125000 F400.000000
G00 Z2.000000

(End cutting path id: path1429)


(Start cutting path id: path1427)
(Change tool to Default tool)

G00 Z2.000000
G00 X4.838375 Y54.495870

G01 Z-0.125000 F100.0(Penetrate)
G01 X4.838375 Y93.661600 Z-0.125000 F400.000000
G00 Z2.000000

(End cutting path id: path1427)


(Start cutting path id: path1425)
(Change tool to Default tool)

G00 Z2.000000
G00 X7.838375 Y81.621400

G01 Z-0.125000 F100.0(Penetrate)
G01 X7.838375 Y75.579800 Z-0.125000 F400.000000
G01 X27.188375 Y75.579990 Z-0.125000
G01 X27.188375 Y81.621590 Z-0.125000
G01 X7.838375 Y81.621400 Z-0.125000
G00 Z2.000000

(End cutting path id: path1425)


(Start cutting path id: path1423)
(Change tool to Default tool)

G00 Z2.000000
G00 X7.838375 Y84.620990

G01 Z-0.125000 F100.0(Penetrate)
G01 X27.188375 Y84.621180 Z-0.125000 F400.000000
G01 X27.188375 Y90.661800 Z-0.125000
G01 X7.838375 Y90.661610 Z-0.125000
G01 X7.838375 Y84.620990 Z-0.125000
G00 Z2.000000

(End cutting path id: path1423)


(Start cutting path id: path1421)
(Change tool to Default tool)

G00 Z2.000000
G00 X7.838375 Y72.579800

G01 Z-0.125000 F100.0(Penetrate)
G01 X7.838375 Y66.537790 Z-0.125000 F400.000000
G01 X27.188375 Y66.537980 Z-0.125000
G01 X27.188375 Y72.579990 Z-0.125000
G01 X7.838375 Y72.579800 Z-0.125000
G00 Z2.000000

(End cutting path id: path1421)


(Start cutting path id: path1419)
(Change tool to Default tool)

G00 Z2.000000
G00 X7.838375 Y57.496510

G01 Z-0.125000 F100.0(Penetrate)
G01 X27.188375 Y57.496700 Z-0.125000 F400.000000
G01 X27.188375 Y63.538390 Z-0.125000
G01 X7.838375 Y63.538200 Z-0.125000
G01 X7.838375 Y57.496510 Z-0.125000
G00 Z2.000000

(End cutting path id: path1419)


(Start cutting path id: path1417)
(Change tool to Default tool)

G00 Z2.000000
G00 X33.188465 Y96.662480

G01 Z-0.125000 F100.0(Penetrate)
G01 X39.231896 Y96.662480 Z-0.125000 F400.000000
G01 X39.231848 Y116.012480 Z-0.125000
G01 X33.188415 Y116.012480 Z-0.125000
G01 X33.188465 Y96.662480 Z-0.125000
G00 Z2.000000

(End cutting path id: path1417)


(Start cutting path id: path1415)
(Change tool to Default tool)

G00 Z2.000000
G00 X51.275467 Y96.662480

G01 Z-0.125000 F100.0(Penetrate)
G01 X57.318896 Y96.662480 Z-0.125000 F400.000000
G01 X57.318848 Y116.012480 Z-0.125000
G01 X51.275419 Y116.012480 Z-0.125000
G01 X51.275467 Y96.662480 Z-0.125000
G00 Z2.000000

(End cutting path id: path1415)


(Start cutting path id: path1413)
(Change tool to Default tool)

G00 Z2.000000
G00 X42.231967 Y96.662480

G01 Z-0.125000 F100.0(Penetrate)
G01 X48.275396 Y96.662480 Z-0.125000 F400.000000
G01 X48.275348 Y116.012480 Z-0.125000
G01 X42.231919 Y116.012480 Z-0.125000
G01 X42.231967 Y96.662480 Z-0.125000
G00 Z2.000000

(End cutting path id: path1413)


(Start cutting path id: path1411)
(Change tool to Default tool)

G00 Z2.000000
G00 X33.188485 Y90.661990

G01 Z-0.125000 F100.0(Penetrate)
G01 X39.231981 Y90.662070 Z-0.125000 F400.000000
G01 X39.231996 Y84.620570 Z-0.125000
G01 X33.188495 Y84.620480 Z-0.125000
G01 X33.188485 Y90.661990 Z-0.125000
G01 X33.188495 Y84.620480 Z-0.125000
G00 Z2.000000

(End cutting path id: path1411)


(Start cutting path id: path1409)
(Change tool to Default tool)

G00 Z2.000000
G00 X51.275541 Y66.537550

G01 Z-0.125000 F100.0(Penetrate)
G01 X51.275526 Y72.579150 Z-0.125000 F400.000000
G01 X57.319026 Y72.579230 Z-0.125000
G01 X57.319041 Y66.537630 Z-0.125000
G01 X51.275541 Y66.537550 Z-0.125000
G01 X51.275526 Y72.580230 Z-0.125000
G01 X57.318956 Y72.580290 Z-0.125000
G01 X57.318971 Y66.537630 Z-0.125000
G00 Z2.000000

(End cutting path id: path1409)


(Start cutting path id: path1407)
(Change tool to Default tool)

G00 Z2.000000
G00 X42.232041 Y66.537420

G01 Z-0.125000 F100.0(Penetrate)
G01 X42.232026 Y72.579020 Z-0.125000 F400.000000
G01 X48.275526 Y72.579100 Z-0.125000
G01 X48.275541 Y66.537500 Z-0.125000
G01 X42.232041 Y66.537420 Z-0.125000
G01 X42.232026 Y72.580140 Z-0.125000
G01 X48.275456 Y72.580200 Z-0.125000
G01 X48.275471 Y66.537500 Z-0.125000
G00 Z2.000000

(End cutting path id: path1407)


(Start cutting path id: path1405)
(Change tool to Default tool)

G00 Z2.000000
G00 X60.318967 Y96.662480

G01 Z-0.125000 F100.0(Penetrate)
G01 X66.362467 Y96.662480 Z-0.125000 F400.000000
G01 X66.362419 Y116.012480 Z-0.125000
G01 X60.318919 Y116.012480 Z-0.125000
G01 X60.318967 Y96.662480 Z-0.125000
G00 Z2.000000

(End cutting path id: path1405)


(Start cutting path id: path1403)
(Change tool to Default tool)

G00 Z2.000000
G00 X66.362481 Y90.662470

G01 Z-0.125000 F100.0(Penetrate)
G01 X66.362496 Y84.620960 Z-0.125000 F400.000000
G01 X60.318996 Y84.620880 Z-0.125000
G01 X60.318981 Y90.662380 Z-0.125000
G01 X66.362481 Y90.662470 Z-0.125000
G01 X66.362496 Y84.620960 Z-0.125000
G00 Z2.000000

(End cutting path id: path1403)


(Start cutting path id: path1401)
(Change tool to Default tool)

G00 Z2.000000
G00 X72.362571 Y84.621630

G01 Z-0.125000 F100.0(Penetrate)
G01 X91.712514 Y84.621820 Z-0.125000 F400.000000
G01 X91.712514 Y90.662440 Z-0.125000
G01 X72.362571 Y90.662250 Z-0.125000
G01 X72.362571 Y84.621630 Z-0.125000
G00 Z2.000000

(End cutting path id: path1401)


(Start cutting path id: path1399)
(Change tool to Default tool)

G00 Z2.000000
G00 X60.319041 Y66.537680

G01 Z-0.125000 F100.0(Penetrate)
G01 X60.319026 Y72.579280 Z-0.125000 F400.000000
G01 X66.362526 Y72.579360 Z-0.125000
G01 X66.362541 Y66.537760 Z-0.125000
G01 X60.319041 Y66.537680 Z-0.125000
G01 X60.319026 Y72.580320 Z-0.125000
G01 X66.362526 Y72.580380 Z-0.125000
G01 X66.362541 Y66.537760 Z-0.125000
G00 Z2.000000

(End cutting path id: path1399)


(Start cutting path id: path1397)
(Change tool to Default tool)

G00 Z2.000000
G00 X72.362571 Y66.538430

G01 Z-0.125000 F100.0(Penetrate)
G01 X72.362571 Y72.580440 Z-0.125000 F400.000000
G01 X91.712514 Y72.580630 Z-0.125000
G01 X91.712514 Y66.538620 Z-0.125000
G01 X72.362571 Y66.538430 Z-0.125000
G00 Z2.000000

(End cutting path id: path1397)


(Start cutting path id: path1395)
(Change tool to Default tool)

G00 Z2.000000
G00 X72.362571 Y75.580440

G01 Z-0.125000 F100.0(Penetrate)
G01 X72.362571 Y81.622040 Z-0.125000 F400.000000
G01 X91.712514 Y81.622230 Z-0.125000
G01 X91.712514 Y75.580630 Z-0.125000
G01 X72.362571 Y75.580440 Z-0.125000
G00 Z2.000000

(End cutting path id: path1395)


(Start cutting path id: path1393)
(Change tool to Default tool)

G00 Z2.000000
G00 X91.712514 Y57.497330

G01 Z-0.125000 F100.0(Penetrate)
G01 X91.712514 Y63.539030 Z-0.125000 F400.000000
G01 X72.362571 Y63.538840 Z-0.125000
G01 X72.362571 Y57.497140 Z-0.125000
G01 X91.712514 Y57.497330 Z-0.125000
G00 Z2.000000

(End cutting path id: path1393)


(Start cutting path id: path1391)
(Change tool to Default tool)

G00 Z2.000000
G00 X39.232056 Y32.145560

G01 Z-0.125000 F100.0(Penetrate)
G01 X39.232008 Y51.495560 Z-0.125000 F400.000000
G01 X33.188575 Y51.495560 Z-0.125000
G01 X33.188625 Y32.145560 Z-0.125000
G01 X39.232056 Y32.145560 Z-0.125000
G00 Z2.000000

(End cutting path id: path1391)


(Start cutting path id: path1389)
(Change tool to Default tool)

G00 Z2.000000
G00 X57.319056 Y32.145560

G01 Z-0.125000 F100.0(Penetrate)
G01 X57.319008 Y51.495560 Z-0.125000 F400.000000
G01 X51.275579 Y51.495560 Z-0.125000
G01 X51.275627 Y32.145560 Z-0.125000
G01 X57.319056 Y32.145560 Z-0.125000
G00 Z2.000000

(End cutting path id: path1389)


(Start cutting path id: path1387)
(Change tool to Default tool)

G00 Z2.000000
G00 X48.275556 Y32.145560

G01 Z-0.125000 F100.0(Penetrate)
G01 X42.232127 Y32.145560 Z-0.125000 F400.000000
G01 X42.232079 Y51.495560 Z-0.125000
G01 X48.275508 Y51.495560 Z-0.125000
G01 X48.275556 Y32.145560 Z-0.125000
G00 Z2.000000

(End cutting path id: path1387)


(Start cutting path id: path1385)
(Change tool to Default tool)

G00 Z2.000000
G00 X66.362627 Y32.145560

G01 Z-0.125000 F100.0(Penetrate)
G01 X60.319127 Y32.145560 Z-0.125000 F400.000000
G01 X60.319079 Y51.495560 Z-0.125000
G01 X66.362579 Y51.495560 Z-0.125000
G01 X66.362627 Y32.145560 Z-0.125000
G00 Z2.000000

(End cutting path id: path1385)


(Start cutting path id: path1469)
(Change tool to Default tool)

G00 Z2.000000
G00 X30.188375 Y119.012480

G01 Z-0.125000 F100.0(Penetrate)
G01 X30.188375 Y93.661940 Z-0.125000 F400.000000
G01 X4.838375 Y93.661600 Z-0.125000
G00 Z2.000000

(End cutting path id: path1469)


(Start cutting path id: path1467)
(Change tool to Default tool)

G00 Z2.000000
G00 X69.362514 Y119.012480

G01 Z-0.125000 F100.0(Penetrate)
G01 X69.362514 Y93.662480 Z-0.125000 F400.000000
G01 X94.712514 Y93.662480 Z-0.125000
G00 Z2.000000

(End cutting path id: path1467)


(Start cutting path id: path1465)
(Change tool to Default tool)

G00 Z2.000000
G00 X30.188375 Y29.145560

G01 Z-0.125000 F100.0(Penetrate)
G01 X30.188375 Y54.495870 Z-0.125000 F400.000000
G01 X4.838375 Y54.495870 Z-0.125000
G00 Z2.000000

(End cutting path id: path1465)


(Start cutting path id: path1463)
(Change tool to Default tool)

G00 Z2.000000
G00 X94.712514 Y54.495560

G01 Z-0.125000 F100.0(Penetrate)
G01 X69.362571 Y54.495560 Z-0.125000 F400.000000
G01 X69.362571 Y29.145560 Z-0.125000
G00 Z2.000000

(End cutting path id: path1463)


(Start cutting path id: path1459)
(Change tool to Default tool)

G00 Z2.000000
G00 X69.362571 Y54.495560

G01 Z-0.125000 F100.0(Penetrate)
G01 X69.362514 Y93.662480 Z-0.125000 F400.000000
G01 X30.188375 Y93.661940 Z-0.125000
G01 X30.188375 Y54.495560 Z-0.125000
G01 X69.362571 Y54.495560 Z-0.125000
G00 Z2.000000

(End cutting path id: path1459)


(Footer)
M5
G00 X0.0000 Y0.0000
M2
(Using default footer. To add your own footer create file "footer" in the output dir.)
(end)
%