( Made using CamBam - http://www.cambam.co.uk )
( schody_stl_p1 9/7/2019 7:01:25 PM )
( T0 : 1.0 )
G21 G90 G64 G40
G0 Z3.0
( T0 : 1.0 )
T0 M6
( 3DSurface1 )
G17
M3 S1000
G0 X-7.6012 Y4.32
G1 F300.0 Z4.0
G1 F800.0 Y4.18
G1 Y-4.32
G0 Z3.0
G0 X-6.6012 Y4.32
G1 F300.0 Z4.0
G1 F800.0 Y4.18
G1 Y-4.32
G0 X-7.1012
G1 F300.0 Z3.0
G1 F800.0 Y4.18
G1 Y4.32
G0 X-7.6012
G1 F300.0 Z2.0
G1 F800.0 Y4.18
G1 Y-4.32
G0 Z3.0
G0 X-5.6012 Y4.32
G1 F300.0 Z4.0
G1 F800.0 Y4.18
G1 Y-4.32
G0 X-6.1012
G1 F300.0 Z3.0
G1 F800.0 Y4.18
G1 Y4.32
G0 X-6.6012
G1 F300.0 Z2.0
G1 F800.0 Y4.18
G1 Y-4.32
G1 F300.0 X-7.1012
G1 Z1.0
G1 F800.0 Y-3.82
G1 Y-3.62 Z1.5113
G1 Y3.78
G1 Y3.98 Z1.0
G1 Y4.18
G1 Y4.32
G1 F300.0 X-7.6012
G1 Z0.3023
G1 F800.0 Y4.18
G1 Y3.98
G1 Y3.78 Z0.9068
G1 Y-3.62
G1 Y-3.82 Z0.3023
G1 Y-4.32
G0 Z3.0
G0 X-4.6012 Y4.32
G1 F300.0 Z4.0
G1 F800.0 Y4.18
G1 Y-4.32
G0 X-5.1012
G1 F300.0 Z3.0
G1 F800.0 Y4.18
G1 Y4.32
G0 X-5.6012
G1 F300.0 Z2.0
G1 F800.0 Y4.18
G1 Y3.98
G1 Y3.78 Z2.1158
G1 Y-3.82
G1 Y-4.02 Z2.0
G1 Y-4.32
G1 F300.0 X-6.1012
G1 Z1.5113
G1 F800.0 Y-4.02
G1 Y-3.82 Z2.1158
G1 Y3.78
G1 Y3.98 Z1.5113
G1 Y4.18
G1 Y4.32
G1 F300.0 X-6.6012
G1 Z0.9068
G1 F800.0 Y4.18
G1 Y3.98
G1 Y3.78 Z1.5113
G1 Y-3.62
G1 Y-3.82 Z0.9068
G1 Y-4.32
G1 F300.0 X-7.1012
G1 F800.0 Y-3.82
G1 Y-3.62 Z1.5113
G1 Y3.78
G1 Y3.98 Z0.9068
G1 Y4.18
G1 Y4.32
G0 Z3.0
G0 X-3.6012
G1 F300.0 Z4.0
G1 F800.0 Y4.18
G1 Y-4.32
G0 X-4.1012
G1 F300.0 Z3.0
G1 F800.0 Y-4.02
G1 Y-3.82 Z3.3249
G1 Y3.78
G1 Y3.98 Z3.0
G1 Y4.18
G1 Y4.32
G0 X-4.6012
G1 F300.0 Z2.1158
G1 F800.0 Y4.18
G1 Y3.98
G1 Y3.78 Z2.7203
G1 Y-3.82
G1 Y-4.02 Z2.1158
G1 Y-4.32
G1 F300.0 X-5.1012
G1 F800.0 Y-4.02
G1 Y-3.82 Z2.7203
G1 Y3.78
G1 Y3.98 Z2.1158
G1 Y4.18
G1 Y4.32
G1 F300.0 X-5.6012
G1 Z1.5113
G1 F800.0 Y4.18
G1 Y3.98
G1 Y3.78 Z2.1158
G1 Y-3.82
G1 Y-4.02 Z1.5113
G1 Y-4.32
G1 F300.0 X-6.1012
G1 F800.0 Y-4.02
G1 Y-3.82 Z2.1158
G1 Y3.78
G1 Y3.98 Z1.5113
G1 Y4.18
G1 Y4.32
G0 Z3.0
G0 X-2.6012
G1 F300.0 Z4.0
G1 F800.0 Y4.18
G1 Y-4.32
G0 X-3.1012
G1 F300.0 Z3.3249
G1 F800.0 Y-4.02
G1 Y-3.82 Z3.9294
G1 Y3.78
G1 Y3.98 Z3.3249
G1 Y4.18
G1 Y4.32
G0 X-3.6012
G1 F300.0 Z2.7203
G1 F800.0 Y4.18
G1 Y3.98
G1 Y3.78 Z3.3249
G1 Y-3.82
G1 Y-4.02 Z2.7203
G1 Y-4.32
G1 F300.0 X-4.1012
G1 F800.0 Y-4.02
G1 Y-3.82 Z3.3249
G1 Y3.78
G1 Y3.98 Z2.7203
G1 Y4.18
G1 Y4.32
G1 F300.0 X-4.6012
G1 Z2.1158
G1 F800.0 Y4.18
G1 Y3.98
G1 Y3.78 Z2.7203
G1 Y-3.82
G1 Y-4.02 Z2.1158
G1 Y-4.32
G1 F300.0 X-5.1012
G1 F800.0 Y-4.02
G1 Y-3.82 Z2.7203
G1 Y3.78
G1 Y3.98 Z2.1158
G1 Y4.18
G1 Y4.32
G0 Z3.0
G0 X-1.6012
G1 F300.0 Z4.0
G1 F800.0 Y4.18
G1 Y-4.32
G0 X-2.1012
G1 F300.0 Z3.9294
G1 F800.0 Y4.18
G1 Y4.32
G0 X-2.6012
G1 F300.0 Z3.3249
G1 F800.0 Y4.18
G1 Y3.98
G1 Y3.78 Z3.9294
G1 Y-3.82
G1 Y-4.02 Z3.3249
G1 Y-4.32
G1 F300.0 X-3.1012
G1 F800.0 Y-4.02
G1 Y-3.82 Z3.9294
G1 Y3.78
G1 Y3.98 Z3.3249
G1 Y4.18
G1 Y4.32
G0 X-3.6012
G1 F300.0 Z2.7203
G1 F800.0 Y4.18
G1 Y3.98
G1 Y3.78 Z3.3249
G1 Y-3.82
G1 Y-4.02 Z2.7203
G1 Y-4.32
G1 F300.0 X-4.1012
G1 F800.0 Y-4.02
G1 Y-3.82 Z3.3249
G1 Y3.78
G1 Y3.98 Z2.7203
G1 Y4.18
G1 Y4.32
G0 Z3.0
G0 X-0.6012
G1 F300.0 Z4.0
G1 F800.0 Y4.18
G1 Y-4.32
G0 X-1.1012
G1 F300.0 Z3.9294
G1 F800.0 Y4.18
G1 Y4.32
G1 F300.0 X-1.6012
G1 F800.0 Y4.18
G1 Y-4.32
G1 F300.0 X-2.1012
G1 F800.0 Y4.18
G1 Y4.32
G0 X-2.6012
G1 F300.0 Z3.3249
G1 F800.0 Y4.18
G1 Y3.98
G1 Y3.78 Z3.9294
G1 Y-3.82
G1 Y-4.02 Z3.3249
G1 Y-4.32
G1 F300.0 X-3.1012
G1 F800.0 Y-4.02
G1 Y-3.82 Z3.9294
G1 Y3.78
G1 Y3.98 Z3.3249
G1 Y4.18
G1 Y4.32
G0 Z3.0
G0 X0.3988
G1 F300.0 Z4.0
G1 F800.0 Y4.18
G1 Y-4.32
G0 X-0.1012
G1 F300.0 Z3.9294
G1 F800.0 Y4.18
G1 Y4.32
G1 F300.0 X-0.6012
G1 F800.0 Y4.18
G1 Y-4.32
G1 F300.0 X-1.1012
G1 F800.0 Y4.18
G1 Y4.32
G1 F300.0 X-1.6012
G1 F800.0 Y4.18
G1 Y-4.32
G1 F300.0 X-2.1012
G1 F800.0 Y4.18
G1 Y4.32
G0 Z3.0
G0 X1.3988
G1 F300.0 Z4.0
G1 F800.0 Y4.18
G1 Y-4.32
G0 X0.8988
G1 F300.0 Z3.9294
G1 F800.0 Y4.18
G1 Y4.32
G1 F300.0 X0.3988
G1 F800.0 Y4.18
G1 Y-4.32
G1 F300.0 X-0.1012
G1 F800.0 Y4.18
G1 Y4.32
G1 F300.0 X-0.6012
G1 F800.0 Y4.18
G1 Y-4.32
G1 F300.0 X-1.1012
G1 F800.0 Y4.18
G1 Y4.32
G0 Z3.0
G0 X2.3988
G1 F300.0 Z4.0
G1 F800.0 Y4.18
G1 Y-4.32
G0 X1.8988
G1 F300.0 Z3.9294
G1 F800.0 Y4.18
G1 Y4.32
G1 F300.0 X1.3988
G1 F800.0 Y4.18
G1 Y-4.32
G1 F300.0 X0.8988
G1 F800.0 Y4.18
G1 Y4.32
G1 F300.0 X0.3988
G1 F800.0 Y4.18
G1 Y-4.32
G1 F300.0 X-0.1012
G1 F800.0 Y4.18
G1 Y4.32
G0 Z3.0
G0 X3.3988
G1 F300.0 Z4.0
G1 F800.0 Y4.18
G1 Y-4.32
G0 X2.8988
G1 F300.0 Z3.3249
G1 F800.0 Y-4.02
G1 Y-3.82 Z3.9294
G1 Y3.78
G1 Y3.98 Z3.3249
G1 Y4.18
G1 Y4.32
G0 Z3.9294
G1 F300.0 X2.3988
G1 F800.0 Y4.18
G1 Y-4.32
G1 F300.0 X1.8988
G1 F800.0 Y4.18
G1 Y4.32
G1 F300.0 X1.3988
G1 F800.0 Y4.18
G1 Y-4.32
G1 F300.0 X0.8988
G1 F800.0 Y4.18
G1 Y4.32
G0 Z3.0
G0 X4.3988
G1 F300.0 Z4.0
G1 F800.0 Y4.18
G1 Y-4.32
G0 X3.8988
G1 F300.0 Z3.0
G1 F800.0 Y-4.02
G1 Y-3.82 Z3.3249
G1 Y3.78
G1 Y3.98 Z3.0
G1 Y4.18
G1 Y4.32
G0 X3.3988
G1 F300.0 Z2.7203
G1 F800.0 Y4.18
G1 Y3.98
G1 Y3.78 Z3.9294
G1 Y-3.82
G1 Y-4.02 Z2.7203
G1 Y-4.32
G0 Z3.3249
G1 F300.0 X2.8988
G1 F800.0 Y-4.02
G1 Y-3.82 Z3.9294
G1 Y3.78
G1 Y3.98 Z3.3249
G1 Y4.18
G1 Y4.32
G0 Z3.9294
G1 F300.0 X2.3988
G1 F800.0 Y4.18
G1 Y-4.32
G1 F300.0 X1.8988
G1 F800.0 Y4.18
G1 Y4.32
G0 Z3.0
G0 X5.3988
G1 F300.0 Z4.0
G1 F800.0 Y4.18
G1 Y-4.32
G0 X4.8988
G1 F300.0 Z3.0
G1 F800.0 Y4.18
G1 Y4.32
G0 X4.3988
G1 F300.0 Z2.1158
G1 F800.0 Y4.18
G1 Y3.98
G1 Y3.78 Z2.7203
G1 Y-3.82
G1 Y-4.02 Z2.1158
G1 Y-4.32
G0 Z2.7203
G1 F300.0 X3.8988
G1 F800.0 Y-4.02
G1 Y-3.82 Z3.3249
G1 Y3.78
G1 Y3.98 Z2.7203
G1 Y4.18
G1 Y4.32
G1 F300.0 X3.3988
G1 F800.0 Y4.18
G1 Y3.98
G1 Y3.78 Z3.9294
G1 Y-3.82
G1 Y-4.02 Z2.7203
G1 Y-4.32
G0 Z3.3249
G1 F300.0 X2.8988
G1 F800.0 Y-4.02
G1 Y-3.82 Z3.9294
G1 Y3.78
G1 Y3.98 Z3.3249
G1 Y4.18
G1 Y4.32
G0 Z3.0
G0 X6.3988
G1 F300.0 Z4.0
G1 F800.0 Y4.18
G1 Y-4.32
G0 X5.8988
G1 F300.0 Z3.0
G1 F800.0 Y4.18
G1 Y4.32
G0 X5.3988
G1 F300.0 Z2.0
G1 F800.0 Y4.18
G1 Y3.98
G1 Y3.78 Z2.1158
G1 Y-3.82
G1 Y-4.02 Z2.0
G1 Y-4.32
G0 Z2.1158
G1 F300.0 X4.8988
G1 F800.0 Y-4.02
G1 Y-3.82 Z2.7203
G1 Y3.78
G1 Y3.98 Z2.1158
G1 Y4.18
G1 Y4.32
G1 F300.0 X4.3988
G1 F800.0 Y4.18
G1 Y3.98
G1 Y3.78 Z2.7203
G1 Y-3.82
G1 Y-4.02 Z2.1158
G1 Y-4.32
G0 Z2.7203
G1 F300.0 X3.8988
G1 F800.0 Y-4.02
G1 Y-3.82 Z3.3249
G1 Y3.78
G1 Y3.98 Z2.7203
G1 Y4.18
G1 Y4.32
G0 Z3.0
G0 X7.3988
G1 F300.0 Z4.0
G1 F800.0 Y4.18
G1 Y-4.32
G0 X6.8988
G1 F300.0 Z3.0
G1 F800.0 Y4.18
G1 Y4.32
G0 X6.3988
G1 F300.0 Z2.0
G1 F800.0 Y4.18
G1 Y-4.32
G1 F300.0 X5.8988
G1 Z1.5113
G1 F800.0 Y-3.82
G1 Y-3.62 Z2.1158
G1 Y3.78
G1 Y3.98 Z1.5113
G1 Y4.18
G1 Y4.32
G1 F300.0 X5.3988
G1 F800.0 Y4.18
G1 Y3.98
G1 Y3.78 Z2.1158
G1 Y-3.82
G1 Y-4.02 Z1.5113
G1 Y-4.32
G0 Z2.1158
G1 F300.0 X4.8988
G1 F800.0 Y-4.02
G1 Y-3.82 Z2.7203
G1 Y3.78
G1 Y3.98 Z2.1158
G1 Y4.18
G1 Y4.32
G0 Z3.0
G0 X7.8988 Y-4.2217
G1 Y4.2217
G0 X7.3988 Y4.32
G1 F300.0 Z2.0
G1 F800.0 Y4.18
G1 Y-4.32
G1 F300.0 X6.8988
G1 Z1.0
G1 F800.0 Y-3.82
G1 Y-3.62 Z1.5113
G1 Y3.78
G1 Y3.98 Z1.0
G1 Y4.18
G1 Y4.32
G1 F300.0 X6.3988
G1 Z0.9068
G1 F800.0 Y4.18
G1 Y3.98
G1 Y3.78 Z1.5113
G1 Y-3.62
G1 Y-3.82 Z0.9068
G1 Y-4.32
G0 Z1.5113
G1 F300.0 X5.8988
G1 F800.0 Y-3.82
G1 Y-3.62 Z2.1158
G1 Y3.78
G1 Y3.98 Z1.5113
G1 Y4.18
G1 Y4.32
G0 Z3.0
G0 X7.8988 Y-4.2217
G1 F300.0 Z1.0
G1 F800.0 Y4.2217
G1 F300.0 X7.3988 Y4.32
G1 Z0.3023
G1 F800.0 Y4.18
G1 Y3.98
G1 Y3.78 Z0.9068
G1 Y-3.62
G1 Y-3.82 Z0.3023
G1 Y-4.32
G0 Z0.9068
G1 F300.0 X6.8988
G1 F800.0 Y-3.82
G1 Y-3.62 Z1.5113
G1 Y3.78
G1 Y3.98 Z0.9068
G1 Y4.18
G1 Y4.32
G0 Z3.0
G0 X7.8988 Y-4.2217
G0 Z2.0
G1 F300.0 Z0.3023
G1 F800.0 Y-3.82
G1 Y-3.62 Z0.9068
G1 Y3.78
G1 Y3.98 Z0.3023
G1 Y4.2217
G0 Z3.0
M5
M30
