;PYCAM-META-DATA: Filename: C:\Users\SlawekFura\Desktop\Freya\Projekt\szkola\Biblioteka\Schody\schody_stl.stl
;PYCAM-META-DATA: Timestamp: 2019-09-03 17:38:40.686000
;PYCAM-META-DATA: Version: 0.5.1.1
;Estimated machine time: 29 minutes
G40 (disable tool radius compensation)
G49 (disable tool length compensation)
G80 (cancel modal motion)
G54 (select coordinate system 1)
G90 (disable incremental moves)
G21 (metric)
G61 (exact path mode)
F200.00000
S1000.00000
;PYCAM_TOOLPATH_SETTINGS: START
;[Bounds]
;maxz = 8.15177182198
;maxx = 17.8688396454
;maxy = 12.235
;minx = 0.0409999847412
;miny = -0.355024385452
;minz = 0.0
;
;[Tool]
;torus_radius = 0.25
;speed = 1000.0
;shape = CylindricalCutter
;tool_radius = 0.5
;feedrate = 200.0
;
;[Process]
;generator = PushCutter
;pocketing_type = none
;engrave_offset = 0.0
;milling_style = conventional
;path_direction = xy
;step_down = 3.0
;postprocessor = SimpleCutter
;material_allowance = 0.5
;
;PYCAM_TOOLPATH_SETTINGS: END
T1 M6
G0 Z25.0000
 X0.0410 Y-0.3550
G1 Z8.1518
 X17.8688
G0 Z25.0000
 X0.0410 Y0.6134
G1 Z8.1518
 X17.8688
G0 Z25.0000
 X0.0410 Y1.5819
G1 Z8.1518
 X17.8688
G0 Z25.0000
 X0.0410 Y2.5504
G1 Z8.1518
 X17.8688
G0 Z25.0000
 X0.0410 Y3.5188
G1 Z8.1518
 X17.8688
G0 Z25.0000
 X0.0410 Y4.4873
G1 Z8.1518
 X17.8688
G0 Z25.0000
 X0.0410 Y5.4558
G1 Z8.1518
 X17.8688
G0 Z25.0000
 X0.0410 Y6.4242
G1 Z8.1518
 X17.8688
G0 Z25.0000
 X0.0410 Y7.3927
G1 Z8.1518
 X17.8688
G0 Z25.0000
 X0.0410 Y8.3611
G1 Z8.1518
 X17.8688
G0 Z25.0000
 X0.0410 Y9.3296
G1 Z8.1518
 X17.8688
G0 Z25.0000
 X0.0410 Y10.2981
G1 Z8.1518
 X17.8688
G0 Z25.0000
 X0.0410 Y11.2665
G1 Z8.1518
 X17.8688
G0 Z25.0000
 X0.0410 Y12.2350
G1 Z8.1518
 X17.8688
G0 Z25.0000
 Y-0.3550
G1 Z8.1518
 Y12.2350
G0 Z25.0000
 X16.8784 Y-0.3550
G1 Z8.1518
 Y12.2350
G0 Z25.0000
 X15.8880 Y-0.3550
G1 Z8.1518
 Y12.2350
G0 Z25.0000
 X14.8975 Y-0.3550
G1 Z8.1518
 Y12.2350
G0 Z25.0000
 X13.9071 Y-0.3550
G1 Z8.1518
 Y12.2350
G0 Z25.0000
 X12.9167 Y-0.3550
G1 Z8.1518
 Y12.2350
G0 Z25.0000
 X11.9262 Y-0.3550
G1 Z8.1518
 Y12.2350
G0 Z25.0000
 X10.9358 Y-0.3550
G1 Z8.1518
 Y12.2350
G0 Z25.0000
 X9.9454 Y-0.3550
G1 Z8.1518
 Y12.2350
G0 Z25.0000
 X8.9549 Y-0.3550
G1 Z8.1518
 Y12.2350
G0 Z25.0000
 X7.9645 Y-0.3550
G1 Z8.1518
 Y12.2350
G0 Z25.0000
 X6.9740 Y-0.3550
G1 Z8.1518
 Y12.2350
G0 Z25.0000
 X5.9836 Y-0.3550
G1 Z8.1518
 Y12.2350
G0 Z25.0000
 X4.9932 Y-0.3550
G1 Z8.1518
 Y12.2350
G0 Z25.0000
 X4.0027 Y-0.3550
G1 Z8.1518
 Y12.2350
G0 Z25.0000
 X3.0123 Y-0.3550
G1 Z8.1518
 Y12.2350
G0 Z25.0000
 X2.0219 Y-0.3550
G1 Z8.1518
 Y12.2350
G0 Z25.0000
 X1.0314 Y-0.3550
G1 Z8.1518
 Y12.2350
G0 Z25.0000
 X0.0410 Y-0.3550
G1 Z8.1518
 Y12.2350
G0 Z25.0000
 Y-0.3550
G1 Z5.4345
 X12.9135
G0 Z25.0000
 X0.0410 Y0.6134
G1 Z5.4345
 X12.8484
G0 Z25.0000
 X0.0410 Y1.5819
G1 Z5.4345
 X12.8484
G0 Z25.0000
 X0.0410 Y2.5504
G1 Z5.4345
 X12.8484
G0 Z25.0000
 X0.0410 Y3.5188
G1 Z5.4345
 X12.8484
G0 Z25.0000
 X0.0410 Y4.4873
G1 Z5.4345
 X12.8484
G0 Z25.0000
 X0.0410 Y5.4558
G1 Z5.4345
 X12.8484
G0 Z25.0000
 X0.0410 Y6.4242
G1 Z5.4345
 X12.8484
G0 Z25.0000
 X0.0410 Y7.3927
G1 Z5.4345
 X12.8484
G0 Z25.0000
 X0.0410 Y8.3611
G1 Z5.4345
 X12.8484
G0 Z25.0000
 X0.0410 Y9.3296
G1 Z5.4345
 X12.8484
G0 Z25.0000
 X0.0410 Y10.2981
G1 Z5.4345
 X12.8484
G0 Z25.0000
 X0.0410 Y11.2665
G1 Z5.4345
 X12.8484
G0 Z25.0000
 X0.0410 Y12.2350
G1 Z5.4345
 X12.9154
G0 Z25.0000
 X11.9262 Y-0.3550
G1 Z5.4345
 Y12.2350
G0 Z25.0000
 X10.9358 Y-0.3550
G1 Z5.4345
 Y12.2350
G0 Z25.0000
 X9.9454 Y-0.3550
G1 Z5.4345
 Y12.2350
G0 Z25.0000
 X8.9549 Y-0.3550
G1 Z5.4345
 Y12.2350
G0 Z25.0000
 X7.9645 Y-0.3550
G1 Z5.4345
 Y12.2350
G0 Z25.0000
 X6.9740 Y-0.3550
G1 Z5.4345
 Y12.2350
G0 Z25.0000
 X5.9836 Y-0.3550
G1 Z5.4345
 Y12.2350
G0 Z25.0000
 X4.9932 Y-0.3550
G1 Z5.4345
 Y12.2350
G0 Z25.0000
 X4.0027 Y-0.3550
G1 Z5.4345
 Y12.2350
G0 Z25.0000
 X3.0123 Y-0.3550
G1 Z5.4345
 Y12.2350
G0 Z25.0000
 X2.0219 Y-0.3550
G1 Z5.4345
 Y12.2350
G0 Z25.0000
 X1.0314 Y-0.3550
G1 Z5.4345
 Y12.2350
G0 Z25.0000
 X0.0410 Y-0.3550
G1 Z5.4345
 Y12.2350
G0 Z25.0000
 Y-0.3550
G1 Z2.7173
 X5.5751
G0 Z25.0000
 X0.0410 Y0.6134
G1 Z2.7173
 X5.5100
G0 Z25.0000
 X0.0410 Y1.5819
G1 Z2.7173
 X5.5100
G0 Z25.0000
 X0.0410 Y2.5504
G1 Z2.7173
 X5.5100
G0 Z25.0000
 X0.0410 Y3.5188
G1 Z2.7173
 X5.5100
G0 Z25.0000
 X0.0410 Y4.4873
G1 Z2.7173
 X5.5100
G0 Z25.0000
 X0.0410 Y5.4558
G1 Z2.7173
 X5.5100
G0 Z25.0000
 X0.0410 Y6.4242
G1 Z2.7173
 X5.5100
G0 Z25.0000
 X0.0410 Y7.3927
G1 Z2.7173
 X5.5100
G0 Z25.0000
 X0.0410 Y8.3611
G1 Z2.7173
 X5.5100
G0 Z25.0000
 X0.0410 Y9.3296
G1 Z2.7173
 X5.5100
G0 Z25.0000
 X0.0410 Y10.2981
G1 Z2.7173
 X5.5100
G0 Z25.0000
 X0.0410 Y11.2665
G1 Z2.7173
 X5.5100
G0 Z25.0000
 X0.0410 Y12.2350
G1 Z2.7173
 X5.5770
G0 Z25.0000
 X4.9932 Y-0.3550
G1 Z2.7173
 Y12.2350
G0 Z25.0000
 X4.0027 Y-0.3550
G1 Z2.7173
 Y12.2350
G0 Z25.0000
 X3.0123 Y-0.3550
G1 Z2.7173
 Y12.2350
G0 Z25.0000
 X2.0219 Y-0.3550
G1 Z2.7173
 Y12.2350
G0 Z25.0000
 X1.0314 Y-0.3550
G1 Z2.7173
 Y12.2350
G0 Z25.0000
 X0.0410 Y-0.3550
G1 Z2.7173
 Y12.2350
G0 Z25.0000
F200.00000
S1000.00000
;PYCAM_TOOLPATH_SETTINGS: START
;[Bounds]
;maxz = 7.36177182198
;maxx = 17.4098396301
;maxy = 11.375
;minx = 0.5
;miny = 0.5
;minz = 0.0
;
;[Tool]
;torus_radius = 0.25
;speed = 1000.0
;shape = CylindricalCutter
;tool_radius = 0.5
;feedrate = 200.0
;
;[Process]
;generator = ContourFollow
;pocketing_type = none
;engrave_offset = 0.0
;milling_style = conventional
;path_direction = x
;step_down = 1.5
;postprocessor = SimpleCutter
;material_allowance = 0.0
;
;PYCAM_TOOLPATH_SETTINGS: END
G0 Z25.0000
 X16.6150 Y11.3750
G1 Z7.3618
 Y0.5000
G0 Z25.0000
 X13.8150 Y11.3750
G1 Z5.8894
 Y0.5000
 Y0.6119
 Y0.5000
G0 Z25.0000
 X11.4817 Y11.3750
G1 Z4.4171
 Y0.5000
G0 Z25.0000
 Y3.0185
G1 Z4.4171
 Y0.5000
G0 Z25.0000
 X6.4766 Y11.3750
G1 Z2.9447
 Y0.5000
G0 Z25.0000
 Y5.4252
G1 Z2.9447
 Y0.5000
G0 Z25.0000
 X4.1433 Y11.3750
G1 Z1.4724
 Y0.5000
G0 Z25.0000
 Y7.8318
G1 Z1.4724
 Y0.5000
G0 Z25.0000
F200.00000
S1000.00000
;PYCAM_TOOLPATH_SETTINGS: START
;[Bounds]
;maxz = 7.36177182198
;maxx = 17.4098396301
;maxy = 11.375
;minx = 0.5
;miny = 0.5
;minz = 0.0
;
;[Tool]
;torus_radius = 0.25
;speed = 1000.0
;shape = CylindricalCutter
;tool_radius = 0.5
;feedrate = 200.0
;
;[Process]
;generator = ContourFollow
;pocketing_type = none
;engrave_offset = 0.0
;milling_style = conventional
;path_direction = x
;step_down = 3.0
;postprocessor = SimpleCutter
;material_allowance = 0.0
;
;PYCAM_TOOLPATH_SETTINGS: END
G0 Z25.0000
 X16.6150 Y11.3750
G1 Z7.3618
 Y0.5000
G0 Z25.0000
 X12.4151 Y11.3750
G1 Z4.9078
 Y0.5000
G0 Z25.0000
 Y6.1747
G1 Z4.9078
 Y0.5000
G0 Z25.0000
 X5.5433 Y11.3750
G1 Z2.4539
 Y0.5000
G0 Z25.0000
 Y2.2691
G1 Z2.4539
 Y0.5000
G0 Z25.0000
G0 Z25.0000
M2 (end program)
