(Created with emc2b post processor 2019/09/08 16:48)
(tool change to 1 mm End Mill)
T4 M06 G43
G17 G90 G21
G00 Z4 S7000 M03
X-0.302 Y-2.388
Z6
G01 X-0.302 Y-2.388 Z0 F500
X0.0 Y-0.5 Z0.0
X7.69 Y-0.5 Z0.0
X7.69 Y0.0 Z0.3
X0.0 Y0.0 Z0.3
X0.0 Y0.5 Z0.6
X7.69 Y0.5 Z0.6
X7.69 Y1.0 Z0.9
X0.0 Y1.0 Z0.9
X0.0 Y1.5 Z1.21
X7.69 Y1.5 Z1.21
X7.69 Y2.0 Z1.51
X0.0 Y2.0 Z1.51
X0.0 Y2.5 Z1.81
X7.69 Y2.5 Z1.81
X7.69 Y3.0 Z2.11
X0.0 Y3.0 Z2.11
X0.0 Y3.5 Z2.41
X7.69 Y3.5 Z2.41
X7.69 Y4.0 Z2.71
X0.0 Y4.0 Z2.71
X0.0 Y4.5 Z3.02
X7.69 Y4.5 Z3.02
X7.69 Y5.0 Z3.32
X0.0 Y5.0 Z3.32
X0.0 Y5.5 Z3.62
X7.69 Y5.5 Z3.62
X7.69 Y6.0 Z3.92
X0.0 Y6.0 Z3.92
X0.0 Y6.0 Z3.92
X0.0 Y6.0 Z3.92
X0.0 Y6.0 Z3.92
X0.0 Y6.0 Z3.92
G00 Z4
T0 M06 M02
