(Created with emc2b post processor 2019/09/08 00:10)
(tool change to 1 mm End Mill)
T4 M06 G43
G17 G90 G21
G00 Z4 S7000 M03
X-9.467 Y-1.2
Z5
G01 X-9.467 Y-1.2 Z0 F500
X1 Y-1.2 Z0
X1 Y-0.408 Z0
X1 Y-0.408 Z0
X-9.467 Y-0.408 Z0
X-9.467 Y0.482 Z0
X-9.467 Y0.482 Z0.373
X1 Y0.482 Z0.373
X1 Y1.571 Z0.373
X1 Y1.571 Z0.977
X-9.467 Y1.571 Z0.977
X-9.467 Y2.462 Z0.977
X-9.467 Y2.462 Z1.582
X1 Y2.462 Z1.582
X1 Y3.551 Z1.582
X1 Y3.551 Z2.186
X-9.467 Y3.551 Z2.186
X-9.467 Y4.442 Z2.186
X-9.467 Y4.442 Z2.791
X1 Y4.442 Z2.791
X1 Y5.531 Z2.791
X1 Y5.531 Z3.395
X-9.467 Y5.531 Z3.395
X-9.467 Y5.531 Z3.395
X-9.467 Y6.719 Z4
X1 Y6.719 Z4
X1 Y7.709 Z4
X-9.467 Y7.709 Z4
X-9.467 Y8.699 Z4
X1 Y8.699 Z4
X1 Y9.59 Z3.395
X-9.467 Y9.788 Z3.395
X-9.467 Y9.788 Z3.395
X-9.467 Y10.679 Z3.395
X0.001 Y10.679 Z3.395
X1 Y10.679 Z3.395
X1 Y11.66 Z2.186
X-9.467 Y11.669 Z2.186
X-9.467 Y11.768 Z1.582
X-9.467 Y12.659 Z1.582
X0.101 Y12.659 Z1.582
X1 Y12.659 Z1.582
X1 Y13.649 Z0.977
X-9.467 Y13.649 Z0.977
X-9.467 Y13.748 Z0.373
X-9.467 Y14.639 Z0.373
X1.2 Y14.639 Z0.373
X1.2 Y14.639 Z0.373
X1.2 Y15.541 Z0
X-8.12 Y15.541 Z0
X-8.12 Y-0.5 Z0
X0.5 Y-0.5 Z0
X0.5 Y15.541 Z0
G00 Z4
T0 M06 M02
