( Made using CamBam - http://www.cambam.co.uk )
( StlMeshFormat 9/4/2019 3:41:42 PM )
( T1 : 1.0 )
G21 G90 G64 G40
G0 Z3.0
( T1 : 1.0 )
T1 M6
( 3DSurface1 )
G17
M3 S1000
G0 X-8.4583 Y-6.2949
G1 F300.0 Z0.3347
G1 F800.0 X-8.2 Z0.6747
G1 X-3.4
G1 X-3.2 Z0.3347
G1 X-2.9517
G0 Z3.0
G0 X-8.5 Y-5.8949
G1 F300.0 Z0.6747
G1 F800.0 X-8.2 Z1.0147
G1 X-3.4
G1 X-2.91 Z0.3347
G0 Z3.0
G0 X-8.5 Y-5.4949
G1 F300.0 Z1.0147
G1 F800.0 X-3.2
G1 X-2.91 Z0.6747
G0 Z3.0
G0 X-8.5 Y-5.0949
G1 F300.0 Z1.0147
G1 F800.0 X-8.2 Z1.3547
G1 X-3.4
G1 X-3.2 Z1.0147
G1 X-2.91
G0 Z3.0
G0 X-8.5 Y-4.6949
G1 F300.0 Z1.3547
G1 F800.0 X-8.2
G1 X-8.0 Z1.6947
G1 X-3.4
G1 X-2.91 Z1.0147
G0 Z3.0
G0 X-8.5 Y-4.2949
G1 F300.0 Z1.3547
G1 F800.0 X-8.2 Z1.6947
G1 X-3.2
G1 X-2.91 Z1.3547
G0 Z3.0
G0 X-8.5 Y-3.8949
G1 F300.0 Z1.6947
G1 F800.0 X-8.2 Z2.0347
G1 X-3.4
G1 X-3.2 Z1.6947
G1 X-2.91
G0 Z3.0
G0 X-8.5 Y-3.4949
G1 F300.0 Z2.0347
G1 F800.0 X-8.2 Z2.3747
G1 X-3.4
G1 X-2.91 Z1.6947
G0 Z3.0
G0 X-8.5 Y-3.0949
G1 F300.0 Z2.3747
G1 F800.0 X-3.2
G1 X-2.91 Z2.0347
G0 Z3.0
G0 X-8.5 Y-2.6949
G1 F300.0 Z2.3747
G1 F800.0 X-2.91
G0 Z3.0
G0 X-8.5 Y-2.2949
G1 F300.0 Z2.3747
G1 F800.0 X-2.91
G0 Z3.0
G0 X-8.5 Y-1.8949
G1 F300.0 Z2.3747
G1 F800.0 X-2.91
G0 Z3.0
G0 X-8.5 Y-1.4949
G1 F300.0 Z2.3747
G1 F800.0 X-2.91
G0 Z3.0
G0 X-8.5 Y-1.0949
G1 F300.0 Z2.3747
G1 F800.0 X-2.91
G0 Z3.0
G0 X-8.5 Y-0.6949
G1 F300.0 Z2.3747
G1 F800.0 X-3.2
G1 X-2.91 Z2.0347
G0 Z3.0
G0 X-8.5 Y-0.2949
G1 F300.0 Z2.0347
G1 F800.0 X-8.2 Z2.3747
G1 X-3.4
G1 X-3.2 Z2.0347
G1 X-2.91
G0 Z3.0
G0 X-8.5 Y0.1051
G1 F300.0 Z1.6947
G1 F800.0 X-8.2 Z2.0347
G1 X-3.2
G1 X-2.91 Z1.6947
G0 Z3.0
G0 X-8.5 Y0.5051
G1 F300.0 Z1.3547
G1 F800.0 X-8.0 Z2.0347
G1 X-3.4
G1 X-2.91 Z1.3547
G0 Z3.0
G0 X-8.5 Y0.9051
G1 F300.0 Z1.3547
G1 F800.0 X-8.2
G1 X-8.0 Z1.6947
G1 X-3.4
G1 X-3.2 Z1.3547
G1 X-2.91
G0 Z3.0
G0 X-8.5 Y1.3051
G1 F300.0 Z1.0147
G1 F800.0 X-8.2 Z1.3547
G1 X-3.2
G1 X-2.91 Z1.0147
G0 Z3.0
G0 X-8.5 Y1.7051
G1 F300.0 Z0.6747
G1 F800.0 X-8.0 Z1.3547
G1 X-3.4
G1 X-2.91 Z0.6747
G0 Z3.0
G0 X-8.5 Y2.1051
G1 F300.0 Z0.3347
G1 F800.0 X-8.0 Z1.0147
G1 X-3.4
G1 X-2.91 Z0.3347
G0 Z3.0
G0 X-8.4975 Y2.5051
G1 F300.0 Z0.3347
G1 F800.0 X-8.2
G1 X-8.0 Z0.6747
G1 X-3.4
G1 X-3.2 Z0.3347
G1 X-2.9125
G0 Z3.0
G0 X-8.2184 Y2.9051
G1 F300.0 Z0.3347
G1 F800.0 X-3.1916
G0 Z3.0
M5
M30
