%
(Header)
(Generated by gcodetools from Inkscape.)
(Using default header. To add your own header create file "header" in the output dir.)
M3
(Header end.)
G21 (All units in mm)

(Start cutting path id: path9222-5-0-5-9-9)
(Change tool to Cylindrical cutter)

G00 Z2.000000
G00 X-13.393711 Y109.490117

G01 Z-1.500000 F100.0(Penetrate)
G02 X-14.425912 Y109.640165 Z-1.500000 I-0.000337 J3.623050 F400.000000
G03 X-14.672760 Y109.459117 Z-1.500000 I-0.054725 J-0.184191
G01 X-14.010854 Y109.031487 Z-1.500000
G02 X-14.035959 Y108.879142 Z-1.500000 I-0.524250 J0.008148
G03 X-13.923004 Y108.724157 Z-1.500000 I0.112966 J-0.036323
G03 X-13.709203 Y108.690050 Z-1.500000 I0.183413 J0.462560
G02 X-12.323825 Y108.747757 Z-1.500000 I2.173847 J-35.529253
G02 X-12.245241 Y108.739773 Z-1.500000 I0.000075 J-0.389980
G03 X-11.982371 Y108.711657 Z-1.500000 I0.277199 J1.348762
G02 X-11.702438 Y108.699538 Z-1.500000 I-0.388503 J-12.212506
G01 X-11.672032 Y108.727857 Z-1.500000
G01 X-12.372456 Y108.908917 Z-1.500000
G01 X-12.380469 Y108.910226 Z-1.500000
G02 X-13.294175 Y109.253257 Z-1.500000 I4.391288 J13.085132
G01 X-13.393711 Y109.490117 Z-1.500000
G00 Z2.000000

(End cutting path id: path9222-5-0-5-9-9)


(Start cutting path id: path9222-5-0-5-9)
(Change tool to Cylindrical cutter)

G00 Z2.000000
G00 X-13.138647 Y110.012427

G01 Z-1.500000 F100.0(Penetrate)
G02 X-15.537250 Y110.360778 Z-1.500000 I-0.000674 J8.427457 F400.000000
G03 X-16.109950 Y109.940627 Z-1.500000 I-0.126872 J-0.427457
G01 X-14.572306 Y108.947227 Z-1.500000
G02 X-14.630526 Y108.593110 Z-1.500000 I-1.217087 J0.018255
G03 X-14.368225 Y108.233287 Z-1.500000 I0.262323 J-0.084291
G03 X-13.871530 Y108.154032 Z-1.500000 I0.426100 J1.074349
G02 X-10.653243 Y108.287987 Z-1.500000 I5.039979 J-82.359068
G02 X-10.470707 Y108.269457 Z-1.500000 I0.000151 J-0.906851
G03 X-9.860024 Y108.204187 Z-1.500000 I0.644158 J3.137420
G02 X-9.209521 Y108.176880 Z-1.500000 I-0.224331 J-13.105383
G03 X-9.139087 Y108.241687 Z-1.500000 I0.004407 J0.065888
G01 X-10.766214 Y108.662297 Z-1.500000
G02 X-10.784646 Y108.665307 Z-1.500000 I0.000000 J0.057940
G02 X-12.907423 Y109.462217 Z-1.500000 I10.196059 J30.385594
G01 X-13.138647 Y110.012427 Z-1.500000
G00 Z2.000000

(End cutting path id: path9222-5-0-5-9)


(Start cutting path id: path9222-5-0-5)
(Change tool to Cylindrical cutter)

G00 Z2.000000
G00 X-12.895886 Y110.757797

G01 Z-1.500000 F100.0(Penetrate)
G02 X-16.957827 Y111.347717 Z-1.500000 I-0.001348 J14.270087 F400.000000
G03 X-17.927812 Y110.636117 Z-1.500000 I-0.214892 J-0.723974
G01 X-15.323795 Y108.953777 Z-1.500000
G02 X-15.422350 Y108.354081 Z-1.500000 I-2.058755 J0.030391
G03 X-14.978186 Y107.744717 Z-1.500000 I0.444197 J-0.142783
G01 X-8.686829 Y107.837517 Z-1.500000
G02 X-8.377703 Y107.806116 Z-1.500000 I0.000151 J-1.535791
G03 X-7.343508 Y107.695687 Z-1.500000 I1.089334 J5.303935
G02 X-6.241853 Y107.650012 Z-1.500000 I-0.177881 J-17.598594
G03 X-6.122594 Y107.759087 Z-1.500000 I0.008084 J0.110896
G01 X-8.878147 Y108.471377 Z-1.500000
G02 X-10.687317 Y109.128359 Z-1.500000 I34.432809 J97.639268
G02 X-12.504302 Y109.826047 Z-1.500000 I37.877408 J101.358638
G01 X-12.895886 Y110.757797 Z-1.500000
G00 Z2.000000

(End cutting path id: path9222-5-0-5)


(Start cutting path id: path9222-5-4-1-6)
(Change tool to Cylindrical cutter)

G00 Z2.000000
G00 X-14.203008 Y120.497617

G01 Z-1.500000 F100.0(Penetrate)
G03 X-13.867765 Y120.547279 Z-1.500000 I0.000425 J1.153504 F400.000000
G01 X-13.806187 Y120.501617 Z-1.500000
G01 X-14.142626 Y120.322447 Z-1.500000
G01 X-14.153800 Y120.314505 Z-1.500000
G03 X-14.200426 Y120.322367 Z-1.500000 I-0.046521 J-0.133698
G01 X-14.531719 Y120.308267 Z-1.500000
G03 X-14.624696 Y120.293579 Z-1.500000 I-0.000000 J-0.301609
G01 X-14.650403 Y120.312267 Z-1.500000
G01 X-14.535280 Y120.374067 Z-1.500000
G01 X-14.535098 Y120.379887 Z-1.500000
G03 X-14.372334 Y120.517787 Z-1.500000 I-0.018381 J0.186700
G01 X-14.203008 Y120.497617 Z-1.500000
G00 Z2.000000

(End cutting path id: path9222-5-4-1-6)


(Start cutting path id: path9222-5-4-7)
(Change tool to Cylindrical cutter)

G00 Z2.000000
G00 X-13.995478 Y120.859077

G01 Z-1.500000 F100.0(Penetrate)
G03 X-12.271681 Y121.157425 Z-1.500000 I0.000350 J5.127037 F400.000000
G02 X-11.853998 Y120.863077 Z-1.500000 I0.105081 J-0.294412
G01 X-13.669626 Y119.896197 Z-1.500000
G01 X-13.730193 Y119.853194 Z-1.500000
G03 X-13.981558 Y119.895717 Z-1.500000 I-0.250898 J-0.718919
G01 X-15.769421 Y119.819317 Z-1.500000
G03 X-16.284945 Y119.739052 Z-1.500000 I-0.000116 J-1.694924
G02 X-16.409907 Y119.830317 Z-1.500000 I-0.029139 J0.091285
G01 X-15.788630 Y120.163807 Z-1.500000
G01 X-15.789295 Y120.181688 Z-1.500000
G03 X-14.909281 Y120.939397 Z-1.500000 I-0.115014 J1.023464
G01 X-13.995478 Y120.859077 Z-1.500000
G00 Z2.000000

(End cutting path id: path9222-5-4-7)


(Start cutting path id: path9222-5-8)
(Change tool to Cylindrical cutter)

G00 Z2.000000
G00 X-13.727704 Y121.182737

G01 Z-1.500000 F100.0(Penetrate)
G03 X-11.063146 Y121.635838 Z-1.500000 I0.000292 J8.059602 F400.000000
G02 X-10.488078 Y121.228037 Z-1.500000 I0.142871 J-0.407899
G01 X-12.812280 Y119.709017 Z-1.500000
G02 X-12.837988 Y119.587591 Z-1.500000 I-0.299939 J0.000068
G02 X-13.358660 Y119.266477 Z-1.500000 I-0.494459 J0.219065
G01 X-17.070067 Y119.428797 Z-1.500000
G03 X-18.671515 Y118.873129 Z-1.500000 I-0.000094 J-2.585267
G02 X-18.984671 Y119.024897 Z-1.500000 I-0.119780 J0.151813
G01 X-17.106262 Y120.009707 Z-1.500000
G03 X-15.948124 Y120.525327 Z-1.500000 I-0.609426 J2.927301
G03 X-15.493132 Y121.669737 Z-1.500000 I-0.685386 J0.935146
G01 X-13.727704 Y121.182737 Z-1.500000
G00 Z2.000000

(End cutting path id: path9222-5-8)


(Start cutting path id: path9222-5-4)
(Change tool to Cylindrical cutter)

G00 Z2.000000
G00 X-14.291559 Y131.259227

G01 Z-1.500000 F100.0(Penetrate)
G02 X-16.015356 Y131.557575 Z-1.500000 I-0.000350 J5.127037 F400.000000
G03 X-16.433039 Y131.263227 Z-1.500000 I-0.105081 J-0.294412
G01 X-14.617411 Y130.296347 Z-1.500000
G01 X-14.556844 Y130.253344 Z-1.500000
G02 X-14.305479 Y130.295867 Z-1.500000 I0.250898 J-0.718919
G01 X-12.517615 Y130.219467 Z-1.500000
G02 X-12.002091 Y130.139202 Z-1.500000 I0.000116 J-1.694924
G03 X-11.877129 Y130.230467 Z-1.500000 I0.029139 J0.091285
G01 X-12.498406 Y130.563957 Z-1.500000
G01 X-12.497741 Y130.581838 Z-1.500000
G02 X-13.377756 Y131.339547 Z-1.500000 I0.115013 J1.023464
G01 X-14.291559 Y131.259227 Z-1.500000
G00 Z2.000000

(End cutting path id: path9222-5-4)


(Start cutting path id: path9222-5)
(Change tool to Cylindrical cutter)

G00 Z2.000000
G00 X-14.559333 Y131.582885

G01 Z-1.500000 F100.0(Penetrate)
G02 X-17.223811 Y132.036005 Z-1.500000 I-0.000389 J8.058224 F400.000000
G03 X-17.798959 Y131.628163 Z-1.500000 I-0.142903 J-0.407940
G01 X-15.173284 Y129.958406 Z-1.500000
G03 X-15.095196 Y129.871334 Z-1.500000 I0.087611 J0.000020
G03 X-14.742855 Y129.852120 Z-1.500000 I0.352498 J3.223721
G01 X-11.216969 Y129.828918 Z-1.500000
G02 X-9.615504 Y129.273258 Z-1.500000 I0.000125 J-2.585256
G03 X-9.302365 Y129.425019 Z-1.500000 I0.119773 J0.151805
G01 X-11.180774 Y130.409837 Z-1.500000
G02 X-12.338911 Y130.925452 Z-1.500000 I0.609408 J2.927276
G02 X-12.793905 Y132.069865 Z-1.500000 I0.685386 J0.935149
G01 X-14.559333 Y131.582885 Z-1.500000
G00 Z2.000000

(End cutting path id: path9222-5)


(Start cutting path id: path9234)
(Change tool to Cylindrical cutter)

G00 Z2.000000
G00 X-17.768750 Y118.807920

G01 Z-1.500000 F100.0(Penetrate)
G03 X-19.182905 Y118.222075 Z-1.500000 I0.000200 J-2.000200 F400.000000
G03 X-19.768750 Y116.807920 Z-1.500000 I1.414355 J-1.414355
G01 X-19.768750 Y113.233710 Z-1.500000
G03 X-19.182216 Y111.820815 Z-1.500000 I2.000199 J0.002150
G03 X-17.768750 Y111.235660 Z-1.500000 I1.413665 J1.415045
G01 X-14.196484 Y111.235660 Z-1.500000
G03 X-12.782329 Y111.821505 Z-1.500000 I-0.000200 J2.000200
G03 X-12.196484 Y113.235660 Z-1.500000 I-1.414355 J1.414355
G01 X-12.196484 Y116.807920 Z-1.500000
G03 X-12.782329 Y118.222075 Z-1.500000 I-2.000200 J-0.000200
G03 X-14.196484 Y118.807920 Z-1.500000 I-1.414355 J-1.414355
G01 X-17.768750 Y118.807920 Z-1.500000
G00 Z2.000000

(End cutting path id: path9234)


(Start cutting path id: path9232)
(Change tool to Cylindrical cutter)

G00 Z2.000000
G00 X-17.768750 Y118.208320

G01 Z-1.500000 F100.0(Penetrate)
G03 X-18.304698 Y118.101788 Z-1.500000 I-0.000251 J-1.400140 F400.000000
G03 X-18.759053 Y117.798225 Z-1.500000 I0.535696 J-1.293608
G03 X-19.062612 Y117.343868 Z-1.500000 I0.990052 J-0.990045
G03 X-19.169141 Y116.807920 Z-1.500000 I1.293611 J-0.535688
G01 X-19.169141 Y113.233710 Z-1.500000
G03 X-18.758360 Y112.244672 Z-1.500000 I1.400139 J0.001700
G03 X-17.768750 Y111.835270 Z-1.500000 I0.989358 J0.990738
G01 X-14.196484 Y111.835270 Z-1.500000
G03 X-13.660539 Y111.941801 Z-1.500000 I0.000250 J1.400140
G03 X-13.206185 Y112.245361 Z-1.500000 I-0.535695 J1.293609
G03 X-12.902625 Y112.699715 Z-1.500000 I-0.990048 J0.990048
G03 X-12.796094 Y113.235660 Z-1.500000 I-1.293609 J0.535695
G01 X-12.796094 Y116.807920 Z-1.500000
G03 X-12.902623 Y117.343868 Z-1.500000 I-1.400140 J0.000260
G03 X-13.206182 Y117.798225 Z-1.500000 I-1.293611 J-0.535688
G03 X-13.660537 Y118.101788 Z-1.500000 I-0.990052 J-0.990045
G03 X-14.196484 Y118.208320 Z-1.500000 I-0.535697 J-1.293608
G01 X-17.768750 Y118.208320 Z-1.500000
G00 Z2.000000

(End cutting path id: path9232)


(Start cutting path id: path9230)
(Change tool to Cylindrical cutter)

G00 Z2.000000
G00 X-17.768750 Y117.307920

G01 Z-1.500000 F100.0(Penetrate)
G03 X-18.122289 Y117.161459 Z-1.500000 I0.000050 J-0.500050 F400.000000
G03 X-18.268750 Y116.807920 Z-1.500000 I0.353589 J-0.353589
G01 X-18.268750 Y113.235660 Z-1.500000
G03 X-18.122289 Y112.882121 Z-1.500000 I0.500050 J0.000050
G03 X-17.768750 Y112.735660 Z-1.500000 I0.353589 J0.353589
G01 X-14.196484 Y112.735660 Z-1.500000
G03 X-13.842945 Y112.882121 Z-1.500000 I-0.000050 J0.500050
G03 X-13.696484 Y113.235660 Z-1.500000 I-0.353589 J0.353589
G01 X-13.696484 Y116.807920 Z-1.500000
G03 X-13.842945 Y117.161459 Z-1.500000 I-0.500050 J-0.000050
G03 X-14.196484 Y117.307920 Z-1.500000 I-0.353589 J-0.353589
G01 X-17.768750 Y117.307920 Z-1.500000
G00 Z2.000000

(End cutting path id: path9230)


(Start cutting path id: path9226)
(Change tool to Cylindrical cutter)

G00 Z2.000000
G00 X-14.270703 Y129.307920

G01 Z-1.500000 F100.0(Penetrate)
G03 X-15.684858 Y128.722075 Z-1.500000 I0.000200 J-2.000200 F400.000000
G03 X-16.270703 Y127.307920 Z-1.500000 I1.414355 J-1.414355
G01 X-16.268703 Y123.733710 Z-1.500000
G03 X-15.682169 Y122.320815 Z-1.500000 I2.000199 J0.002150
G03 X-14.268703 Y121.735660 Z-1.500000 I1.413665 J1.415045
G01 X-10.696437 Y121.735660 Z-1.500000
G03 X-9.282282 Y122.321505 Z-1.500000 I-0.000200 J2.000200
G03 X-8.696437 Y123.735660 Z-1.500000 I-1.414355 J1.414355
G01 X-8.696437 Y127.307920 Z-1.500000
G03 X-9.282282 Y128.722075 Z-1.500000 I-2.000200 J-0.000200
G03 X-10.696437 Y129.307920 Z-1.500000 I-1.414355 J-1.414355
G01 X-14.270703 Y129.307920 Z-1.500000
G00 Z2.000000

(End cutting path id: path9226)


(Start cutting path id: path9224)
(Change tool to Cylindrical cutter)

G00 Z2.000000
G00 X-14.270703 Y128.708320

G01 Z-1.500000 F100.0(Penetrate)
G03 X-15.259743 Y128.297535 Z-1.500000 I0.001702 J-1.400139 F400.000000
G03 X-15.669141 Y127.307920 Z-1.500000 I0.990742 J-0.989354
G01 X-15.669141 Y123.733710 Z-1.500000
G03 X-15.258360 Y122.744672 Z-1.500000 I1.400139 J0.001700
G03 X-14.268750 Y122.335270 Z-1.500000 I0.989358 J0.990738
G01 X-10.696484 Y122.335270 Z-1.500000
G03 X-10.160539 Y122.441801 Z-1.500000 I0.000250 J1.400140
G03 X-9.706185 Y122.745361 Z-1.500000 I-0.535695 J1.293609
G03 X-9.402625 Y123.199715 Z-1.500000 I-0.990048 J0.990048
G03 X-9.296094 Y123.735660 Z-1.500000 I-1.293609 J0.535695
G01 X-9.296094 Y127.307920 Z-1.500000
G03 X-9.402623 Y127.843868 Z-1.500000 I-1.400140 J0.000260
G03 X-9.706182 Y128.298225 Z-1.500000 I-1.293611 J-0.535688
G03 X-10.160537 Y128.601788 Z-1.500000 I-0.990052 J-0.990045
G03 X-10.696484 Y128.708320 Z-1.500000 I-0.535697 J-1.293608
G01 X-14.270703 Y128.708320 Z-1.500000
G00 Z2.000000

(End cutting path id: path9224)


(Start cutting path id: path9222)
(Change tool to Cylindrical cutter)

G00 Z2.000000
G00 X-14.270703 Y127.807920

G01 Z-1.500000 F100.0(Penetrate)
G03 X-14.624242 Y127.661459 Z-1.500000 I0.000050 J-0.500050 F400.000000
G03 X-14.770703 Y127.307920 Z-1.500000 I0.353589 J-0.353589
G01 X-14.768703 Y123.735660 Z-1.500000
G03 X-14.622242 Y123.382121 Z-1.500000 I0.500050 J0.000050
G03 X-14.268703 Y123.235660 Z-1.500000 I0.353589 J0.353589
G01 X-10.696437 Y123.235660 Z-1.500000
G03 X-10.342898 Y123.382121 Z-1.500000 I-0.000050 J0.500050
G03 X-10.196437 Y123.735660 Z-1.500000 I-0.353589 J0.353589
G01 X-10.196437 Y127.307920 Z-1.500000
G03 X-10.342898 Y127.661459 Z-1.500000 I-0.500050 J-0.000050
G03 X-10.696437 Y127.807920 Z-1.500000 I-0.353589 J-0.353589
G01 X-14.270703 Y127.807920 Z-1.500000
G00 Z2.000000

(End cutting path id: path9222)


(Start cutting path id: path9218)
(Change tool to Cylindrical cutter)

G00 Z2.000000
G00 X-17.770703 Y139.807920

G01 Z-1.500000 F100.0(Penetrate)
G03 X-19.184858 Y139.222075 Z-1.500000 I0.000200 J-2.000200 F400.000000
G03 X-19.770703 Y137.807920 Z-1.500000 I1.414355 J-1.414355
G01 X-19.770703 Y134.233710 Z-1.500000
G03 X-19.184858 Y132.819555 Z-1.500000 I2.000200 J0.000200
G03 X-17.770703 Y132.233710 Z-1.500000 I1.414355 J1.414355
G01 X-14.196484 Y132.233710 Z-1.500000
G03 X-13.430698 Y132.386191 Z-1.500000 I-0.000199 J2.000200
G03 X-12.781639 Y132.820244 Z-1.500000 I-0.765986 J1.847719
G03 X-12.348218 Y133.469725 Z-1.500000 I-1.415044 J1.413666
G03 X-12.196484 Y134.235660 Z-1.500000 I-1.848465 J0.764185
G01 X-12.196484 Y137.807920 Z-1.500000
G03 X-12.782329 Y139.222075 Z-1.500000 I-2.000200 J-0.000200
G03 X-14.196484 Y139.807920 Z-1.500000 I-1.414355 J-1.414355
G01 X-17.770703 Y139.807920 Z-1.500000
G00 Z2.000000

(End cutting path id: path9218)


(Start cutting path id: path9216)
(Change tool to Cylindrical cutter)

G00 Z2.000000
G00 X-17.770703 Y139.208320

G01 Z-1.500000 F100.0(Penetrate)
G03 X-18.306651 Y139.101788 Z-1.500000 I-0.000251 J-1.400140 F400.000000
G03 X-18.761006 Y138.798225 Z-1.500000 I0.535696 J-1.293608
G03 X-19.064565 Y138.343868 Z-1.500000 I0.990052 J-0.990045
G03 X-19.171094 Y137.807920 Z-1.500000 I1.293611 J-0.535688
G01 X-19.169094 Y134.233710 Z-1.500000
G03 X-18.759004 Y133.245361 Z-1.500000 I1.400139 J0.001699
G03 X-17.770656 Y132.835270 Z-1.500000 I0.990049 J0.990048
G01 X-14.196437 Y132.835270 Z-1.500000
G03 X-13.206828 Y133.244672 Z-1.500000 I0.000251 J1.400140
G03 X-12.796047 Y134.233710 Z-1.500000 I-0.989358 J0.990738
G01 X-12.796047 Y137.807920 Z-1.500000
G03 X-12.902576 Y138.343868 Z-1.500000 I-1.400140 J0.000260
G03 X-13.206135 Y138.798225 Z-1.500000 I-1.293611 J-0.535688
G03 X-13.660490 Y139.101788 Z-1.500000 I-0.990052 J-0.990045
G03 X-14.196437 Y139.208320 Z-1.500000 I-0.535697 J-1.293608
G01 X-17.770703 Y139.208320 Z-1.500000
G00 Z2.000000

(End cutting path id: path9216)


(Start cutting path id: path9214)
(Change tool to Cylindrical cutter)

G00 Z2.000000
G00 X-17.770703 Y138.307920

G01 Z-1.500000 F100.0(Penetrate)
G03 X-18.124242 Y138.161459 Z-1.500000 I0.000050 J-0.500050 F400.000000
G03 X-18.270703 Y137.807920 Z-1.500000 I0.353589 J-0.353589
G01 X-18.270703 Y134.233710 Z-1.500000
G03 X-18.124242 Y133.880171 Z-1.500000 I0.500050 J0.000050
G03 X-17.770703 Y133.733710 Z-1.500000 I0.353589 J0.353589
G01 X-14.196484 Y133.733710 Z-1.500000
G03 X-13.842945 Y133.880171 Z-1.500000 I-0.000050 J0.500050
G03 X-13.696484 Y134.233710 Z-1.500000 I-0.353589 J0.353589
G01 X-13.696484 Y137.807920 Z-1.500000
G03 X-13.842945 Y138.161459 Z-1.500000 I-0.500050 J-0.000050
G03 X-14.196484 Y138.307920 Z-1.500000 I-0.353589 J-0.353589
G01 X-17.770703 Y138.307920 Z-1.500000
G00 Z2.000000

(End cutting path id: path9214)


(Start cutting path id: path6888)
(Change tool to Cylindrical cutter)

G00 Z2.000000
G00 X-14.561719 Y107.202460

G01 Z-1.500000 F100.0(Penetrate)
G03 X-15.268796 Y106.909537 Z-1.500000 I0.000100 J-1.000100 F400.000000
G03 X-15.561719 Y106.202460 Z-1.500000 I0.707177 J-0.707177
G01 X-15.561719 Y103.372380 Z-1.500000
G03 X-15.268796 Y102.665303 Z-1.500000 I1.000100 J0.000100
G03 X-14.561719 Y102.372380 Z-1.500000 I0.707177 J0.707177
G03 X-15.268796 Y102.079457 Z-1.500000 I0.000100 J-1.000100
G03 X-15.561719 Y101.372380 Z-1.500000 I0.707177 J-0.707177
G01 X-15.561719 Y98.542300 Z-1.500000
G03 X-15.268796 Y97.835223 Z-1.500000 I1.000100 J0.000100
G03 X-14.561719 Y97.542300 Z-1.500000 I0.707177 J0.707177
G01 X-11.731641 Y97.542300 Z-1.500000
G03 X-11.024564 Y97.835223 Z-1.500000 I-0.000100 J1.000100
G03 X-10.731641 Y98.542300 Z-1.500000 I-0.707177 J0.707177
G03 X-10.438718 Y97.835223 Z-1.500000 I1.000100 J0.000100
G03 X-9.731641 Y97.542300 Z-1.500000 I0.707177 J0.707177
G01 X-6.901562 Y97.542300 Z-1.500000
G03 X-6.194485 Y97.835223 Z-1.500000 I-0.000100 J1.000100
G03 X-5.901562 Y98.542300 Z-1.500000 I-0.707177 J0.707177
G01 X-5.901562 Y101.372380 Z-1.500000
G03 X-6.194485 Y102.079457 Z-1.500000 I-1.000100 J-0.000100
G03 X-6.901562 Y102.372380 Z-1.500000 I-0.707177 J-0.707177
G03 X-6.194485 Y102.665303 Z-1.500000 I-0.000100 J1.000100
G03 X-5.901562 Y103.372380 Z-1.500000 I-0.707177 J0.707177
G01 X-5.901562 Y106.202460 Z-1.500000
G03 X-6.194485 Y106.909537 Z-1.500000 I-1.000100 J-0.000100
G03 X-6.901562 Y107.202460 Z-1.500000 I-0.707177 J-0.707177
G01 X-9.731641 Y107.202460 Z-1.500000
G03 X-10.438718 Y106.909537 Z-1.500000 I0.000100 J-1.000100
G03 X-10.731641 Y106.202460 Z-1.500000 I0.707177 J-0.707177
G03 X-11.024564 Y106.909537 Z-1.500000 I-1.000100 J-0.000100
G03 X-11.731641 Y107.202460 Z-1.500000 I-0.707177 J-0.707177
G01 X-14.561719 Y107.202460 Z-1.500000
G00 Z2.000000

(End cutting path id: path6888)


(Start cutting path id: path6888)
(Change tool to Cylindrical cutter)

G00 Z2.000000
G00 X-10.731641 Y103.372380

G01 Z-1.500000 F100.0(Penetrate)
G03 X-10.438718 Y102.665303 Z-1.500000 I1.000100 J0.000100 F400.000000
G03 X-9.731641 Y102.372380 Z-1.500000 I0.707177 J0.707177
G03 X-10.438718 Y102.079457 Z-1.500000 I0.000100 J-1.000100
G03 X-10.731641 Y101.372380 Z-1.500000 I0.707177 J-0.707177
G03 X-11.024564 Y102.079457 Z-1.500000 I-1.000100 J-0.000100
G03 X-11.731641 Y102.372380 Z-1.500000 I-0.707177 J-0.707177
G03 X-11.024564 Y102.665303 Z-1.500000 I-0.000100 J1.000100
G03 X-10.731641 Y103.372380 Z-1.500000 I-0.707177 J0.707177
G01 X-10.731641 Y103.372380 Z-1.500000
G00 Z2.000000

(End cutting path id: path6888)


(Start cutting path id: path6886)
(Change tool to Cylindrical cutter)

G00 Z2.000000
G00 X-14.561719 Y106.702460

G01 Z-1.500000 F100.0(Penetrate)
G03 X-14.915258 Y106.555999 Z-1.500000 I0.000050 J-0.500050 F400.000000
G03 X-15.061719 Y106.202460 Z-1.500000 I0.353589 J-0.353589
G01 X-15.061719 Y103.372380 Z-1.500000
G03 X-14.915258 Y103.018841 Z-1.500000 I0.500050 J0.000050
G03 X-14.561719 Y102.872380 Z-1.500000 I0.353589 J0.353589
G01 X-11.731641 Y102.872380 Z-1.500000
G03 X-11.378102 Y103.018841 Z-1.500000 I-0.000050 J0.500050
G03 X-11.231641 Y103.372380 Z-1.500000 I-0.353589 J0.353589
G01 X-11.231641 Y106.202460 Z-1.500000
G03 X-11.378102 Y106.555999 Z-1.500000 I-0.500050 J-0.000050
G03 X-11.731641 Y106.702460 Z-1.500000 I-0.353589 J-0.353589
G01 X-14.561719 Y106.702460 Z-1.500000
G00 Z2.000000

(End cutting path id: path6886)


(Start cutting path id: path6886)
(Change tool to Cylindrical cutter)

G00 Z2.000000
G00 X-9.731641 Y106.702460

G01 Z-1.500000 F100.0(Penetrate)
G03 X-10.085180 Y106.555999 Z-1.500000 I0.000050 J-0.500050 F400.000000
G03 X-10.231641 Y106.202460 Z-1.500000 I0.353589 J-0.353589
G01 X-10.231641 Y103.372380 Z-1.500000
G03 X-10.085180 Y103.018841 Z-1.500000 I0.500050 J0.000050
G03 X-9.731641 Y102.872380 Z-1.500000 I0.353589 J0.353589
G01 X-6.901562 Y102.872380 Z-1.500000
G03 X-6.548023 Y103.018841 Z-1.500000 I-0.000050 J0.500050
G03 X-6.401562 Y103.372380 Z-1.500000 I-0.353589 J0.353589
G01 X-6.401562 Y106.202460 Z-1.500000
G03 X-6.548023 Y106.555999 Z-1.500000 I-0.500050 J-0.000050
G03 X-6.901562 Y106.702460 Z-1.500000 I-0.353589 J-0.353589
G01 X-9.731641 Y106.702460 Z-1.500000
G00 Z2.000000

(End cutting path id: path6886)


(Start cutting path id: path6886)
(Change tool to Cylindrical cutter)

G00 Z2.000000
G00 X-14.561719 Y101.872380

G01 Z-1.500000 F100.0(Penetrate)
G03 X-14.915258 Y101.725919 Z-1.500000 I0.000050 J-0.500050 F400.000000
G03 X-15.061719 Y101.372380 Z-1.500000 I0.353589 J-0.353589
G01 X-15.061719 Y98.542300 Z-1.500000
G03 X-14.915258 Y98.188761 Z-1.500000 I0.500050 J0.000050
G03 X-14.561719 Y98.042300 Z-1.500000 I0.353589 J0.353589
G01 X-11.731641 Y98.042300 Z-1.500000
G03 X-11.378102 Y98.188761 Z-1.500000 I-0.000050 J0.500050
G03 X-11.231641 Y98.542300 Z-1.500000 I-0.353589 J0.353589
G01 X-11.231641 Y101.372380 Z-1.500000
G03 X-11.378102 Y101.725919 Z-1.500000 I-0.500050 J-0.000050
G03 X-11.731641 Y101.872380 Z-1.500000 I-0.353589 J-0.353589
G01 X-14.561719 Y101.872380 Z-1.500000
G00 Z2.000000

(End cutting path id: path6886)


(Start cutting path id: path6886)
(Change tool to Cylindrical cutter)

G00 Z2.000000
G00 X-9.731641 Y101.872380

G01 Z-1.500000 F100.0(Penetrate)
G03 X-10.085180 Y101.725919 Z-1.500000 I0.000050 J-0.500050 F400.000000
G03 X-10.231641 Y101.372380 Z-1.500000 I0.353589 J-0.353589
G01 X-10.231641 Y98.542300 Z-1.500000
G03 X-10.085180 Y98.188761 Z-1.500000 I0.500050 J0.000050
G03 X-9.731641 Y98.042300 Z-1.500000 I0.353589 J0.353589
G01 X-6.901562 Y98.042300 Z-1.500000
G03 X-6.548023 Y98.188761 Z-1.500000 I-0.000050 J0.500050
G03 X-6.401562 Y98.542300 Z-1.500000 I-0.353589 J0.353589
G01 X-6.401562 Y101.372380 Z-1.500000
G03 X-6.548023 Y101.725919 Z-1.500000 I-0.500050 J-0.000050
G03 X-6.901562 Y101.872380 Z-1.500000 I-0.353589 J-0.353589
G01 X-9.731641 Y101.872380 Z-1.500000
G00 Z2.000000

(End cutting path id: path6886)


(Start cutting path id: path13857)
(Change tool to Cylindrical cutter)

G00 Z2.000000
G00 X-19.770703 Y139.807920

G01 Z-1.500000 F100.0(Penetrate)
G01 X-19.770703 Y132.030580 Z-1.500000 F400.000000
G01 X-16.528516 Y130.245420 Z-1.500000
G02 X-16.339941 Y130.061832 Z-1.500000 I-0.242237 J-0.437460
G02 X-16.270703 Y129.807920 Z-1.500000 I-0.430812 J-0.253872
G01 X-16.268703 Y121.233710 Z-1.500000
G02 X-16.338782 Y120.979451 Z-1.500000 I-0.500049 J0.001036
G02 X-16.528469 Y120.796210 Z-1.500000 I-0.429970 J0.255295
G01 X-19.768703 Y119.013000 Z-1.500000
G01 X-19.768703 Y111.022770 Z-1.500000
G01 X-16.272609 Y108.995420 Z-1.500000
G02 X-16.091052 Y108.812662 Z-1.500000 I-0.252003 J-0.431908
G02 X-16.024562 Y108.563780 Z-1.500000 I-0.433560 J-0.249150
G01 X-16.022562 Y97.479800 Z-1.500000
G01 X-5.440531 Y97.479800 Z-1.500000
G01 X-5.440531 Y108.198550 Z-1.500000
G01 X-11.848734 Y110.259100 Z-1.500000
G02 X-12.100318 Y110.440656 Z-1.500000 I0.152394 J0.476263
G02 X-12.196390 Y110.735660 Z-1.500000 I0.403978 J0.294706
G01 X-12.196390 Y119.307920 Z-1.500000
G02 X-12.126312 Y119.562179 Z-1.500000 I0.500049 J-0.001036
G02 X-11.936625 Y119.745420 Z-1.500000 I0.429971 J-0.255294
G01 X-8.696390 Y121.530580 Z-1.500000
G01 X-8.696390 Y129.513000 Z-1.500000
G01 X-11.936625 Y131.296210 Z-1.500000
G02 X-12.126312 Y131.479451 Z-1.500000 I0.240284 J0.438536
G02 X-12.196390 Y131.733710 Z-1.500000 I0.429971 J0.255294
G01 X-12.196390 Y139.807920 Z-1.500000
G01 X-19.770703 Y139.807920 Z-1.500000
G00 Z2.000000

(End cutting path id: path13857)


(Footer)
M5
G00 X0.0000 Y0.0000
M2
(Using default footer. To add your own footer create file "footer" in the output dir.)
(end)
%