%
(Header)
(Generated by gcodetools from Inkscape.)
(Using default header. To add your own header create file "header" in the output dir.)
M3
(Header end.)
G21 (All units in mm)

(Start cutting path id: path4172-2-6)
(Change tool to Cylindrical cutter)

G00 Z2.000000
G00 X45.567857 Y33.821780

G01 Z-1.500000 F100.0(Penetrate)
G01 X34.567851 Y33.821780 Z-1.500000 F300.000000
G00 Z2.000000

(End cutting path id: path4172-2-6)


(Start cutting path id: path4172-2-6)
(Change tool to Cylindrical cutter)

G00 Z2.000000
G00 X45.567857 Y33.821780

G01 Z-3.000000 F100.0(Penetrate)
G01 X34.567851 Y33.821780 Z-3.000000 F300.000000
G00 Z2.000000

(End cutting path id: path4172-2-6)


(Start cutting path id: path4172-2-4)
(Change tool to Cylindrical cutter)

G00 Z2.000000
G00 X15.524395 Y39.402430

G01 Z-1.500000 F100.0(Penetrate)
G01 X2.524395 Y39.402430 Z-1.500000 F300.000000
G00 Z2.000000

(End cutting path id: path4172-2-4)


(Start cutting path id: path4172-2-4)
(Change tool to Cylindrical cutter)

G00 Z2.000000
G00 X15.524395 Y39.402430

G01 Z-3.000000 F100.0(Penetrate)
G01 X2.524395 Y39.402430 Z-3.000000 F300.000000
G00 Z2.000000

(End cutting path id: path4172-2-4)


(Start cutting path id: path4172-2)
(Change tool to Cylindrical cutter)

G00 Z2.000000
G00 X31.375969 Y39.121790

G01 Z-1.500000 F100.0(Penetrate)
G01 X18.375969 Y39.121790 Z-1.500000 F300.000000
G00 Z2.000000

(End cutting path id: path4172-2)


(Start cutting path id: path4172-2)
(Change tool to Cylindrical cutter)

G00 Z2.000000
G00 X31.375969 Y39.121790

G01 Z-3.000000 F100.0(Penetrate)
G01 X18.375969 Y39.121790 Z-3.000000 F300.000000
G00 Z2.000000

(End cutting path id: path4172-2)


(Start cutting path id: path4172)
(Change tool to Cylindrical cutter)

G00 Z2.000000
G00 X-44.688956 Y27.772860

G01 Z-1.500000 F100.0(Penetrate)
G01 X-44.688956 Y21.353330 Z-1.500000 F300.000000
G00 Z2.000000

(End cutting path id: path4172)


(Start cutting path id: path4172)
(Change tool to Cylindrical cutter)

G00 Z2.000000
G00 X-44.688956 Y27.772860

G01 Z-3.000000 F100.0(Penetrate)
G01 X-44.688956 Y21.353330 Z-3.000000 F300.000000
G00 Z2.000000

(End cutting path id: path4172)


(Footer)
M5
G00 X0.0000 Y0.0000
M2
(Using default footer. To add your own footer create file "footer" in the output dir.)
(end)
%