%
(Header)
(Generated by gcodetools from Inkscape.)
(Using default header. To add your own header create file "header" in the output dir.)
M3
(Header end.)
G21 (All units in mm)

(Start cutting path id: path4224)
(Change tool to Cylindrical cutter)

G00 Z2.000000
G00 X-20.269949 Y131.734370

G01 Z-1.500000 F100.0(Penetrate)
G01 X-20.270219 Y140.307790 Z-1.500000 F400.000000
G01 X-11.696779 Y140.308060 Z-1.500000
G01 X-11.696509 Y131.734640 Z-1.500000
G01 X-8.196469 Y129.808350 Z-1.500000
G01 X-8.196199 Y121.234930 Z-1.500000
G01 X-11.696079 Y119.308340 Z-1.500000
G01 X-11.695819 Y110.734920 Z-1.500000
G01 X-4.940889 Y108.563680 Z-1.500000
G01 X-4.940359 Y96.980480 Z-1.500000
G01 X-16.523589 Y96.979950 Z-1.500000
G01 X-16.524119 Y108.563150 Z-1.500000
G01 X-20.269259 Y110.734520 Z-1.500000
G01 X-20.269519 Y119.307940 Z-1.500000
G01 X-16.769639 Y121.234530 Z-1.500000
G01 X-16.769899 Y129.807950 Z-1.500000
G01 X-20.269949 Y131.734230 Z-1.500000
G00 Z2.000000

(End cutting path id: path4224)


(Start cutting path id: path4224)
(Change tool to Cylindrical cutter)

G00 Z2.000000
G00 X-20.269949 Y131.734370

G01 Z-3.000000 F100.0(Penetrate)
G01 X-20.270219 Y140.307790 Z-3.000000 F400.000000
G01 X-11.696779 Y140.308060 Z-3.000000
G01 X-11.696509 Y131.734640 Z-3.000000
G01 X-8.196469 Y129.808350 Z-3.000000
G01 X-8.196199 Y121.234930 Z-3.000000
G01 X-11.696079 Y119.308340 Z-3.000000
G01 X-11.695819 Y110.734920 Z-3.000000
G01 X-4.940889 Y108.563680 Z-3.000000
G01 X-4.940359 Y96.980480 Z-3.000000
G01 X-16.523589 Y96.979950 Z-3.000000
G01 X-16.524119 Y108.563150 Z-3.000000
G01 X-20.269259 Y110.734520 Z-3.000000
G01 X-20.269519 Y119.307940 Z-3.000000
G01 X-16.769639 Y121.234530 Z-3.000000
G01 X-16.769899 Y129.807950 Z-3.000000
G01 X-20.269949 Y131.734230 Z-3.000000
G00 Z2.000000

(End cutting path id: path4224)


(Footer)
M5
G00 X0.0000 Y0.0000
M2
(Using default footer. To add your own footer create file "footer" in the output dir.)
(end)
%