%
(Header)
(Generated by gcodetools from Inkscape.)
(Using default header. To add your own header create file "header" in the output dir.)
M3
(Header end.)
G21 (All units in mm)

(Start cutting path id: path4202)
(Change tool to Cylindrical cutter)

G00 Z2.000000
G00 X30.290035 Y27.701830

G01 Z-1.500000 F100.0(Penetrate)
G01 X30.290035 Y21.381520 Z-1.500000 F300.000000
G00 Z2.000000

(End cutting path id: path4202)


(Start cutting path id: path4202)
(Change tool to Cylindrical cutter)

G00 Z2.000000
G00 X30.290035 Y27.701830

G01 Z-2.800000 F100.0(Penetrate)
G01 X30.290035 Y21.381520 Z-2.800000 F300.000000
G00 Z2.000000

(End cutting path id: path4202)


(Footer)
M5
G00 X0.0000 Y0.0000
M2
(Using default footer. To add your own footer create file "footer" in the output dir.)
(end)
%