%
(Header)
(Generated by gcodetools from Inkscape.)
(Using default header. To add your own header create file "header" in the output dir.)
M3
(Header end.)
G21 (All units in mm)

(Start cutting path id: path42590-9-8-6-1-2-8)
(Change tool to Cylindrical cutter)

G00 Z2.000000
G00 X-2.023317 Y20.621780

G01 Z-1.500000 F100.0(Penetrate)
G01 X-16.023317 Y20.621780 Z-1.500000 F300.000000
G00 Z2.000000

(End cutting path id: path42590-9-8-6-1-2-8)


(Start cutting path id: path42590-9-8-6-1-2-8)
(Change tool to Cylindrical cutter)

G00 Z2.000000
G00 X-2.023317 Y20.621780

G01 Z-3.000000 F100.0(Penetrate)
G01 X-16.023317 Y20.621780 Z-3.000000 F300.000000
G00 Z2.000000

(End cutting path id: path42590-9-8-6-1-2-8)


(Start cutting path id: path42590-9-8-6-1-2-8)
(Change tool to Cylindrical cutter)

G00 Z2.000000
G00 X-16.023317 Y20.621780

G01 Z-1.500000 F100.0(Penetrate)
G01 X-16.023317 Y39.121790 Z-1.500000 F300.000000
G00 Z2.000000

(End cutting path id: path42590-9-8-6-1-2-8)


(Start cutting path id: path42590-9-8-6-1-2-8)
(Change tool to Cylindrical cutter)

G00 Z2.000000
G00 X-16.023317 Y20.621780

G01 Z-3.000000 F100.0(Penetrate)
G01 X-16.023317 Y39.121790 Z-3.000000 F300.000000
G00 Z2.000000

(End cutting path id: path42590-9-8-6-1-2-8)


(Start cutting path id: path42590-9-8-6-1-2-8)
(Change tool to Cylindrical cutter)

G00 Z2.000000
G00 X-2.023317 Y20.621780

G01 Z-1.500000 F100.0(Penetrate)
G01 X-2.023317 Y39.121790 Z-1.500000 F300.000000
G00 Z2.000000

(End cutting path id: path42590-9-8-6-1-2-8)


(Start cutting path id: path42590-9-8-6-1-2-8)
(Change tool to Cylindrical cutter)

G00 Z2.000000
G00 X-2.023317 Y20.621780

G01 Z-3.000000 F100.0(Penetrate)
G01 X-2.023317 Y39.121790 Z-3.000000 F300.000000
G00 Z2.000000

(End cutting path id: path42590-9-8-6-1-2-8)


(Start cutting path id: path42590-9-8-6-1-2-7)
(Change tool to Cylindrical cutter)

G00 Z2.000000
G00 X-34.066772 Y20.621780

G01 Z-1.500000 F100.0(Penetrate)
G01 X-46.066778 Y20.621780 Z-1.500000 F300.000000
G00 Z2.000000

(End cutting path id: path42590-9-8-6-1-2-7)


(Start cutting path id: path42590-9-8-6-1-2-7)
(Change tool to Cylindrical cutter)

G00 Z2.000000
G00 X-34.066772 Y20.621780

G01 Z-3.000000 F100.0(Penetrate)
G01 X-46.066778 Y20.621780 Z-3.000000 F300.000000
G00 Z2.000000

(End cutting path id: path42590-9-8-6-1-2-7)


(Start cutting path id: path42590-9-8-6-1-2-7)
(Change tool to Cylindrical cutter)

G00 Z2.000000
G00 X-46.066778 Y20.621770

G01 Z-1.500000 F100.0(Penetrate)
G01 X-46.066778 Y33.821780 Z-1.500000 F300.000000
G00 Z2.000000

(End cutting path id: path42590-9-8-6-1-2-7)


(Start cutting path id: path42590-9-8-6-1-2-7)
(Change tool to Cylindrical cutter)

G00 Z2.000000
G00 X-46.066778 Y20.621770

G01 Z-3.000000 F100.0(Penetrate)
G01 X-46.066778 Y33.821780 Z-3.000000 F300.000000
G00 Z2.000000

(End cutting path id: path42590-9-8-6-1-2-7)


(Start cutting path id: path42590-9-8-6-1-2-7)
(Change tool to Cylindrical cutter)

G00 Z2.000000
G00 X-34.066772 Y20.621770

G01 Z-1.500000 F100.0(Penetrate)
G01 X-34.066772 Y33.821780 Z-1.500000 F300.000000
G00 Z2.000000

(End cutting path id: path42590-9-8-6-1-2-7)


(Start cutting path id: path42590-9-8-6-1-2-7)
(Change tool to Cylindrical cutter)

G00 Z2.000000
G00 X-34.066772 Y20.621770

G01 Z-3.000000 F100.0(Penetrate)
G01 X-34.066772 Y33.821780 Z-3.000000 F300.000000
G00 Z2.000000

(End cutting path id: path42590-9-8-6-1-2-7)


(Start cutting path id: path42590-9-8-6-1-2)
(Change tool to Cylindrical cutter)

G00 Z2.000000
G00 X-17.874891 Y20.621780

G01 Z-1.500000 F100.0(Penetrate)
G01 X-31.874891 Y20.621780 Z-1.500000 F300.000000
G00 Z2.000000

(End cutting path id: path42590-9-8-6-1-2)


(Start cutting path id: path42590-9-8-6-1-2)
(Change tool to Cylindrical cutter)

G00 Z2.000000
G00 X-17.874891 Y20.621780

G01 Z-3.000000 F100.0(Penetrate)
G01 X-31.874891 Y20.621780 Z-3.000000 F300.000000
G00 Z2.000000

(End cutting path id: path42590-9-8-6-1-2)


(Start cutting path id: path42590-9-8-6-1-2)
(Change tool to Cylindrical cutter)

G00 Z2.000000
G00 X-31.874891 Y20.621780

G01 Z-1.500000 F100.0(Penetrate)
G01 X-31.874891 Y39.121790 Z-1.500000 F300.000000
G00 Z2.000000

(End cutting path id: path42590-9-8-6-1-2)


(Start cutting path id: path42590-9-8-6-1-2)
(Change tool to Cylindrical cutter)

G00 Z2.000000
G00 X-31.874891 Y20.621780

G01 Z-3.000000 F100.0(Penetrate)
G01 X-31.874891 Y39.121790 Z-3.000000 F300.000000
G00 Z2.000000

(End cutting path id: path42590-9-8-6-1-2)


(Start cutting path id: path42590-9-8-6-1-2)
(Change tool to Cylindrical cutter)

G00 Z2.000000
G00 X-17.874891 Y20.621780

G01 Z-1.500000 F100.0(Penetrate)
G01 X-17.874891 Y39.121790 Z-1.500000 F300.000000
G00 Z2.000000

(End cutting path id: path42590-9-8-6-1-2)


(Start cutting path id: path42590-9-8-6-1-2)
(Change tool to Cylindrical cutter)

G00 Z2.000000
G00 X-17.874891 Y20.621780

G01 Z-3.000000 F100.0(Penetrate)
G01 X-17.874891 Y39.121790 Z-3.000000 F300.000000
G00 Z2.000000

(End cutting path id: path42590-9-8-6-1-2)


(Start cutting path id: path42590-9)
(Change tool to Cylindrical cutter)

G00 Z2.000000
G00 X16.890253 Y27.753330

G01 Z-1.500000 F100.0(Penetrate)
G01 X44.666817 Y27.753330 Z-1.500000 F300.000000
G00 Z2.000000

(End cutting path id: path42590-9)


(Start cutting path id: path42590-9)
(Change tool to Cylindrical cutter)

G00 Z2.000000
G00 X16.890253 Y27.753330

G01 Z-3.000000 F100.0(Penetrate)
G01 X44.666817 Y27.753330 Z-3.000000 F300.000000
G00 Z2.000000

(End cutting path id: path42590-9)


(Start cutting path id: path42590)
(Change tool to Cylindrical cutter)

G00 Z2.000000
G00 X0.890035 Y20.853330

G01 Z-1.500000 F100.0(Penetrate)
G01 X44.690036 Y20.853330 Z-1.500000 F300.000000
G00 Z2.000000

(End cutting path id: path42590)


(Start cutting path id: path42590)
(Change tool to Cylindrical cutter)

G00 Z2.000000
G00 X0.890035 Y20.853330

G01 Z-3.000000 F100.0(Penetrate)
G01 X44.690036 Y20.853330 Z-3.000000 F300.000000
G00 Z2.000000

(End cutting path id: path42590)


(Footer)
M5
G00 X0.0000 Y0.0000
M2
(Using default footer. To add your own footer create file "footer" in the output dir.)
(end)
%