%
(Header)
(Generated by gcodetools from Inkscape.)
(Using default header. To add your own header create file "header" in the output dir.)
M3
(Header end.)
G21 (All units in mm)

(Start cutting path id: path15961)
(Change tool to Cylindrical cutter)

G00 Z2.000000
G00 X-14.222544 Y157.269530

G01 Z-1.500000 F150.0(Penetrate)
G01 X-14.222544 Y149.195310 Z-1.500000 F400.000000
G02 X-14.292623 Y148.941051 Z-1.500000 I-0.500048 J0.001037
G02 X-14.482309 Y148.757810 Z-1.500000 I-0.429978 J0.255302
G01 X-17.722544 Y146.972660 Z-1.500000
G01 X-17.724544 Y138.990230 Z-1.500000
G01 X-14.482356 Y137.207030 Z-1.500000
G02 X-14.293783 Y137.023445 Z-1.500000 I-0.242237 J-0.437459
G02 X-14.224544 Y136.769530 Z-1.500000 I-0.430810 J-0.253874
G01 X-14.224544 Y128.195310 Z-1.500000
G02 X-14.319825 Y127.900761 Z-1.500000 I-0.500056 J-0.000926
G02 X-14.570247 Y127.718750 Z-1.500000 I-0.404756 J0.293609
G01 X-20.978450 Y125.660160 Z-1.500000
G01 X-20.980450 Y114.941410 Z-1.500000
G01 X-10.396466 Y114.941410 Z-1.500000
G01 X-10.396466 Y126.023440 Z-1.500000
G02 X-10.329614 Y126.273765 Z-1.500000 I0.500041 J0.000548
G02 X-10.146466 Y126.457030 Z-1.500000 I0.433219 J-0.249794
G01 X-6.650372 Y128.482420 Z-1.500000
G01 X-6.650372 Y136.472660 Z-1.500000
G01 X-9.890606 Y138.257810 Z-1.500000
G02 X-10.080292 Y138.441057 Z-1.500000 I0.240343 J0.438588
G02 X-10.150372 Y138.695310 Z-1.500000 I0.429943 J0.255290
G01 X-10.150372 Y147.267580 Z-1.500000
G02 X-10.080788 Y147.522955 Z-1.500000 I0.500058 J0.000913
G02 X-9.890606 Y147.707030 Z-1.500000 I0.430451 J-0.254448
G01 X-6.650372 Y149.490230 Z-1.500000
G01 X-6.650372 Y157.267580 Z-1.500000
G01 X-14.222544 Y157.269530 Z-1.500000
G00 Z2.000000

(End cutting path id: path15961)


(Start cutting path id: path15959)
(Change tool to Cylindrical cutter)

G00 Z2.000000
G00 X-13.322153 Y156.369140

G01 Z-1.500000 F150.0(Penetrate)
G01 X-13.324153 Y149.195310 Z-1.500000 F400.000000
G02 X-13.518800 Y148.482980 Z-1.500000 I-1.400152 J-0.000162
G02 X-14.048763 Y147.968750 Z-1.500000 I-1.205469 J0.712147
G01 X-16.824153 Y146.441410 Z-1.500000
G01 X-16.824153 Y139.523440 Z-1.500000
G01 X-14.048763 Y137.996090 Z-1.500000
G02 X-13.518800 Y137.481860 Z-1.500000 I-0.675506 J-1.226377
G02 X-13.324153 Y136.769530 Z-1.500000 I-1.205505 J-0.712168
G01 X-13.324153 Y128.195310 Z-1.500000
G02 X-13.592740 Y127.371330 Z-1.500000 I-1.400131 J0.000627
G02 X-14.294856 Y126.863280 Z-1.500000 I-1.131567 J0.824623
G01 X-20.078059 Y125.003910 Z-1.500000
G01 X-20.080059 Y115.841800 Z-1.500000
G01 X-11.296855 Y115.839800 Z-1.500000
G01 X-11.294855 Y126.023400 Z-1.500000
G02 X-11.108082 Y126.722074 Z-1.500000 I1.400152 J0.000006
G02 X-10.597590 Y127.234340 Z-1.500000 I1.213348 J-0.698650
G01 X-7.550715 Y129.001910 Z-1.500000
G01 X-7.550715 Y135.941370 Z-1.500000
G01 X-10.326105 Y137.468710 Z-1.500000
G02 X-10.856068 Y137.982940 Z-1.500000 I0.675506 J1.226377
G02 X-11.050715 Y138.695270 Z-1.500000 I1.205505 J0.712168
G01 X-11.050715 Y147.267540 Z-1.500000
G02 X-10.855229 Y147.980213 Z-1.500000 I1.400148 J-0.000913
G02 X-10.324152 Y148.494100 Z-1.500000 I1.204642 J-0.713574
G01 X-7.550715 Y150.021440 Z-1.500000
G01 X-7.548715 Y156.369100 Z-1.500000
G01 X-13.322153 Y156.369140 Z-1.500000
G00 Z2.000000

(End cutting path id: path15959)


(Start cutting path id: path15957)
(Change tool to Cylindrical cutter)

G00 Z2.000000
G00 X-12.423716 Y155.468750

G01 Z-1.500000 F150.0(Penetrate)
G01 X-12.423716 Y149.195310 Z-1.500000 F400.000000
G02 X-12.743769 Y148.024571 Z-1.500000 I-2.300225 J-0.000288
G02 X-13.615122 Y147.179690 Z-1.500000 I-1.980183 J1.170458
G01 X-15.923716 Y145.910160 Z-1.500000
G01 X-15.923716 Y140.054690 Z-1.500000
G01 X-13.615122 Y138.783200 Z-1.500000
G02 X-12.744268 Y137.939165 Z-1.500000 I-1.108814 J-2.015325
G02 X-12.423716 Y136.769530 Z-1.500000 I-1.979680 J-1.171298
G01 X-12.423716 Y128.195310 Z-1.500000
G02 X-12.865032 Y126.840736 Z-1.500000 I-2.300228 J0.000230
G02 X-14.019419 Y126.005860 Z-1.500000 I-1.858918 J1.354808
G01 X-19.179575 Y124.347660 Z-1.500000
G01 X-19.179575 Y116.740230 Z-1.500000
G01 X-12.195200 Y116.740230 Z-1.500000
G01 X-12.195200 Y126.023440 Z-1.500000
G02 X-11.888144 Y127.171892 Z-1.500000 I2.300236 J0.000272
G02 X-11.048716 Y128.013670 Z-1.500000 I1.993168 J-1.148174
G01 X-8.451059 Y129.519530 Z-1.500000
G01 X-8.451059 Y135.408200 Z-1.500000
G01 X-10.759653 Y136.679690 Z-1.500000
G02 X-11.631005 Y137.524571 Z-1.500000 I1.108830 J2.015339
G02 X-11.951059 Y138.695310 Z-1.500000 I1.980171 J1.170451
G01 X-11.949059 Y147.269530 Z-1.500000
G02 X-11.629350 Y148.438815 Z-1.500000 I2.300240 J-0.000588
G02 X-10.759606 Y149.283200 Z-1.500000 I1.980499 J-1.169854
G01 X-8.449059 Y150.554690 Z-1.500000
G01 X-8.449059 Y155.468750 Z-1.500000
G01 X-12.423716 Y155.468750 Z-1.500000
G00 Z2.000000

(End cutting path id: path15957)


(Start cutting path id: path15953)
(Change tool to Cylindrical cutter)

G00 Z2.000000
G00 X-13.095590 Y125.445310

G01 Z-1.500000 F150.0(Penetrate)
G02 X-13.411515 Y125.278755 Z-1.500000 I-1.647835 J2.742738 F400.000000
G02 X-13.744028 Y125.148440 Z-1.500000 I-1.332317 J2.910181
G01 X-18.279184 Y123.691410 Z-1.500000
G01 X-18.279184 Y117.640620 Z-1.500000
G01 X-13.095590 Y117.640620 Z-1.500000
G01 X-13.095590 Y125.445310 Z-1.500000
G00 Z2.000000

(End cutting path id: path15953)


(Start cutting path id: path15951)
(Change tool to Cylindrical cutter)

G00 Z2.000000
G00 X-13.995981 Y124.123050

G01 Z-1.500000 F150.0(Penetrate)
G01 X-15.685513 Y123.579710 Z-1.500000 F400.000000
G01 X-17.378794 Y123.035160 Z-1.500000
G01 X-17.378794 Y118.541020 Z-1.500000
G01 X-13.995981 Y118.541020 Z-1.500000
G01 X-13.995981 Y124.123050 Z-1.500000
G00 Z2.000000

(End cutting path id: path15951)


(Start cutting path id: path15949)
(Change tool to Cylindrical cutter)

G00 Z2.000000
G00 X-14.896372 Y122.888670

G01 Z-1.500000 F150.0(Penetrate)
G01 X-16.478403 Y122.378910 Z-1.500000 F400.000000
G01 X-16.478403 Y119.441410 Z-1.500000
G01 X-14.896372 Y119.441410 Z-1.500000
G01 X-14.896372 Y122.888670 Z-1.500000
G00 Z2.000000

(End cutting path id: path15949)


(Start cutting path id: path15947)
(Change tool to Cylindrical cutter)

G00 Z2.000000
G00 X-15.509653 Y122.046880

G01 Z-1.500000 F150.0(Penetrate)
G01 X-15.865122 Y121.931640 Z-1.500000 F400.000000
G01 X-15.865122 Y120.054690 Z-1.500000
G01 X-15.509653 Y120.054690 Z-1.500000
G01 X-15.509653 Y122.046880 Z-1.500000
G00 Z2.000000

(End cutting path id: path15947)


(Start cutting path id: path15942)
(Change tool to Cylindrical cutter)

G00 Z2.000000
G00 X-11.523325 Y136.105470

G01 Z-1.500000 F150.0(Penetrate)
G01 X-11.523325 Y128.779300 Z-1.500000 F400.000000
G02 X-11.511573 Y128.786284 Z-1.500000 I0.109121 J-0.170229
G03 X-11.499885 Y128.793000 Z-1.500000 I-0.169990 J0.309383
G01 X-9.349495 Y130.039090 Z-1.500000
G01 X-9.349495 Y134.876980 Z-1.500000
G01 X-11.193245 Y135.892610 Z-1.500000
G02 X-11.361548 Y135.993970 Z-1.500000 I1.555597 J2.773405
G02 X-11.523323 Y136.105500 Z-1.500000 I1.739691 J2.696519
G01 X-11.523325 Y136.105470 Z-1.500000
G00 Z2.000000

(End cutting path id: path15942)


(Start cutting path id: path15940)
(Change tool to Cylindrical cutter)

G00 Z2.000000
G00 X-10.622934 Y134.550780

G01 Z-1.500000 F150.0(Penetrate)
G01 X-10.624934 Y130.339840 Z-1.500000 F400.000000
G01 X-10.249934 Y130.556640 Z-1.500000
G01 X-10.249934 Y134.345700 Z-1.500000
G01 X-10.622934 Y134.550780 Z-1.500000
G00 Z2.000000

(End cutting path id: path15940)


(Start cutting path id: path15936)
(Change tool to Cylindrical cutter)

G00 Z2.000000
G00 X-12.849497 Y146.605470

G01 Z-1.500000 F150.0(Penetrate)
G02 X-13.011275 Y146.493935 Z-1.500000 I-1.883992 J2.559586 F400.000000
G02 X-13.179575 Y146.392580 Z-1.500000 I-1.738684 J2.696666
G01 X-15.023325 Y145.376950 Z-1.500000
G01 X-15.023325 Y140.585940 Z-1.500000
G01 X-13.179575 Y139.572270 Z-1.500000
G02 X-13.011271 Y139.470910 Z-1.500000 I-1.555597 J-2.773405
G02 X-12.849497 Y139.359380 Z-1.500000 I-1.739691 J-2.696519
G01 X-12.849497 Y146.605470 Z-1.500000
G00 Z2.000000

(End cutting path id: path15936)


(Start cutting path id: path15934)
(Change tool to Cylindrical cutter)

G00 Z2.000000
G00 X-13.749887 Y145.050780

G01 Z-1.500000 F150.0(Penetrate)
G01 X-14.122934 Y144.845700 Z-1.500000 F400.000000
G01 X-14.122934 Y141.119140 Z-1.500000
G01 X-13.749887 Y140.914060 Z-1.500000
G01 X-13.749887 Y145.050780 Z-1.500000
G00 Z2.000000

(End cutting path id: path15934)


(Start cutting path id: path15932)
(Change tool to Cylindrical cutter)

G00 Z2.000000
G00 X-11.523325 Y154.568360

G01 Z-1.500000 F150.0(Penetrate)
G01 X-11.523325 Y149.857420 Z-1.500000 F400.000000
G02 X-11.361599 Y149.969916 Z-1.500000 I1.914679 J-2.580073
G02 X-11.193247 Y150.072270 Z-1.500000 I1.743182 J-2.677561
G01 X-9.349497 Y151.085940 Z-1.500000
G01 X-9.349497 Y154.568360 Z-1.500000
G01 X-11.523325 Y154.568360 Z-1.500000
G00 Z2.000000

(End cutting path id: path15932)


(Start cutting path id: path15930)
(Change tool to Cylindrical cutter)

G00 Z2.000000
G00 X-10.622934 Y153.667970

G01 Z-1.500000 F150.0(Penetrate)
G01 X-10.622934 Y151.414060 Z-1.500000 F400.000000
G01 X-10.249887 Y151.619140 Z-1.500000
G01 X-10.249887 Y153.667970 Z-1.500000
G01 X-10.622934 Y153.667970 Z-1.500000
G00 Z2.000000

(End cutting path id: path15930)


(Footer)
M5
G00 X0.0000 Y0.0000
M2
(Using default footer. To add your own footer create file "footer" in the output dir.)
(end)
%