%
(Header)
(Generated by gcodetools from Inkscape.)
(Using default header. To add your own header create file "header" in the output dir.)
M3
(Header end.)
G21 (All units in mm)

(Start cutting path id: path4188)
(Change tool to Cylindrical cutter)

G00 Z2.000000
G00 X36.268711 Y84.885860

G01 Z-3.000000 F100.0(Penetrate)
G01 X28.913551 Y84.885860 Z-3.000000 F400.000000
G01 X28.912761 Y102.802280 Z-3.000000
G01 X36.273441 Y102.802280 Z-3.000000
G00 Z2.000000

(End cutting path id: path4188)


(Start cutting path id: path4186)
(Change tool to Cylindrical cutter)

G00 Z2.000000
G00 X36.268711 Y213.724153

G01 Z-3.000000 F100.0(Penetrate)
G01 X25.908081 Y213.724153 Z-3.000000 F400.000000
G01 X25.908871 Y195.807733 Z-3.000000
G01 X36.268741 Y195.807733 Z-3.000000
G00 Z2.000000

(End cutting path id: path4186)


(Start cutting path id: path4184)
(Change tool to Cylindrical cutter)

G00 Z2.000000
G00 X18.268941 Y134.915330

G01 Z-3.000000 F100.0(Penetrate)
G01 X18.268941 Y120.732380 Z-3.000000 F400.000000
G01 X18.268941 Y60.386040 Z-3.000000
G00 Z2.000000

(End cutting path id: path4184)


(Start cutting path id: path4182)
(Change tool to Cylindrical cutter)

G00 Z2.000000
G00 X-39.368499 Y30.771570

G01 Z-3.000000 F100.0(Penetrate)
G01 X-24.518669 Y30.771570 Z-3.000000 F400.000000
G01 X3.289341 Y30.771570 Z-3.000000
G01 X6.786041 Y30.771570 Z-3.000000
G01 X22.260721 Y30.771570 Z-3.000000
G01 X40.610471 Y30.771570 Z-3.000000
G00 Z2.000000

(End cutting path id: path4182)


(Start cutting path id: path4180)
(Change tool to Cylindrical cutter)

G00 Z2.000000
G00 X18.268941 Y252.357383

G01 Z-3.000000 F100.0(Penetrate)
G01 X18.268941 Y178.011580 Z-3.000000 F400.000000
G00 Z2.000000

(End cutting path id: path4180)


(Footer)
M5
G00 X0.0000 Y0.0000
M2
(Using default footer. To add your own footer create file "footer" in the output dir.)
(end)
%