%
(Header)
(Generated by gcodetools from Inkscape.)
(Using default header. To add your own header create file "header" in the output dir.)
M3
(Header end.)
G21 (All units in mm)

(Start cutting path id: path15795)
(Change tool to Cylindrical cutter)

G00 Z2.000000
G00 X-2.765889 Y232.389134

G01 Z-1.500000 F150.0(Penetrate)
G01 X-2.766419 Y242.749764 Z-1.500000 F400.000000
G01 X-20.682839 Y242.747764 Z-1.500000
G01 X-20.682309 Y232.387894 Z-1.500000
G00 Z2.000000

(End cutting path id: path15795)


(Start cutting path id: path15795)
(Change tool to Cylindrical cutter)

G00 Z2.000000
G00 X-2.765889 Y232.389134

G01 Z-3.000000 F150.0(Penetrate)
G01 X-2.766419 Y242.749764 Z-3.000000 F400.000000
G01 X-20.682839 Y242.747764 Z-3.000000
G01 X-20.682309 Y232.387894 Z-3.000000
G00 Z2.000000

(End cutting path id: path15795)


(Start cutting path id: path15793)
(Change tool to Cylindrical cutter)

G00 Z2.000000
G00 X-4.510709 Y197.818920

G01 Z-1.500000 F150.0(Penetrate)
G01 X-4.510709 Y208.179550 Z-1.500000 F400.000000
G01 X-22.427139 Y208.178760 Z-1.500000
G01 X-22.427139 Y197.818900 Z-1.500000
G00 Z2.000000

(End cutting path id: path15793)


(Start cutting path id: path15793)
(Change tool to Cylindrical cutter)

G00 Z2.000000
G00 X-4.510709 Y197.818920

G01 Z-3.000000 F150.0(Penetrate)
G01 X-4.510709 Y208.179550 Z-3.000000 F400.000000
G01 X-22.427139 Y208.178760 Z-3.000000
G01 X-22.427139 Y197.818900 Z-3.000000
G00 Z2.000000

(End cutting path id: path15793)


(Start cutting path id: path19423)
(Change tool to Cylindrical cutter)

G00 Z2.000000
G00 X-2.765889 Y232.389134

G01 Z-1.500000 F150.0(Penetrate)
G01 X-2.766419 Y242.749764 Z-1.500000 F400.000000
G01 X-20.682839 Y242.747764 Z-1.500000
G01 X-20.682309 Y232.387894 Z-1.500000
G00 Z2.000000

(End cutting path id: path19423)


(Start cutting path id: path19423)
(Change tool to Cylindrical cutter)

G00 Z2.000000
G00 X-2.765889 Y232.389134

G01 Z-3.000000 F150.0(Penetrate)
G01 X-2.766419 Y242.749764 Z-3.000000 F400.000000
G01 X-20.682839 Y242.747764 Z-3.000000
G01 X-20.682309 Y232.387894 Z-3.000000
G00 Z2.000000

(End cutting path id: path19423)


(Start cutting path id: path19421)
(Change tool to Cylindrical cutter)

G00 Z2.000000
G00 X-4.510709 Y197.818920

G01 Z-1.500000 F150.0(Penetrate)
G01 X-4.510709 Y208.179550 Z-1.500000 F400.000000
G01 X-22.427139 Y208.178760 Z-1.500000
G01 X-22.427139 Y197.818900 Z-1.500000
G00 Z2.000000

(End cutting path id: path19421)


(Start cutting path id: path19421)
(Change tool to Cylindrical cutter)

G00 Z2.000000
G00 X-4.510709 Y197.818920

G01 Z-3.000000 F150.0(Penetrate)
G01 X-4.510709 Y208.179550 Z-3.000000 F400.000000
G01 X-22.427139 Y208.178760 Z-3.000000
G01 X-22.427139 Y197.818900 Z-3.000000
G00 Z2.000000

(End cutting path id: path19421)


(Start cutting path id: path19419)
(Change tool to Cylindrical cutter)

G00 Z2.000000
G00 X17.382846 Y152.375880

G01 Z-1.500000 F150.0(Penetrate)
G01 X17.382846 Y138.192930 Z-1.500000 F400.000000
G01 X17.382846 Y77.846590 Z-1.500000
G00 Z2.000000

(End cutting path id: path19419)


(Start cutting path id: path19419)
(Change tool to Cylindrical cutter)

G00 Z2.000000
G00 X17.382846 Y152.375880

G01 Z-3.000000 F150.0(Penetrate)
G01 X17.382846 Y138.192930 Z-3.000000 F400.000000
G01 X17.382846 Y77.846590 Z-3.000000
G00 Z2.000000

(End cutting path id: path19419)


(Start cutting path id: path19417)
(Change tool to Cylindrical cutter)

G00 Z2.000000
G00 X-37.892152 Y52.403140

G01 Z-1.500000 F150.0(Penetrate)
G01 X-23.042322 Y52.403140 Z-1.500000 F400.000000
G01 X4.765692 Y52.403140 Z-1.500000
G01 X8.262392 Y52.403140 Z-1.500000
G01 X23.737072 Y52.403140 Z-1.500000
G01 X42.086822 Y52.403140 Z-1.500000
G00 Z2.000000

(End cutting path id: path19417)


(Start cutting path id: path19417)
(Change tool to Cylindrical cutter)

G00 Z2.000000
G00 X-37.892152 Y52.403140

G01 Z-3.000000 F150.0(Penetrate)
G01 X-23.042322 Y52.403140 Z-3.000000 F400.000000
G01 X4.765692 Y52.403140 Z-3.000000
G01 X8.262392 Y52.403140 Z-3.000000
G01 X23.737072 Y52.403140 Z-3.000000
G01 X42.086822 Y52.403140 Z-3.000000
G00 Z2.000000

(End cutting path id: path19417)


(Start cutting path id: path19415)
(Change tool to Cylindrical cutter)

G00 Z2.000000
G00 X17.382846 Y269.817914

G01 Z-1.500000 F150.0(Penetrate)
G01 X17.382846 Y195.472130 Z-1.500000 F400.000000
G00 Z2.000000

(End cutting path id: path19415)


(Start cutting path id: path19415)
(Change tool to Cylindrical cutter)

G00 Z2.000000
G00 X17.382846 Y269.817914

G01 Z-3.000000 F150.0(Penetrate)
G01 X17.382846 Y195.472130 Z-3.000000 F400.000000
G00 Z2.000000

(End cutting path id: path19415)


(Footer)
M5
G00 X0.0000 Y0.0000
M2
(Using default footer. To add your own footer create file "footer" in the output dir.)
(end)
%