%
(Header)
(Generated by gcodetools from Inkscape.)
(Using default header. To add your own header create file "header" in the output dir.)
M3
(Header end.)
G21 (All units in mm)

(Start cutting path id: path4176)
(Change tool to Cylindrical cutter)

G00 Z2.000000
G00 X-8.048209 Y214.928593

G01 Z-2.750000 F100.0(Penetrate)
G01 X-8.048739 Y225.289223 Z-2.750000 F400.000000
G01 X-25.965159 Y225.287223 Z-2.750000
G01 X-25.964629 Y214.927353 Z-2.750000
G00 Z2.000000

(End cutting path id: path4176)


(Start cutting path id: path4174)
(Change tool to Cylindrical cutter)

G00 Z2.000000
G00 X-9.793029 Y180.358380

G01 Z-2.750000 F100.0(Penetrate)
G01 X-9.793029 Y190.719013 Z-2.750000 F400.000000
G01 X-27.709459 Y190.718223 Z-2.750000
G01 X-27.709459 Y180.358350 Z-2.750000
G00 Z2.000000

(End cutting path id: path4174)


(Start cutting path id: path4172)
(Change tool to Cylindrical cutter)

G00 Z2.000000
G00 X3.289341 Y30.771570

G01 Z-2.750000 F100.0(Penetrate)
G01 X3.289341 Y48.771350 Z-2.750000 F400.000000
G00 Z2.000000

(End cutting path id: path4172)


(Start cutting path id: path4170)
(Change tool to Cylindrical cutter)

G00 Z2.000000
G00 X18.268941 Y120.732380

G01 Z-2.750000 F100.0(Penetrate)
G01 X36.268711 Y120.732380 Z-2.750000 F400.000000
G00 Z2.000000

(End cutting path id: path4170)


(Start cutting path id: path4168)
(Change tool to Cylindrical cutter)

G00 Z2.000000
G00 X27.318831 Y148.911930

G01 Z-2.750000 F100.0(Penetrate)
G01 X36.268711 Y148.911930 Z-2.750000 F400.000000
G00 Z2.000000

(End cutting path id: path4168)


(Start cutting path id: path4166)
(Change tool to Cylindrical cutter)

G00 Z2.000000
G00 X18.268941 Y178.011580

G01 Z-2.750000 F100.0(Penetrate)
G01 X36.268711 Y178.011580 Z-2.750000 F400.000000
G00 Z2.000000

(End cutting path id: path4166)


(Footer)
M5
G00 X0.0000 Y0.0000
M2
(Using default footer. To add your own footer create file "footer" in the output dir.)
(end)
%