%
(Header)
(Generated by gcodetools from Inkscape.)
(Using default header. To add your own header create file "header" in the output dir.)
M3
(Header end.)
G21 (All units in mm)

(Start cutting path id: path19411)
(Change tool to Cylindrical cutter)

G00 Z2.000000
G00 X28.027456 Y102.346410

G01 Z-1.500000 F150.0(Penetrate)
G01 X28.026666 Y120.262830 Z-1.500000 F400.000000
G01 X35.387346 Y120.262830 Z-1.500000
G00 Z2.000000

(End cutting path id: path19411)


(Start cutting path id: path19411)
(Change tool to Cylindrical cutter)

G00 Z2.000000
G00 X28.027456 Y102.346410

G01 Z-2.500000 F150.0(Penetrate)
G01 X28.026666 Y120.262830 Z-2.500000 F400.000000
G01 X35.387346 Y120.262830 Z-2.500000
G00 Z2.000000

(End cutting path id: path19411)


(Start cutting path id: path19409)
(Change tool to Cylindrical cutter)

G00 Z2.000000
G00 X35.382616 Y231.184690

G01 Z-1.500000 F150.0(Penetrate)
G01 X25.021986 Y231.184690 Z-1.500000 F400.000000
G01 X25.022776 Y213.268270 Z-1.500000
G01 X35.382646 Y213.268270 Z-1.500000
G00 Z2.000000

(End cutting path id: path19409)


(Start cutting path id: path19409)
(Change tool to Cylindrical cutter)

G00 Z2.000000
G00 X35.382616 Y231.184690

G01 Z-2.500000 F150.0(Penetrate)
G01 X25.021986 Y231.184690 Z-2.500000 F400.000000
G01 X25.022776 Y213.268270 Z-2.500000
G01 X35.382646 Y213.268270 Z-2.500000
G00 Z2.000000

(End cutting path id: path19409)


(Start cutting path id: path19407)
(Change tool to Cylindrical cutter)

G00 Z2.000000
G00 X35.382616 Y102.346410

G01 Z-1.500000 F150.0(Penetrate)
G01 X28.022716 Y102.346410 Z-1.500000 F400.000000
G00 Z2.000000

(End cutting path id: path19407)


(Start cutting path id: path19407)
(Change tool to Cylindrical cutter)

G00 Z2.000000
G00 X35.382616 Y102.346410

G01 Z-2.500000 F150.0(Penetrate)
G01 X28.022716 Y102.346410 Z-2.500000 F400.000000
G00 Z2.000000

(End cutting path id: path19407)


(Start cutting path id: path19405)
(Change tool to Cylindrical cutter)

G00 Z2.000000
G00 X4.765692 Y52.403140

G01 Z-1.500000 F150.0(Penetrate)
G01 X4.765692 Y70.402910 Z-1.500000 F400.000000
G00 Z2.000000

(End cutting path id: path19405)


(Start cutting path id: path19405)
(Change tool to Cylindrical cutter)

G00 Z2.000000
G00 X4.765692 Y52.403140

G01 Z-2.500000 F150.0(Penetrate)
G01 X4.765692 Y70.402910 Z-2.500000 F400.000000
G00 Z2.000000

(End cutting path id: path19405)


(Start cutting path id: path19403)
(Change tool to Cylindrical cutter)

G00 Z2.000000
G00 X17.382846 Y152.375880

G01 Z-1.500000 F150.0(Penetrate)
G01 X35.382616 Y152.375880 Z-1.500000 F400.000000
G00 Z2.000000

(End cutting path id: path19403)


(Start cutting path id: path19403)
(Change tool to Cylindrical cutter)

G00 Z2.000000
G00 X17.382846 Y152.375880

G01 Z-2.500000 F150.0(Penetrate)
G01 X35.382616 Y152.375880 Z-2.500000 F400.000000
G00 Z2.000000

(End cutting path id: path19403)


(Footer)
M5
G00 X0.0000 Y0.0000
M2
(Using default footer. To add your own footer create file "footer" in the output dir.)
(end)
%