%
(Header)
(Generated by gcodetools from Inkscape.)
(Using default header. To add your own header create file "header" in the output dir.)
M3
(Header end.)
G21 (All units in mm)

(Start cutting path id: path4278)
(Change tool to Cylindrical cutter)

G00 Z2.000000
G00 X0.211131 Y84.574260

G01 Z-3.000000 F100.0(Penetrate)
G01 X0.211131 Y82.854280 Z-3.000000 F400.000000
G01 X1.931111 Y82.854280 Z-3.000000
G01 X1.931111 Y84.574260 Z-3.000000
G01 X0.211131 Y84.574260 Z-3.000000
G00 Z2.000000

(End cutting path id: path4278)


(Start cutting path id: path4276)
(Change tool to Cylindrical cutter)

G00 Z2.000000
G00 X-3.408819 Y84.574260

G01 Z-3.000000 F100.0(Penetrate)
G01 X-3.408819 Y82.854280 Z-3.000000 F400.000000
G01 X-1.688839 Y82.854280 Z-3.000000
G01 X-1.688839 Y84.574260 Z-3.000000
G01 X-3.408819 Y84.574260 Z-3.000000
G00 Z2.000000

(End cutting path id: path4276)


(Start cutting path id: path4274)
(Change tool to Cylindrical cutter)

G00 Z2.000000
G00 X-7.028769 Y84.574260

G01 Z-3.000000 F100.0(Penetrate)
G01 X-7.028769 Y82.854280 Z-3.000000 F400.000000
G01 X-5.308799 Y82.854280 Z-3.000000
G01 X-5.308799 Y84.574260 Z-3.000000
G01 X-7.028769 Y84.574260 Z-3.000000
G00 Z2.000000

(End cutting path id: path4274)


(Start cutting path id: path4268)
(Change tool to Cylindrical cutter)

G00 Z2.000000
G00 X-10.648729 Y84.574260

G01 Z-3.000000 F100.0(Penetrate)
G01 X-10.648729 Y82.854280 Z-3.000000 F400.000000
G01 X-8.928749 Y82.854280 Z-3.000000
G01 X-8.928749 Y84.574260 Z-3.000000
G01 X-10.648729 Y84.574260 Z-3.000000
G00 Z2.000000

(End cutting path id: path4268)


(Start cutting path id: path4266)
(Change tool to Cylindrical cutter)

G00 Z2.000000
G00 X-14.268679 Y84.574260

G01 Z-3.000000 F100.0(Penetrate)
G01 X-14.268679 Y82.854280 Z-3.000000 F400.000000
G01 X-12.548709 Y82.854280 Z-3.000000
G01 X-12.548709 Y84.574260 Z-3.000000
G01 X-14.268679 Y84.574260 Z-3.000000
G00 Z2.000000

(End cutting path id: path4266)


(Footer)
M5
G00 X0.0000 Y0.0000
M2
(Using default footer. To add your own footer create file "footer" in the output dir.)
(end)
%