%
(Header)
(Generated by gcodetools from Inkscape.)
(Using default header. To add your own header create file "header" in the output dir.)
M3
(Header end.)
G21 (All units in mm)

(Start cutting path id: path4252)
(Change tool to Cylindrical cutter)

G00 Z2.000000
G00 X0.211131 Y91.814170

G01 Z-3.000000 F100.0(Penetrate)
G01 X0.211131 Y90.094190 Z-3.000000 F400.000000
G01 X1.931111 Y90.094190 Z-3.000000
G01 X1.931111 Y91.814170 Z-3.000000
G01 X0.211131 Y91.814170 Z-3.000000
G00 Z2.000000

(End cutting path id: path4252)


(Start cutting path id: path4250)
(Change tool to Cylindrical cutter)

G00 Z2.000000
G00 X-3.408819 Y91.814170

G01 Z-3.000000 F100.0(Penetrate)
G01 X-3.408819 Y90.094190 Z-3.000000 F400.000000
G01 X-1.688839 Y90.094190 Z-3.000000
G01 X-1.688839 Y91.814170 Z-3.000000
G01 X-3.408819 Y91.814170 Z-3.000000
G00 Z2.000000

(End cutting path id: path4250)


(Start cutting path id: path4248)
(Change tool to Cylindrical cutter)

G00 Z2.000000
G00 X-7.028769 Y91.814170

G01 Z-3.000000 F100.0(Penetrate)
G01 X-7.028769 Y90.094190 Z-3.000000 F400.000000
G01 X-5.308799 Y90.094190 Z-3.000000
G01 X-5.308799 Y91.814170 Z-3.000000
G01 X-7.028769 Y91.814170 Z-3.000000
G00 Z2.000000

(End cutting path id: path4248)


(Start cutting path id: path4246)
(Change tool to Cylindrical cutter)

G00 Z2.000000
G00 X-10.648729 Y91.814170

G01 Z-3.000000 F100.0(Penetrate)
G01 X-10.648729 Y90.094190 Z-3.000000 F400.000000
G01 X-8.928749 Y90.094190 Z-3.000000
G01 X-8.928749 Y91.814170 Z-3.000000
G01 X-10.648729 Y91.814170 Z-3.000000
G00 Z2.000000

(End cutting path id: path4246)


(Start cutting path id: path4244)
(Change tool to Cylindrical cutter)

G00 Z2.000000
G00 X-14.268679 Y91.814170

G01 Z-3.000000 F100.0(Penetrate)
G01 X-14.268679 Y90.094190 Z-3.000000 F400.000000
G01 X-12.548709 Y90.094190 Z-3.000000
G01 X-12.548709 Y91.814170 Z-3.000000
G01 X-14.268679 Y91.814170 Z-3.000000
G00 Z2.000000

(End cutting path id: path4244)


(Footer)
M5
G00 X0.0000 Y0.0000
M2
(Using default footer. To add your own footer create file "footer" in the output dir.)
(end)
%