%
(Header)
(Generated by gcodetools from Inkscape.)
(Using default header. To add your own header create file "header" in the output dir.)
M3
(Header end.)
G21 (All units in mm)

(Start cutting path id: path4288)
(Change tool to Cylindrical cutter)

G00 Z2.000000
G00 X-30.274639 Y91.818950

G01 Z-3.000000 F100.0(Penetrate)
G01 X-30.274639 Y90.098970 Z-3.000000 F400.000000
G01 X-28.554659 Y90.098970 Z-3.000000
G01 X-28.554659 Y91.818950 Z-3.000000
G01 X-30.274639 Y91.818950 Z-3.000000
G00 Z2.000000

(End cutting path id: path4288)


(Start cutting path id: path4286)
(Change tool to Cylindrical cutter)

G00 Z2.000000
G00 X-26.654679 Y91.818950

G01 Z-3.000000 F100.0(Penetrate)
G01 X-26.654679 Y90.098970 Z-3.000000 F400.000000
G01 X-24.934699 Y90.098970 Z-3.000000
G01 X-24.934699 Y91.818950 Z-3.000000
G01 X-26.654679 Y91.818950 Z-3.000000
G00 Z2.000000

(End cutting path id: path4286)


(Start cutting path id: path4284)
(Change tool to Cylindrical cutter)

G00 Z2.000000
G00 X-23.034729 Y91.818950

G01 Z-3.000000 F100.0(Penetrate)
G01 X-23.034729 Y90.098970 Z-3.000000 F400.000000
G01 X-21.314749 Y90.098970 Z-3.000000
G01 X-21.314749 Y91.818950 Z-3.000000
G01 X-23.034729 Y91.818950 Z-3.000000
G00 Z2.000000

(End cutting path id: path4284)


(Footer)
M5
G00 X0.0000 Y0.0000
M2
(Using default footer. To add your own footer create file "footer" in the output dir.)
(end)
%