%
(Header)
(Generated by gcodetools from Inkscape.)
(Using default header. To add your own header create file "header" in the output dir.)
M3
(Header end.)
G21 (All units in mm)

(Start cutting path id: path4262)
(Change tool to Cylindrical cutter)

G00 Z2.000000
G00 X-14.268679 Y88.194220

G01 Z-3.000000 F100.0(Penetrate)
G01 X-14.268679 Y86.474240 Z-3.000000 F400.000000
G01 X-12.548709 Y86.474240 Z-3.000000
G01 X-12.548709 Y88.194220 Z-3.000000
G01 X-14.268679 Y88.194220 Z-3.000000
G00 Z2.000000

(End cutting path id: path4262)


(Start cutting path id: path4260)
(Change tool to Cylindrical cutter)

G00 Z2.000000
G00 X-10.648729 Y88.194220

G01 Z-3.000000 F100.0(Penetrate)
G01 X-10.648729 Y86.474240 Z-3.000000 F400.000000
G01 X-8.928749 Y86.474240 Z-3.000000
G01 X-8.928749 Y88.194220 Z-3.000000
G01 X-10.648729 Y88.194220 Z-3.000000
G00 Z2.000000

(End cutting path id: path4260)


(Start cutting path id: path4258)
(Change tool to Cylindrical cutter)

G00 Z2.000000
G00 X-7.028769 Y88.194220

G01 Z-3.000000 F100.0(Penetrate)
G01 X-7.028769 Y86.474240 Z-3.000000 F400.000000
G01 X-5.308799 Y86.474240 Z-3.000000
G01 X-5.308799 Y88.194220 Z-3.000000
G01 X-7.028769 Y88.194220 Z-3.000000
G00 Z2.000000

(End cutting path id: path4258)


(Start cutting path id: path4256)
(Change tool to Cylindrical cutter)

G00 Z2.000000
G00 X-3.408819 Y88.194220

G01 Z-3.000000 F100.0(Penetrate)
G01 X-3.408819 Y86.474240 Z-3.000000 F400.000000
G01 X-1.688839 Y86.474240 Z-3.000000
G01 X-1.688839 Y88.194220 Z-3.000000
G01 X-3.408819 Y88.194220 Z-3.000000
G00 Z2.000000

(End cutting path id: path4256)


(Start cutting path id: path4254)
(Change tool to Cylindrical cutter)

G00 Z2.000000
G00 X0.211131 Y88.194220

G01 Z-3.000000 F100.0(Penetrate)
G01 X0.211131 Y86.474240 Z-3.000000 F400.000000
G01 X1.931111 Y86.474240 Z-3.000000
G01 X1.931111 Y88.194220 Z-3.000000
G01 X0.211131 Y88.194220 Z-3.000000
G00 Z2.000000

(End cutting path id: path4254)


(Footer)
M5
G00 X0.0000 Y0.0000
M2
(Using default footer. To add your own footer create file "footer" in the output dir.)
(end)
%