%
(Header)
(Generated by gcodetools from Inkscape.)
(Using default header. To add your own header create file "header" in the output dir.)
M3
(Header end.)
G21 (All units in mm)

(Start cutting path id: path4242)
(Change tool to Cylindrical cutter)

G00 Z2.000000
G00 X-14.561799 Y98.541820

G01 Z-3.000000 F100.0(Penetrate)
G01 X-11.732259 Y98.541940 Z-3.000000 F400.000000
G01 X-11.732379 Y101.371910 Z-3.000000
G01 X-14.561929 Y101.371790 Z-3.000000
G01 X-14.561799 Y98.541820 Z-3.000000
G00 Z2.000000

(End cutting path id: path4242)


(Start cutting path id: path4240)
(Change tool to Cylindrical cutter)

G00 Z2.000000
G00 X-6.901889 Y98.542150

G01 Z-3.000000 F100.0(Penetrate)
G01 X-6.902019 Y101.372110 Z-3.000000 F400.000000
G01 X-9.732239 Y101.372000 Z-3.000000
G01 X-9.732279 Y98.542020 Z-3.000000
G01 X-6.901889 Y98.542150 Z-3.000000
G00 Z2.000000

(End cutting path id: path4240)


(Start cutting path id: path4238)
(Change tool to Cylindrical cutter)

G00 Z2.000000
G00 X-14.562109 Y106.201750

G01 Z-3.000000 F100.0(Penetrate)
G01 X-14.561979 Y103.371780 Z-3.000000 F400.000000
G01 X-11.732429 Y103.371900 Z-3.000000
G01 X-11.732549 Y106.201870 Z-3.000000
G01 X-14.562109 Y106.201750 Z-3.000000
G00 Z2.000000

(End cutting path id: path4238)


(Start cutting path id: path4236)
(Change tool to Cylindrical cutter)

G00 Z2.000000
G00 X-6.902189 Y106.202060

G01 Z-3.000000 F100.0(Penetrate)
G01 X-9.732169 Y106.201940 Z-3.000000 F400.000000
G01 X-9.732209 Y103.371960 Z-3.000000
G01 X-6.902069 Y103.372070 Z-3.000000
G01 X-6.902189 Y106.202060 Z-3.000000
G00 Z2.000000

(End cutting path id: path4236)


(Start cutting path id: path4234)
(Change tool to Cylindrical cutter)

G00 Z2.000000
G00 X-14.196589 Y134.234600

G01 Z-3.000000 F100.0(Penetrate)
G01 X-17.770089 Y134.234450 Z-3.000000 F400.000000
G01 X-17.770239 Y137.807930 Z-3.000000
G01 X-14.196739 Y137.808090 Z-3.000000
G01 X-14.196589 Y134.234600 Z-3.000000
G00 Z2.000000

(End cutting path id: path4234)


(Start cutting path id: path4232)
(Change tool to Cylindrical cutter)

G00 Z2.000000
G00 X-10.696179 Y123.734890

G01 Z-3.000000 F100.0(Penetrate)
G01 X-14.269669 Y123.734740 Z-3.000000 F400.000000
G01 X-14.269829 Y127.308230 Z-3.000000
G01 X-10.696329 Y127.308380 Z-3.000000
G01 X-10.696179 Y123.734890 Z-3.000000
G00 Z2.000000

(End cutting path id: path4232)


(Start cutting path id: path4230)
(Change tool to Cylindrical cutter)

G00 Z2.000000
G00 X-14.195689 Y113.234890

G01 Z-3.000000 F100.0(Penetrate)
G01 X-17.769189 Y113.234730 Z-3.000000 F400.000000
G01 X-17.769339 Y116.808220 Z-3.000000
G01 X-14.195839 Y116.808370 Z-3.000000
G01 X-14.195689 Y113.234890 Z-3.000000
G00 Z2.000000

(End cutting path id: path4230)


(Footer)
M5
G00 X0.0000 Y0.0000
M2
(Using default footer. To add your own footer create file "footer" in the output dir.)
(end)
%