%
(Header)
(Generated by gcodetools from Inkscape.)
(Using default header. To add your own header create file "header" in the output dir.)
M3
(Header end.)
G21 (All units in mm)

(Start cutting path id: path19445)
(Change tool to Cylindrical cutter)

G00 Z2.000000
G00 X20.653669 Y170.127400

G01 Z-3.000000 F150.0(Penetrate)
G01 X33.831679 Y170.127670 Z-3.000000 F400.000000
G01 X33.835679 Y81.348350 Z-3.000000
G01 X6.027669 Y81.347350 Z-3.000000
G01 X6.027819 Y77.850650 Z-3.000000
G01 X-9.446065 Y77.846650 Z-3.000000
G01 X-9.451065 Y184.125340 Z-3.000000
G01 X6.023769 Y184.124550 Z-3.000000
G00 Z2.000000

(End cutting path id: path19445)


(Start cutting path id: path15802)
(Change tool to Cylindrical cutter)

G00 Z2.000000
G00 X20.653669 Y170.127400

G01 Z-3.000000 F150.0(Penetrate)
G01 X33.831679 Y170.127670 Z-3.000000 F400.000000
G01 X33.835679 Y81.348350 Z-3.000000
G01 X6.027669 Y81.347350 Z-3.000000
G01 X6.027819 Y77.850650 Z-3.000000
G01 X-9.446065 Y77.846650 Z-3.000000
G01 X-9.451065 Y184.125340 Z-3.000000
G01 X6.023769 Y184.124550 Z-3.000000
G00 Z2.000000

(End cutting path id: path15802)


(Start cutting path id: path15800)
(Change tool to Cylindrical cutter)

G00 Z2.000000
G00 X-1.984541 Y197.818920

G01 Z-3.000000 F150.0(Penetrate)
G01 X-1.984541 Y208.179550 Z-3.000000 F400.000000
G01 X4.515379 Y208.179550 Z-3.000000
G01 X4.515379 Y214.679460 Z-3.000000
G01 X22.431809 Y214.678660 Z-3.000000
G01 X22.431809 Y208.178740 Z-3.000000
G01 X28.931729 Y208.178740 Z-3.000000
G01 X28.931729 Y197.818880 Z-3.000000
G00 Z2.000000

(End cutting path id: path15800)


(Start cutting path id: path15798)
(Change tool to Cylindrical cutter)

G00 Z2.000000
G00 X-3.729361 Y232.389404

G01 Z-3.000000 F150.0(Penetrate)
G01 X-3.728831 Y242.750044 Z-3.000000 F400.000000
G01 X2.771079 Y242.749774 Z-3.000000
G01 X2.771349 Y249.249684 Z-3.000000
G01 X20.687769 Y249.247684 Z-3.000000
G01 X20.687509 Y242.747764 Z-3.000000
G01 X27.187429 Y242.747504 Z-3.000000
G01 X27.186899 Y232.387634 Z-3.000000
G00 Z2.000000

(End cutting path id: path15798)


(Start cutting path id: path19429)
(Change tool to Cylindrical cutter)

G00 Z2.000000
G00 X-1.984541 Y197.818920

G01 Z-3.000000 F150.0(Penetrate)
G01 X-1.984541 Y208.179550 Z-3.000000 F400.000000
G01 X4.515379 Y208.179550 Z-3.000000
G01 X4.515379 Y214.679460 Z-3.000000
G01 X22.431809 Y214.678660 Z-3.000000
G01 X22.431809 Y208.178740 Z-3.000000
G01 X28.931729 Y208.178740 Z-3.000000
G01 X28.931729 Y197.818880 Z-3.000000
G00 Z2.000000

(End cutting path id: path19429)


(Start cutting path id: path19427)
(Change tool to Cylindrical cutter)

G00 Z2.000000
G00 X-3.729361 Y232.389404

G01 Z-3.000000 F150.0(Penetrate)
G01 X-3.728831 Y242.750044 Z-3.000000 F400.000000
G01 X2.771079 Y242.749774 Z-3.000000
G01 X2.771349 Y249.249684 Z-3.000000
G01 X20.687769 Y249.247684 Z-3.000000
G01 X20.687509 Y242.747764 Z-3.000000
G01 X27.187429 Y242.747504 Z-3.000000
G01 X27.186899 Y232.387634 Z-3.000000
G00 Z2.000000

(End cutting path id: path19427)


(Footer)
M5
G00 X0.0000 Y0.0000
M2
(Using default footer. To add your own footer create file "footer" in the output dir.)
(end)
%