%
(Header)
(Generated by gcodetools from Inkscape.)
(Using default header. To add your own header create file "header" in the output dir.)
M3
(Header end.)
G21 (All units in mm)

(Start cutting path id: path45828)
(Change tool to Cylindrical cutter)

G00 Z2.000000
G00 X10.867969 Y104.538390

G01 Z-1.500000 F100.0(Penetrate)
G01 X10.580859 Y104.446590 Z-1.500000 F400.000000
G01 X10.580859 Y102.628230 Z-1.500000
G01 X10.867969 Y102.628230 Z-1.500000
G01 X10.867969 Y104.538390 Z-1.500000
G00 Z2.000000

(End cutting path id: path45828)


(Start cutting path id: path45828)
(Change tool to Cylindrical cutter)

G00 Z2.000000
G00 X11.516406 Y105.427060

G01 Z-1.500000 F100.0(Penetrate)
G01 X9.932422 Y104.919250 Z-1.500000 F400.000000
G01 X9.932422 Y101.979800 Z-1.500000
G01 X11.516406 Y101.979800 Z-1.500000
G01 X11.516406 Y105.427060 Z-1.500000
G00 Z2.000000

(End cutting path id: path45828)


(Start cutting path id: path45828)
(Change tool to Cylindrical cutter)

G00 Z2.000000
G00 X15.787891 Y136.208320

G01 Z-1.500000 F100.0(Penetrate)
G01 X15.787891 Y133.950500 Z-1.500000 F400.000000
G01 X16.162891 Y134.157530 Z-1.500000
G01 X16.162891 Y136.208320 Z-1.500000
G01 X15.787891 Y136.208320 Z-1.500000
G00 Z2.000000

(End cutting path id: path45828)


(Start cutting path id: path45828)
(Change tool to Cylindrical cutter)

G00 Z2.000000
G00 X12.660938 Y127.589170

G01 Z-1.500000 F100.0(Penetrate)
G01 X12.287891 Y127.384100 Z-1.500000 F400.000000
G01 X12.287891 Y123.657530 Z-1.500000
G01 X12.660938 Y123.452460 Z-1.500000
G01 X12.660938 Y127.589170 Z-1.500000
G00 Z2.000000

(End cutting path id: path45828)


(Start cutting path id: path45828)
(Change tool to Cylindrical cutter)

G00 Z2.000000
G00 X15.787891 Y117.089170

G01 Z-1.500000 F100.0(Penetrate)
G01 X15.787891 Y112.880190 Z-1.500000 F400.000000
G01 X16.160938 Y113.096990 Z-1.500000
G01 X16.160938 Y116.884100 Z-1.500000
G01 X15.787891 Y117.089170 Z-1.500000
G00 Z2.000000

(End cutting path id: path45828)


(Start cutting path id: path45828)
(Change tool to Cylindrical cutter)

G00 Z2.000000
G00 X12.416797 Y106.663390

G01 Z-1.500000 F100.0(Penetrate)
G01 X9.032031 Y105.575500 Z-1.500000 F400.000000
G01 X9.032031 Y101.079410 Z-1.500000
G01 X12.414844 Y101.079410 Z-1.500000
G01 X12.416797 Y106.663390 Z-1.500000
G00 Z2.000000

(End cutting path id: path45828)


(Start cutting path id: path45828)
(Change tool to Cylindrical cutter)

G00 Z2.000000
G00 X14.889453 Y137.108710

G01 Z-1.500000 F100.0(Penetrate)
G01 X14.889453 Y132.399720 Z-1.500000 F400.000000
G02 X15.051262 Y132.510245 Z-1.500000 I1.885156 J-2.586162
G02 X15.219531 Y132.610660 Z-1.500000 I1.723348 J-2.696687
G01 X17.061328 Y133.626280 Z-1.500000
G01 X17.061328 Y137.108710 Z-1.500000
G01 X14.889453 Y137.108710 Z-1.500000
G00 Z2.000000

(End cutting path id: path45828)


(Start cutting path id: path45828)
(Change tool to Cylindrical cutter)

G00 Z2.000000
G00 X13.561328 Y129.145820

G01 Z-1.500000 F100.0(Penetrate)
G02 X13.399597 Y129.033313 Z-1.500000 I-1.907577 J2.569669 F400.000000
G02 X13.231250 Y128.930970 Z-1.500000 I-1.745846 J2.682176
G01 X11.387500 Y127.917300 Z-1.500000
G01 X11.387500 Y123.126280 Z-1.500000
G01 X13.231250 Y122.112610 Z-1.500000
G02 X13.399597 Y122.010272 Z-1.500000 I-1.577442 J-2.784551
G02 X13.561328 Y121.897770 Z-1.500000 I-1.745789 J-2.682213
G01 X13.561328 Y129.145820 Z-1.500000
G00 Z2.000000

(End cutting path id: path45828)


(Start cutting path id: path45828)
(Change tool to Cylindrical cutter)

G00 Z2.000000
G00 X14.887500 Y118.643860

G01 Z-1.500000 F100.0(Penetrate)
G01 X14.887500 Y111.317690 Z-1.500000 F400.000000
G02 X14.899205 Y111.324565 Z-1.500000 I1.626599 J-2.756125
G02 X14.910940 Y111.331390 Z-1.500000 I1.614893 J-2.763000
G01 X17.061330 Y112.577490 Z-1.500000
G01 X17.061330 Y117.417330 Z-1.500000
G01 X15.217580 Y118.431000 Z-1.500000
G02 X15.049271 Y118.532362 Z-1.500000 I1.566125 J2.790932
G02 X14.887500 Y118.643860 Z-1.500000 I1.734434 J2.689570
G01 X14.887500 Y118.643860 Z-1.500000
G00 Z2.000000

(End cutting path id: path45828)


(Start cutting path id: path45828)
(Change tool to Cylindrical cutter)

G00 Z2.000000
G00 X13.315234 Y107.983710

G01 Z-1.500000 F100.0(Penetrate)
G02 X12.999247 Y107.818147 Z-1.500000 I-1.640981 J2.747586 F400.000000
G02 X12.666797 Y107.688780 Z-1.500000 I-1.324994 J2.913149
G01 X8.133594 Y106.231750 Z-1.500000
G01 X8.131594 Y100.180970 Z-1.500000
G01 X13.315187 Y100.180970 Z-1.500000
G01 X13.315234 Y107.983710 Z-1.500000
G00 Z2.000000

(End cutting path id: path45828)


(Start cutting path id: path45828)
(Change tool to Cylindrical cutter)

G00 Z2.000000
G00 X13.989062 Y138.007140

G01 Z-1.500000 F100.0(Penetrate)
G01 X13.989062 Y131.733710 Z-1.500000 F400.000000
G02 X13.668514 Y130.564073 Z-1.500000 I-2.300229 J0.001653
G02 X12.797656 Y129.720030 Z-1.500000 I-1.979681 J1.171290
G01 X10.489062 Y128.448550 Z-1.500000
G01 X10.489062 Y122.595030 Z-1.500000
G01 X12.797656 Y121.323550 Z-1.500000
G02 X13.667897 Y120.478320 Z-1.500000 I-1.110777 J-2.014258
G02 X13.987109 Y119.307920 Z-1.500000 I-1.981018 J-1.169028
G01 X13.987109 Y110.735660 Z-1.500000
G02 X13.545794 Y109.381086 Z-1.500000 I-2.300230 J0.000230
G02 X12.391406 Y108.546210 Z-1.500000 I-1.858915 J1.354804
G01 X7.233203 Y106.888000 Z-1.500000
G01 X7.233203 Y99.280580 Z-1.500000
G01 X14.215625 Y99.280580 Z-1.500000
G01 X14.215625 Y108.563780 Z-1.500000
G02 X14.523168 Y109.711128 Z-1.500000 I2.300229 J-0.001677
G02 X15.362109 Y110.552060 Z-1.500000 I1.992687 J-1.149025
G01 X17.961719 Y112.059880 Z-1.500000
G01 X17.961719 Y117.948550 Z-1.500000
G01 X15.653125 Y119.220030 Z-1.500000
G02 X14.782267 Y120.064073 Z-1.500000 I1.108823 J2.015333
G02 X14.461719 Y121.233710 Z-1.500000 I1.979681 J1.171290
G01 X14.461719 Y129.807920 Z-1.500000
G02 X14.781771 Y130.978668 Z-1.500000 I2.300230 J0.000297
G02 X15.653125 Y131.823550 Z-1.500000 I1.980178 J-1.170451
G01 X17.961719 Y133.093080 Z-1.500000
G01 X17.961719 Y138.007140 Z-1.500000
G01 X13.989062 Y138.007140 Z-1.500000
G00 Z2.000000

(End cutting path id: path45828)


(Start cutting path id: path45828)
(Change tool to Cylindrical cutter)

G00 Z2.000000
G00 X13.088672 Y138.907530

G01 Z-1.500000 F100.0(Penetrate)
G01 X13.088672 Y131.733710 Z-1.500000 F400.000000
G02 X12.893530 Y131.022494 Z-1.500000 I-1.400139 J0.001788
G02 X12.364062 Y130.509100 Z-1.500000 I-1.204996 J0.713005
G01 X9.588672 Y128.981750 Z-1.500000
G01 X9.588672 Y122.061830 Z-1.500000
G01 X12.364062 Y120.534490 Z-1.500000
G02 X12.894028 Y120.020252 Z-1.500000 I-0.675530 J-1.226398
G02 X13.088672 Y119.307920 Z-1.500000 I-1.205496 J-0.712160
G01 X13.088672 Y110.735660 Z-1.500000
G02 X12.819874 Y109.910057 Z-1.500000 I-1.400140 J-0.000705
G02 X12.116016 Y109.401670 Z-1.500000 I-1.131342 J0.824899
G01 X6.332812 Y107.542300 Z-1.500000
G01 X6.332812 Y98.380190 Z-1.500000
G01 X15.116016 Y98.380190 Z-1.500000
G01 X15.116016 Y108.563780 Z-1.500000
G02 X15.302788 Y109.262450 Z-1.500000 I1.400140 J0.000007
G02 X15.813281 Y109.774720 Z-1.500000 I1.213368 J-0.698663
G01 X18.862109 Y111.540350 Z-1.500000
G01 X18.862109 Y118.479800 Z-1.500000
G01 X16.086719 Y120.007140 Z-1.500000
G02 X15.556753 Y120.521378 Z-1.500000 I0.675530 J1.226398
G02 X15.362109 Y121.233710 Z-1.500000 I1.205496 J0.712160
G01 X15.362109 Y129.807920 Z-1.500000
G02 X15.556753 Y130.520252 Z-1.500000 I1.400140 J0.000172
G02 X16.086719 Y131.034490 Z-1.500000 I1.205496 J-0.712160
G01 X18.862109 Y132.561830 Z-1.500000
G01 X18.862109 Y138.907530 Z-1.500000
G01 X13.088672 Y138.907530 Z-1.500000
G00 Z2.000000

(End cutting path id: path45828)


(Start cutting path id: path45828)
(Change tool to Cylindrical cutter)

G00 Z2.000000
G00 X12.188281 Y139.807920

G01 Z-1.500000 F100.0(Penetrate)
G01 X12.188281 Y131.733710 Z-1.500000 F400.000000
G02 X12.119044 Y131.479798 Z-1.500000 I-0.500050 J-0.000041
G02 X11.930469 Y131.296210 Z-1.500000 I-0.430813 J0.253871
G01 X8.688281 Y129.513000 Z-1.500000
G01 X8.688281 Y121.530580 Z-1.500000
G01 X11.928516 Y119.745420 Z-1.500000
G02 X12.118203 Y119.562179 Z-1.500000 I-0.240284 J-0.438536
G02 X12.188281 Y119.307920 Z-1.500000 I-0.429971 J-0.255294
G01 X12.188281 Y110.735660 Z-1.500000
G02 X12.092209 Y110.440656 Z-1.500000 I-0.500050 J-0.000297
G02 X11.840625 Y110.259100 Z-1.500000 I-0.403978 J0.294706
G01 X5.432422 Y108.198550 Z-1.500000
G01 X5.432422 Y97.479800 Z-1.500000
G01 X16.016406 Y97.479800 Z-1.500000
G01 X16.016406 Y108.563780 Z-1.500000
G02 X16.082896 Y108.812662 Z-1.500000 I0.500050 J-0.000268
G02 X16.264453 Y108.995420 Z-1.500000 I0.433560 J-0.249150
G01 X19.760547 Y111.022770 Z-1.500000
G01 X19.760547 Y119.013000 Z-1.500000
G01 X16.520312 Y120.796210 Z-1.500000
G02 X16.331737 Y120.979798 Z-1.500000 I0.242238 J0.437459
G02 X16.262500 Y121.233710 Z-1.500000 I0.430813 J0.253871
G01 X16.262500 Y129.807920 Z-1.500000
G02 X16.331737 Y130.061832 Z-1.500000 I0.500050 J0.000041
G02 X16.520312 Y130.245420 Z-1.500000 I0.430813 J-0.253871
G01 X19.762500 Y132.030580 Z-1.500000
G01 X19.762500 Y139.807920 Z-1.500000
G01 X12.188281 Y139.807920 Z-1.500000
G00 Z2.000000

(End cutting path id: path45828)


(Footer)
M5
G00 X0.0000 Y0.0000
M2
(Using default footer. To add your own footer create file "footer" in the output dir.)
(end)
%