%
(Header)
(Generated by gcodetools from Inkscape.)
(Using default header. To add your own header create file "header" in the output dir.)
M3
(Header end.)
G21 (All units in mm)

(Start cutting path id: path19443)
(Change tool to Cylindrical cutter)

G00 Z2.000000
G00 X-23.732402 Y52.403140

G01 Z-2.750000 F150.0(Penetrate)
G01 X-23.732402 Y70.402910 Z-2.750000 F400.000000
G00 Z2.000000

(End cutting path id: path19443)


(Start cutting path id: path19441)
(Change tool to Cylindrical cutter)

G00 Z2.000000
G00 X-8.257722 Y52.403140

G01 Z-2.750000 F150.0(Penetrate)
G01 X-8.257722 Y70.402910 Z-2.750000 F400.000000
G00 Z2.000000

(End cutting path id: path19441)


(Start cutting path id: path19439)
(Change tool to Cylindrical cutter)

G00 Z2.000000
G00 X23.046992 Y52.403140

G01 Z-2.750000 F150.0(Penetrate)
G01 X23.046992 Y57.703070 Z-2.750000 F400.000000
G00 Z2.000000

(End cutting path id: path19439)


(Start cutting path id: path19437)
(Change tool to Cylindrical cutter)

G00 Z2.000000
G00 X-17.378176 Y138.192930

G01 Z-2.750000 F150.0(Penetrate)
G01 X-35.377946 Y138.192930 Z-2.750000 F400.000000
G00 Z2.000000

(End cutting path id: path19437)


(Start cutting path id: path19435)
(Change tool to Cylindrical cutter)

G00 Z2.000000
G00 X-26.428066 Y166.372480

G01 Z-2.750000 F150.0(Penetrate)
G01 X-35.377946 Y166.372480 Z-2.750000 F400.000000
G00 Z2.000000

(End cutting path id: path19435)


(Start cutting path id: path19433)
(Change tool to Cylindrical cutter)

G00 Z2.000000
G00 X-17.378176 Y195.472130

G01 Z-2.750000 F150.0(Penetrate)
G01 X-35.377946 Y195.472130 Z-2.750000 F400.000000
G00 Z2.000000

(End cutting path id: path19433)


(Footer)
M5
G00 X0.0000 Y0.0000
M2
(Using default footer. To add your own footer create file "footer" in the output dir.)
(end)
%