%
(Header)
(Generated by gcodetools from Inkscape.)
(Using default header. To add your own header create file "header" in the output dir.)
M3
(Header end.)
G21 (All units in mm)

(Start cutting path id: path4206)
(Change tool to Cylindrical cutter)

G00 Z2.000000
G00 X-22.268749 Y30.771570

G01 Z-2.750000 F100.0(Penetrate)
G01 X-22.268749 Y48.771350 Z-2.750000 F400.000000
G00 Z2.000000

(End cutting path id: path4206)


(Start cutting path id: path4204)
(Change tool to Cylindrical cutter)

G00 Z2.000000
G00 X-6.794069 Y30.771570

G01 Z-2.750000 F100.0(Penetrate)
G01 X-6.794069 Y48.771350 Z-2.750000 F400.000000
G00 Z2.000000

(End cutting path id: path4204)


(Start cutting path id: path4202)
(Change tool to Cylindrical cutter)

G00 Z2.000000
G00 X24.510641 Y30.771570

G01 Z-2.750000 F100.0(Penetrate)
G01 X24.510641 Y36.071510 Z-2.750000 F400.000000
G00 Z2.000000

(End cutting path id: path4202)


(Start cutting path id: path4200)
(Change tool to Cylindrical cutter)

G00 Z2.000000
G00 X-18.276969 Y134.915330

G01 Z-2.750000 F100.0(Penetrate)
G01 X-36.276739 Y134.915330 Z-2.750000 F400.000000
G00 Z2.000000

(End cutting path id: path4200)


(Footer)
M5
G00 X0.0000 Y0.0000
M2
(Using default footer. To add your own footer create file "footer" in the output dir.)
(end)
%