%
(Header)
(Generated by gcodetools from Inkscape.)
(Using default header. To add your own header create file "header" in the output dir.)
M3
(Header end.)
G21 (All units in mm)

(Start cutting path id: path33779-5)
(Change tool to Cylindrical cutter)

G00 Z2.000000
G00 X-23.167010 Y198.256352

G01 Z-1.500000 F150.0(Penetrate)
G01 X-23.167010 Y198.250352 Z-1.500000 F400.000000
G01 X-26.395526 Y198.250352 Z-1.500000
G03 X-28.354508 Y197.439232 Z-1.500000 I0.000212 J-2.771697
G03 X-29.167010 Y195.480822 Z-1.500000 I1.959195 J-1.960577
G01 X-29.167010 Y195.478822 Z-1.500000
G01 X-29.215840 Y195.478822 Z-1.500000
G01 X-29.215840 Y155.152642 Z-1.500000
G01 X-29.624043 Y155.152642 Z-1.500000
G01 X-29.624043 Y195.479012 Z-1.500000
G01 X-29.624043 Y198.256352 Z-1.500000
G01 X-23.167010 Y198.256352 Z-1.500000
G00 Z2.000000

(End cutting path id: path33779-5)


(Start cutting path id: path33781)
(Change tool to Cylindrical cutter)

G00 Z2.000000
G00 X-28.544939 Y197.822270

G01 Z-1.500000 F150.0(Penetrate)
G03 X-28.893858 Y197.444451 Z-1.500000 I2.169042 J-2.353148 F400.000000
G03 X-29.177752 Y197.015620 Z-1.500000 I2.517961 J-1.975328
G01 X-29.177752 Y197.822270 Z-1.500000
G01 X-28.544939 Y197.822270 Z-1.500000
G00 Z2.000000

(End cutting path id: path33781)


(Start cutting path id: path33779)
(Change tool to Cylindrical cutter)

G00 Z2.000000
G00 X-22.677752 Y198.722660

G01 Z-1.500000 F150.0(Penetrate)
G01 X-22.677752 Y197.771480 Z-1.500000 F400.000000
G01 X-26.378924 Y197.771480 Z-1.500000
G03 X-28.003340 Y197.098451 Z-1.500000 I0.001400 J-2.300230
G03 X-28.677752 Y195.474610 Z-1.500000 I1.625815 J-1.627201
G01 X-28.677752 Y195.472610 Z-1.500000
G01 X-28.728532 Y195.472610 Z-1.500000
G01 X-28.728532 Y154.675730 Z-1.500000
G01 X-30.078141 Y154.675730 Z-1.500000
G01 X-30.078141 Y195.472610 Z-1.500000
G01 X-30.078141 Y198.722610 Z-1.500000
G01 X-22.677752 Y198.722660 Z-1.500000
G00 Z2.000000

(End cutting path id: path33779)


(Start cutting path id: path33777)
(Change tool to Cylindrical cutter)

G00 Z2.000000
G00 X-21.777361 Y199.623050

G01 Z-1.500000 F150.0(Penetrate)
G01 X-21.777361 Y196.873050 Z-1.500000 F400.000000
G01 X-26.378924 Y196.873050 Z-1.500000
G03 X-27.367272 Y196.462958 Z-1.500000 I0.001702 J-1.400139
G03 X-27.777361 Y195.474610 Z-1.500000 I0.990050 J-0.990047
G01 X-27.777361 Y195.472610 Z-1.500000
G01 X-27.828141 Y195.472610 Z-1.500000
G01 X-27.828141 Y153.775340 Z-1.500000
G01 X-30.978532 Y153.775340 Z-1.500000
G01 X-30.978532 Y195.472610 Z-1.500000
G01 X-30.978532 Y199.623000 Z-1.500000
G01 X-21.777361 Y199.623050 Z-1.500000
G00 Z2.000000

(End cutting path id: path33777)


(Start cutting path id: path33775)
(Change tool to Cylindrical cutter)

G00 Z2.000000
G00 X-20.878924 Y200.521484

G01 Z-1.500000 F150.0(Penetrate)
G01 X-20.878924 Y195.972660 Z-1.500000 F400.000000
G01 X-26.378924 Y195.972660 Z-1.500000
G03 X-26.732463 Y195.826199 Z-1.500000 I0.000050 J-0.500050
G03 X-26.878924 Y195.472660 Z-1.500000 I0.353589 J-0.353589
G01 X-26.927754 Y195.472660 Z-1.500000
G01 X-26.927754 Y152.875000 Z-1.500000
G01 X-31.878926 Y152.875000 Z-1.500000
G01 X-31.878926 Y195.472660 Z-1.500000
G01 X-31.878926 Y200.521484 Z-1.500000
G01 X-20.878924 Y200.521484 Z-1.500000
G00 Z2.000000

(End cutting path id: path33775)


(Start cutting path id: path33771-6)
(Change tool to Cylindrical cutter)

G00 Z2.000000
G00 X-25.087778 Y83.214839

G01 Z-1.500000 F150.0(Penetrate)
G01 X-25.087778 Y82.529299 Z-1.500000 F400.000000
G01 X-27.773325 Y82.529299 Z-1.500000
G01 X-27.773325 Y83.214839 Z-1.500000
G01 X-25.087778 Y83.214839 Z-1.500000
G00 Z2.000000

(End cutting path id: path33771-6)


(Start cutting path id: path33771)
(Change tool to Cylindrical cutter)

G00 Z2.000000
G00 X-24.375018 Y83.849610

G01 Z-1.500000 F150.0(Penetrate)
G01 X-24.375018 Y81.841800 Z-1.500000 F400.000000
G01 X-28.382830 Y81.841800 Z-1.500000
G01 X-28.382830 Y83.849610 Z-1.500000
G01 X-24.375018 Y83.849610 Z-1.500000
G00 Z2.000000

(End cutting path id: path33771)


(Start cutting path id: path33769)
(Change tool to Cylindrical cutter)

G00 Z2.000000
G00 X-23.578142 Y84.646480

G01 Z-1.500000 F150.0(Penetrate)
G01 X-23.578142 Y81.046880 Z-1.500000 F400.000000
G01 X-29.177752 Y81.046880 Z-1.500000
G01 X-29.177752 Y84.646480 Z-1.500000
G01 X-23.578142 Y84.646480 Z-1.500000
G00 Z2.000000

(End cutting path id: path33769)


(Start cutting path id: path33767)
(Change tool to Cylindrical cutter)

G00 Z2.000000
G00 X-22.677752 Y85.546880

G01 Z-1.500000 F150.0(Penetrate)
G01 X-22.677752 Y80.146480 Z-1.500000 F400.000000
G01 X-30.078142 Y80.146480 Z-1.500000
G01 X-30.078142 Y85.546880 Z-1.500000
G01 X-22.677752 Y85.546880 Z-1.500000
G00 Z2.000000

(End cutting path id: path33767)


(Start cutting path id: path33765)
(Change tool to Cylindrical cutter)

G00 Z2.000000
G00 X-21.777361 Y86.447270

G01 Z-1.500000 F150.0(Penetrate)
G01 X-21.777361 Y79.246090 Z-1.500000 F400.000000
G01 X-30.978533 Y79.246090 Z-1.500000
G01 X-30.978533 Y86.447270 Z-1.500000
G01 X-21.777361 Y86.447270 Z-1.500000
G00 Z2.000000

(End cutting path id: path33765)


(Start cutting path id: path33763)
(Change tool to Cylindrical cutter)

G00 Z2.000000
G00 X-20.878924 Y87.345700

G01 Z-1.500000 F150.0(Penetrate)
G01 X-20.878924 Y78.345700 Z-1.500000 F400.000000
G01 X-31.878924 Y78.345700 Z-1.500000
G01 X-31.878924 Y87.345700 Z-1.500000
G01 X-20.878924 Y87.345700 Z-1.500000
G00 Z2.000000

(End cutting path id: path33763)


(Start cutting path id: path33759-1)
(Change tool to Cylindrical cutter)

G00 Z2.000000
G00 X-36.567456 Y62.819572

G01 Z-1.500000 F150.0(Penetrate)
G01 X-36.567456 Y59.833252 Z-1.500000 F400.000000
G01 X-37.555737 Y59.833252 Z-1.500000
G01 X-37.555737 Y62.819572 Z-1.500000
G01 X-36.567456 Y62.819572 Z-1.500000
G00 Z2.000000

(End cutting path id: path33759-1)


(Start cutting path id: path33759)
(Change tool to Cylindrical cutter)

G00 Z2.000000
G00 X-36.027361 Y63.458980

G01 Z-1.500000 F150.0(Penetrate)
G01 X-36.027361 Y59.347660 Z-1.500000 F400.000000
G01 X-38.138689 Y59.347660 Z-1.500000
G01 X-38.138689 Y63.458980 Z-1.500000
G01 X-36.027361 Y63.458980 Z-1.500000
G00 Z2.000000

(End cutting path id: path33759)


(Start cutting path id: path33757)
(Change tool to Cylindrical cutter)

G00 Z2.000000
G00 X-35.283221 Y64.203120

G01 Z-1.500000 F150.0(Penetrate)
G01 X-35.283221 Y58.603520 Z-1.500000 F400.000000
G01 X-38.882830 Y58.603520 Z-1.500000
G01 X-38.882830 Y64.203120 Z-1.500000
G01 X-35.283221 Y64.203120 Z-1.500000
G00 Z2.000000

(End cutting path id: path33757)


(Start cutting path id: path33755)
(Change tool to Cylindrical cutter)

G00 Z2.000000
G00 X-34.382830 Y65.103520

G01 Z-1.500000 F150.0(Penetrate)
G01 X-34.382830 Y57.703120 Z-1.500000 F400.000000
G01 X-39.781268 Y57.703120 Z-1.500000
G01 X-39.781268 Y65.103520 Z-1.500000
G01 X-34.382830 Y65.103520 Z-1.500000
G00 Z2.000000

(End cutting path id: path33755)


(Start cutting path id: path33753)
(Change tool to Cylindrical cutter)

G00 Z2.000000
G00 X-33.482439 Y66.003910

G01 Z-1.500000 F150.0(Penetrate)
G01 X-33.482439 Y56.802730 Z-1.500000 F400.000000
G01 X-40.681658 Y56.802730 Z-1.500000
G01 X-40.681658 Y66.003910 Z-1.500000
G01 X-33.482439 Y66.003910 Z-1.500000
G00 Z2.000000

(End cutting path id: path33753)


(Start cutting path id: path33751)
(Change tool to Cylindrical cutter)

G00 Z2.000000
G00 X-32.582049 Y66.902340

G01 Z-1.500000 F150.0(Penetrate)
G01 X-32.582049 Y55.902340 Z-1.500000 F400.000000
G01 X-41.582049 Y55.902340 Z-1.500000
G01 X-41.582049 Y66.902340 Z-1.500000
G01 X-32.582049 Y66.902340 Z-1.500000
G00 Z2.000000

(End cutting path id: path33751)


(Start cutting path id: path33747-8)
(Change tool to Cylindrical cutter)

G00 Z2.000000
G00 X33.239746 Y62.800386

G01 Z-1.500000 F150.0(Penetrate)
G01 X33.239746 Y60.044526 Z-1.500000 F400.000000
G01 X32.481933 Y60.044526 Z-1.500000
G01 X32.481933 Y62.800386 Z-1.500000
G01 X33.239746 Y62.800386 Z-1.500000
G00 Z2.000000

(End cutting path id: path33747-8)


(Start cutting path id: path33747-8)
(Change tool to Cylindrical cutter)

G00 Z2.000000
G00 X33.976545 Y63.482416

G01 Z-1.500000 F150.0(Penetrate)
G01 X33.976545 Y59.324216 Z-1.500000 F400.000000
G01 X31.818342 Y59.324216 Z-1.500000
G01 X31.818342 Y63.482416 Z-1.500000
G01 X33.976545 Y63.482416 Z-1.500000
G00 Z2.000000

(End cutting path id: path33747-8)


(Start cutting path id: path33747-8)
(Change tool to Cylindrical cutter)

G00 Z2.000000
G00 X34.697248 Y64.203116

G01 Z-1.500000 F150.0(Penetrate)
G01 X34.697248 Y58.603516 Z-1.500000 F400.000000
G01 X31.097639 Y58.603516 Z-1.500000
G01 X31.097639 Y64.203116 Z-1.500000
G01 X34.697248 Y64.203116 Z-1.500000
G00 Z2.000000

(End cutting path id: path33747-8)


(Start cutting path id: path33747-8)
(Change tool to Cylindrical cutter)

G00 Z2.000000
G00 X35.597639 Y65.103516

G01 Z-1.500000 F150.0(Penetrate)
G01 X35.597639 Y57.703116 Z-1.500000 F400.000000
G01 X30.197248 Y57.703116 Z-1.500000
G01 X30.197248 Y65.103516 Z-1.500000
G01 X35.597639 Y65.103516 Z-1.500000
G00 Z2.000000

(End cutting path id: path33747-8)


(Start cutting path id: path33747-8)
(Change tool to Cylindrical cutter)

G00 Z2.000000
G00 X36.496076 Y66.003906

G01 Z-1.500000 F150.0(Penetrate)
G01 X36.496076 Y56.802726 Z-1.500000 F400.000000
G01 X29.296858 Y56.802726 Z-1.500000
G01 X29.296858 Y66.003906 Z-1.500000
G01 X36.496076 Y66.003906 Z-1.500000
G00 Z2.000000

(End cutting path id: path33747-8)


(Start cutting path id: path33747-8)
(Change tool to Cylindrical cutter)

G00 Z2.000000
G00 X37.396467 Y66.902336

G01 Z-1.500000 F150.0(Penetrate)
G01 X37.396467 Y55.902336 Z-1.500000 F400.000000
G01 X28.396467 Y55.902336 Z-1.500000
G01 X28.396467 Y66.902336 Z-1.500000
G01 X37.396467 Y66.902336 Z-1.500000
G00 Z2.000000

(End cutting path id: path33747-8)


(Start cutting path id: path33747-1)
(Change tool to Cylindrical cutter)

G00 Z2.000000
G00 X3.997193 Y62.814433

G01 Z-1.500000 F150.0(Penetrate)
G01 X3.997193 Y60.027323 Z-1.500000 F400.000000
G01 X3.210083 Y60.027323 Z-1.500000
G01 X3.210083 Y62.814433 Z-1.500000
G01 X3.997193 Y62.814433 Z-1.500000
G00 Z2.000000

(End cutting path id: path33747-1)


(Start cutting path id: path33747-1)
(Change tool to Cylindrical cutter)

G00 Z2.000000
G00 X4.722639 Y63.482423

G01 Z-1.500000 F150.0(Penetrate)
G01 X4.722639 Y59.324223 Z-1.500000 F400.000000
G01 X2.564436 Y59.324223 Z-1.500000
G01 X2.564436 Y63.482423 Z-1.500000
G01 X4.722639 Y63.482423 Z-1.500000
G00 Z2.000000

(End cutting path id: path33747-1)


(Start cutting path id: path33747-1)
(Change tool to Cylindrical cutter)

G00 Z2.000000
G00 X5.443342 Y64.203123

G01 Z-1.500000 F150.0(Penetrate)
G01 X5.443342 Y58.603523 Z-1.500000 F400.000000
G01 X1.843732 Y58.603523 Z-1.500000
G01 X1.843732 Y64.203123 Z-1.500000
G01 X5.443342 Y64.203123 Z-1.500000
G00 Z2.000000

(End cutting path id: path33747-1)


(Start cutting path id: path33747-1)
(Change tool to Cylindrical cutter)

G00 Z2.000000
G00 X6.343732 Y65.103523

G01 Z-1.500000 F150.0(Penetrate)
G01 X6.343732 Y57.703123 Z-1.500000 F400.000000
G01 X0.943342 Y57.703123 Z-1.500000
G01 X0.943342 Y65.103523 Z-1.500000
G01 X6.343732 Y65.103523 Z-1.500000
G00 Z2.000000

(End cutting path id: path33747-1)


(Start cutting path id: path33747-1)
(Change tool to Cylindrical cutter)

G00 Z2.000000
G00 X7.242170 Y66.003913

G01 Z-1.500000 F150.0(Penetrate)
G01 X7.242170 Y56.802733 Z-1.500000 F400.000000
G01 X0.042951 Y56.802733 Z-1.500000
G01 X0.042951 Y66.003913 Z-1.500000
G01 X7.242170 Y66.003913 Z-1.500000
G00 Z2.000000

(End cutting path id: path33747-1)


(Start cutting path id: path33747-1)
(Change tool to Cylindrical cutter)

G00 Z2.000000
G00 X8.142561 Y66.902343

G01 Z-1.500000 F150.0(Penetrate)
G01 X8.142561 Y55.902343 Z-1.500000 F400.000000
G01 X-0.857439 Y55.902343 Z-1.500000
G01 X-0.857439 Y66.902343 Z-1.500000
G01 X8.142561 Y66.902343 Z-1.500000
G00 Z2.000000

(End cutting path id: path33747-1)


(Footer)
M5
G00 X0.0000 Y0.0000
M2
(Using default footer. To add your own footer create file "footer" in the output dir.)
(end)
%