%
(Header)
(Generated by gcodetools from Inkscape.)
(Using default header. To add your own header create file "header" in the output dir.)
M3
(Header end.)
G21 (All units in mm)

(Start cutting path id: path19555)
(Change tool to Cylindrical cutter)

G00 Z2.000000
G00 X-25.928066 Y194.972130

G01 Z-1.500000 F150.0(Penetrate)
G01 X-25.928066 Y152.875870 Z-1.500000 F400.000000
G00 Z2.000000

(End cutting path id: path19555)


(Start cutting path id: path19555)
(Change tool to Cylindrical cutter)

G00 Z2.000000
G00 X-25.928066 Y194.972130

G01 Z-3.000000 F150.0(Penetrate)
G01 X-25.928066 Y152.875870 Z-3.000000 F400.000000
G00 Z2.000000

(End cutting path id: path19555)


(Start cutting path id: path19553)
(Change tool to Cylindrical cutter)

G00 Z2.000000
G00 X38.396822 Y52.403140

G01 Z-1.500000 F150.0(Penetrate)
G01 X38.396822 Y70.902910 Z-1.500000 F400.000000
G01 X23.046992 Y70.902910 Z-1.500000
G01 X23.046992 Y58.203070 Z-1.500000
G01 X9.142982 Y58.203070 Z-1.500000
G01 X9.142982 Y70.902910 Z-1.500000
G01 X-4.761022 Y70.902910 Z-1.500000
G01 X-8.257722 Y70.902910 Z-1.500000
G01 X-23.732402 Y70.902910 Z-1.500000
G01 X-42.582152 Y70.902910 Z-1.500000
G01 X-42.582152 Y52.403140 Z-1.500000
G00 Z2.000000

(End cutting path id: path19553)


(Start cutting path id: path19553)
(Change tool to Cylindrical cutter)

G00 Z2.000000
G00 X38.396822 Y52.403140

G01 Z-3.000000 F150.0(Penetrate)
G01 X38.396822 Y70.902910 Z-3.000000 F400.000000
G01 X23.046992 Y70.902910 Z-3.000000
G01 X23.046992 Y58.203070 Z-3.000000
G01 X9.142982 Y58.203070 Z-3.000000
G01 X9.142982 Y70.902910 Z-3.000000
G01 X-4.761022 Y70.902910 Z-3.000000
G01 X-8.257722 Y70.902910 Z-3.000000
G01 X-23.732402 Y70.902910 Z-3.000000
G01 X-42.582152 Y70.902910 Z-3.000000
G01 X-42.582152 Y52.403140 Z-3.000000
G00 Z2.000000

(End cutting path id: path19553)


(Start cutting path id: path19551)
(Change tool to Cylindrical cutter)

G00 Z2.000000
G00 X-35.877936 Y102.346410

G01 Z-1.500000 F150.0(Penetrate)
G01 X-35.877936 Y77.346600 Z-1.500000 F400.000000
G01 X-17.378176 Y77.346600 Z-1.500000
G00 Z2.000000

(End cutting path id: path19551)


(Start cutting path id: path19551)
(Change tool to Cylindrical cutter)

G00 Z2.000000
G00 X-35.877936 Y102.346410

G01 Z-3.000000 F150.0(Penetrate)
G01 X-35.877936 Y77.346600 Z-3.000000 F400.000000
G01 X-17.378176 Y77.346600 Z-3.000000
G00 Z2.000000

(End cutting path id: path19551)


(Start cutting path id: path19545)
(Change tool to Cylindrical cutter)

G00 Z2.000000
G00 X-35.877936 Y213.268270

G01 Z-1.500000 F150.0(Penetrate)
G01 X-35.877936 Y195.472130 Z-1.500000 F400.000000
G01 X-35.877936 Y166.372480 Z-1.500000
G01 X-35.877936 Y152.375880 Z-1.500000
G01 X-35.877936 Y138.192930 Z-1.500000
G01 X-35.877936 Y120.262830 Z-1.500000
G00 Z2.000000

(End cutting path id: path19545)


(Start cutting path id: path19545)
(Change tool to Cylindrical cutter)

G00 Z2.000000
G00 X-35.877936 Y213.268270

G01 Z-3.000000 F150.0(Penetrate)
G01 X-35.877936 Y195.472130 Z-3.000000 F400.000000
G01 X-35.877936 Y166.372480 Z-3.000000
G01 X-35.877936 Y152.375880 Z-3.000000
G01 X-35.877936 Y138.192930 Z-3.000000
G01 X-35.877936 Y120.262830 Z-3.000000
G00 Z2.000000

(End cutting path id: path19545)


(Start cutting path id: path19543)
(Change tool to Cylindrical cutter)

G00 Z2.000000
G00 X-17.378176 Y270.317914

G01 Z-1.500000 F150.0(Penetrate)
G01 X-35.877936 Y270.317914 Z-1.500000 F400.000000
G01 X-35.877936 Y231.184690 Z-1.500000
G00 Z2.000000

(End cutting path id: path19543)


(Start cutting path id: path19543)
(Change tool to Cylindrical cutter)

G00 Z2.000000
G00 X-17.378176 Y270.317914

G01 Z-3.000000 F150.0(Penetrate)
G01 X-35.877936 Y270.317914 Z-3.000000 F400.000000
G01 X-35.877936 Y231.184690 Z-3.000000
G00 Z2.000000

(End cutting path id: path19543)


(Start cutting path id: path19485)
(Change tool to Cylindrical cutter)

G00 Z2.000000
G00 X12.155729 Y105.654760

G01 Z-1.500000 F150.0(Penetrate)
G01 X12.155729 Y103.934790 Z-1.500000 F400.000000
G01 X13.875699 Y103.934790 Z-1.500000
G01 X13.875699 Y105.654760 Z-1.500000
G01 X12.155729 Y105.654760 Z-1.500000
G00 Z2.000000

(End cutting path id: path19485)


(Start cutting path id: path19485)
(Change tool to Cylindrical cutter)

G00 Z2.000000
G00 X12.155729 Y105.654760

G01 Z-3.000000 F150.0(Penetrate)
G01 X12.155729 Y103.934790 Z-3.000000 F400.000000
G01 X13.875699 Y103.934790 Z-3.000000
G01 X13.875699 Y105.654760 Z-3.000000
G01 X12.155729 Y105.654760 Z-3.000000
G00 Z2.000000

(End cutting path id: path19485)


(Start cutting path id: path19483)
(Change tool to Cylindrical cutter)

G00 Z2.000000
G00 X15.775679 Y105.654760

G01 Z-1.500000 F150.0(Penetrate)
G01 X15.775679 Y103.934790 Z-1.500000 F400.000000
G01 X17.495659 Y103.934790 Z-1.500000
G01 X17.495659 Y105.654760 Z-1.500000
G01 X15.775679 Y105.654760 Z-1.500000
G00 Z2.000000

(End cutting path id: path19483)


(Start cutting path id: path19483)
(Change tool to Cylindrical cutter)

G00 Z2.000000
G00 X15.775679 Y105.654760

G01 Z-3.000000 F150.0(Penetrate)
G01 X15.775679 Y103.934790 Z-3.000000 F400.000000
G01 X17.495659 Y103.934790 Z-3.000000
G01 X17.495659 Y105.654760 Z-3.000000
G01 X15.775679 Y105.654760 Z-3.000000
G00 Z2.000000

(End cutting path id: path19483)


(Start cutting path id: path19481)
(Change tool to Cylindrical cutter)

G00 Z2.000000
G00 X19.395639 Y105.654760

G01 Z-1.500000 F150.0(Penetrate)
G01 X19.395639 Y103.934790 Z-1.500000 F400.000000
G01 X21.115609 Y103.934790 Z-1.500000
G01 X21.115609 Y105.654760 Z-1.500000
G01 X19.395639 Y105.654760 Z-1.500000
G00 Z2.000000

(End cutting path id: path19481)


(Start cutting path id: path19481)
(Change tool to Cylindrical cutter)

G00 Z2.000000
G00 X19.395639 Y105.654760

G01 Z-3.000000 F150.0(Penetrate)
G01 X19.395639 Y103.934790 Z-3.000000 F400.000000
G01 X21.115609 Y103.934790 Z-3.000000
G01 X21.115609 Y105.654760 Z-3.000000
G01 X19.395639 Y105.654760 Z-3.000000
G00 Z2.000000

(End cutting path id: path19481)


(Start cutting path id: path19479)
(Change tool to Cylindrical cutter)

G00 Z2.000000
G00 X23.015589 Y105.654760

G01 Z-1.500000 F150.0(Penetrate)
G01 X23.015589 Y103.934790 Z-1.500000 F400.000000
G01 X24.735569 Y103.934790 Z-1.500000
G01 X24.735569 Y105.654760 Z-1.500000
G01 X23.015589 Y105.654760 Z-1.500000
G00 Z2.000000

(End cutting path id: path19479)


(Start cutting path id: path19479)
(Change tool to Cylindrical cutter)

G00 Z2.000000
G00 X23.015589 Y105.654760

G01 Z-3.000000 F150.0(Penetrate)
G01 X23.015589 Y103.934790 Z-3.000000 F400.000000
G01 X24.735569 Y103.934790 Z-3.000000
G01 X24.735569 Y105.654760 Z-3.000000
G01 X23.015589 Y105.654760 Z-3.000000
G00 Z2.000000

(End cutting path id: path19479)


(Start cutting path id: path19477)
(Change tool to Cylindrical cutter)

G00 Z2.000000
G00 X26.635539 Y105.654760

G01 Z-1.500000 F150.0(Penetrate)
G01 X26.635539 Y103.934790 Z-1.500000 F400.000000
G01 X28.355519 Y103.934790 Z-1.500000
G01 X28.355519 Y105.654760 Z-1.500000
G01 X26.635539 Y105.654760 Z-1.500000
G00 Z2.000000

(End cutting path id: path19477)


(Start cutting path id: path19477)
(Change tool to Cylindrical cutter)

G00 Z2.000000
G00 X26.635539 Y105.654760

G01 Z-3.000000 F150.0(Penetrate)
G01 X26.635539 Y103.934790 Z-3.000000 F400.000000
G01 X28.355519 Y103.934790 Z-3.000000
G01 X28.355519 Y105.654760 Z-3.000000
G01 X26.635539 Y105.654760 Z-3.000000
G00 Z2.000000

(End cutting path id: path19477)


(Start cutting path id: path19475)
(Change tool to Cylindrical cutter)

G00 Z2.000000
G00 X30.255499 Y105.654760

G01 Z-1.500000 F150.0(Penetrate)
G01 X30.255499 Y103.934790 Z-1.500000 F400.000000
G01 X31.975469 Y103.934790 Z-1.500000
G01 X31.975469 Y105.654760 Z-1.500000
G01 X30.255499 Y105.654760 Z-1.500000
G00 Z2.000000

(End cutting path id: path19475)


(Start cutting path id: path19475)
(Change tool to Cylindrical cutter)

G00 Z2.000000
G00 X30.255499 Y105.654760

G01 Z-3.000000 F150.0(Penetrate)
G01 X30.255499 Y103.934790 Z-3.000000 F400.000000
G01 X31.975469 Y103.934790 Z-3.000000
G01 X31.975469 Y105.654760 Z-3.000000
G01 X30.255499 Y105.654760 Z-3.000000
G00 Z2.000000

(End cutting path id: path19475)


(Start cutting path id: path19473)
(Change tool to Cylindrical cutter)

G00 Z2.000000
G00 X30.255499 Y109.274720

G01 Z-1.500000 F150.0(Penetrate)
G01 X30.255499 Y107.554740 Z-1.500000 F400.000000
G01 X31.975469 Y107.554740 Z-1.500000
G01 X31.975469 Y109.274720 Z-1.500000
G01 X30.255499 Y109.274720 Z-1.500000
G00 Z2.000000

(End cutting path id: path19473)


(Start cutting path id: path19473)
(Change tool to Cylindrical cutter)

G00 Z2.000000
G00 X30.255499 Y109.274720

G01 Z-3.000000 F150.0(Penetrate)
G01 X30.255499 Y107.554740 Z-3.000000 F400.000000
G01 X31.975469 Y107.554740 Z-3.000000
G01 X31.975469 Y109.274720 Z-3.000000
G01 X30.255499 Y109.274720 Z-3.000000
G00 Z2.000000

(End cutting path id: path19473)


(Start cutting path id: path19471)
(Change tool to Cylindrical cutter)

G00 Z2.000000
G00 X26.635539 Y109.274720

G01 Z-1.500000 F150.0(Penetrate)
G01 X26.635539 Y107.554740 Z-1.500000 F400.000000
G01 X28.355519 Y107.554740 Z-1.500000
G01 X28.355519 Y109.274720 Z-1.500000
G01 X26.635539 Y109.274720 Z-1.500000
G00 Z2.000000

(End cutting path id: path19471)


(Start cutting path id: path19471)
(Change tool to Cylindrical cutter)

G00 Z2.000000
G00 X26.635539 Y109.274720

G01 Z-3.000000 F150.0(Penetrate)
G01 X26.635539 Y107.554740 Z-3.000000 F400.000000
G01 X28.355519 Y107.554740 Z-3.000000
G01 X28.355519 Y109.274720 Z-3.000000
G01 X26.635539 Y109.274720 Z-3.000000
G00 Z2.000000

(End cutting path id: path19471)


(Start cutting path id: path19469)
(Change tool to Cylindrical cutter)

G00 Z2.000000
G00 X23.015589 Y109.274720

G01 Z-1.500000 F150.0(Penetrate)
G01 X23.015589 Y107.554740 Z-1.500000 F400.000000
G01 X24.735569 Y107.554740 Z-1.500000
G01 X24.735569 Y109.274720 Z-1.500000
G01 X23.015589 Y109.274720 Z-1.500000
G00 Z2.000000

(End cutting path id: path19469)


(Start cutting path id: path19469)
(Change tool to Cylindrical cutter)

G00 Z2.000000
G00 X23.015589 Y109.274720

G01 Z-3.000000 F150.0(Penetrate)
G01 X23.015589 Y107.554740 Z-3.000000 F400.000000
G01 X24.735569 Y107.554740 Z-3.000000
G01 X24.735569 Y109.274720 Z-3.000000
G01 X23.015589 Y109.274720 Z-3.000000
G00 Z2.000000

(End cutting path id: path19469)


(Start cutting path id: path19467)
(Change tool to Cylindrical cutter)

G00 Z2.000000
G00 X19.395639 Y109.274720

G01 Z-1.500000 F150.0(Penetrate)
G01 X19.395639 Y107.554740 Z-1.500000 F400.000000
G01 X21.115609 Y107.554740 Z-1.500000
G01 X21.115609 Y109.274720 Z-1.500000
G01 X19.395639 Y109.274720 Z-1.500000
G00 Z2.000000

(End cutting path id: path19467)


(Start cutting path id: path19467)
(Change tool to Cylindrical cutter)

G00 Z2.000000
G00 X19.395639 Y109.274720

G01 Z-3.000000 F150.0(Penetrate)
G01 X19.395639 Y107.554740 Z-3.000000 F400.000000
G01 X21.115609 Y107.554740 Z-3.000000
G01 X21.115609 Y109.274720 Z-3.000000
G01 X19.395639 Y109.274720 Z-3.000000
G00 Z2.000000

(End cutting path id: path19467)


(Start cutting path id: path19465)
(Change tool to Cylindrical cutter)

G00 Z2.000000
G00 X15.775679 Y109.274720

G01 Z-1.500000 F150.0(Penetrate)
G01 X15.775679 Y107.554740 Z-1.500000 F400.000000
G01 X17.495659 Y107.554740 Z-1.500000
G01 X17.495659 Y109.274720 Z-1.500000
G01 X15.775679 Y109.274720 Z-1.500000
G00 Z2.000000

(End cutting path id: path19465)


(Start cutting path id: path19465)
(Change tool to Cylindrical cutter)

G00 Z2.000000
G00 X15.775679 Y109.274720

G01 Z-3.000000 F150.0(Penetrate)
G01 X15.775679 Y107.554740 Z-3.000000 F400.000000
G01 X17.495659 Y107.554740 Z-3.000000
G01 X17.495659 Y109.274720 Z-3.000000
G01 X15.775679 Y109.274720 Z-3.000000
G00 Z2.000000

(End cutting path id: path19465)


(Start cutting path id: path19463)
(Change tool to Cylindrical cutter)

G00 Z2.000000
G00 X12.155729 Y109.274720

G01 Z-1.500000 F150.0(Penetrate)
G01 X12.155729 Y107.554740 Z-1.500000 F400.000000
G01 X13.875699 Y107.554740 Z-1.500000
G01 X13.875699 Y109.274720 Z-1.500000
G01 X12.155729 Y109.274720 Z-1.500000
G00 Z2.000000

(End cutting path id: path19463)


(Start cutting path id: path19463)
(Change tool to Cylindrical cutter)

G00 Z2.000000
G00 X12.155729 Y109.274720

G01 Z-3.000000 F150.0(Penetrate)
G01 X12.155729 Y107.554740 Z-3.000000 F400.000000
G01 X13.875699 Y107.554740 Z-3.000000
G01 X13.875699 Y109.274720 Z-3.000000
G01 X12.155729 Y109.274720 Z-3.000000
G00 Z2.000000

(End cutting path id: path19463)


(Start cutting path id: path19461)
(Change tool to Cylindrical cutter)

G00 Z2.000000
G00 X11.862609 Y116.002360

G01 Z-1.500000 F150.0(Penetrate)
G01 X14.692139 Y116.002480 Z-1.500000 F400.000000
G01 X14.692029 Y118.832460 Z-1.500000
G01 X11.862479 Y118.832340 Z-1.500000
G01 X11.862609 Y116.002360 Z-1.500000
G00 Z2.000000

(End cutting path id: path19461)


(Start cutting path id: path19461)
(Change tool to Cylindrical cutter)

G00 Z2.000000
G00 X11.862609 Y116.002360

G01 Z-3.000000 F150.0(Penetrate)
G01 X14.692139 Y116.002480 Z-3.000000 F400.000000
G01 X14.692029 Y118.832460 Z-3.000000
G01 X11.862479 Y118.832340 Z-3.000000
G01 X11.862609 Y116.002360 Z-3.000000
G00 Z2.000000

(End cutting path id: path19461)


(Start cutting path id: path19459)
(Change tool to Cylindrical cutter)

G00 Z2.000000
G00 X19.522509 Y116.002690

G01 Z-1.500000 F150.0(Penetrate)
G01 X19.522389 Y118.832660 Z-1.500000 F400.000000
G01 X16.692169 Y118.832540 Z-1.500000
G01 X16.692129 Y116.002570 Z-1.500000
G01 X19.522509 Y116.002690 Z-1.500000
G00 Z2.000000

(End cutting path id: path19459)


(Start cutting path id: path19459)
(Change tool to Cylindrical cutter)

G00 Z2.000000
G00 X19.522509 Y116.002690

G01 Z-3.000000 F150.0(Penetrate)
G01 X19.522389 Y118.832660 Z-3.000000 F400.000000
G01 X16.692169 Y118.832540 Z-3.000000
G01 X16.692129 Y116.002570 Z-3.000000
G01 X19.522509 Y116.002690 Z-3.000000
G00 Z2.000000

(End cutting path id: path19459)


(Start cutting path id: path19457)
(Change tool to Cylindrical cutter)

G00 Z2.000000
G00 X11.862299 Y123.662300

G01 Z-1.500000 F150.0(Penetrate)
G01 X11.862429 Y120.832330 Z-1.500000 F400.000000
G01 X14.691969 Y120.832450 Z-1.500000
G01 X14.691859 Y123.662420 Z-1.500000
G01 X11.862299 Y123.662300 Z-1.500000
G00 Z2.000000

(End cutting path id: path19457)


(Start cutting path id: path19457)
(Change tool to Cylindrical cutter)

G00 Z2.000000
G00 X11.862299 Y123.662300

G01 Z-3.000000 F150.0(Penetrate)
G01 X11.862429 Y120.832330 Z-3.000000 F400.000000
G01 X14.691969 Y120.832450 Z-3.000000
G01 X14.691859 Y123.662420 Z-3.000000
G01 X11.862299 Y123.662300 Z-3.000000
G00 Z2.000000

(End cutting path id: path19457)


(Start cutting path id: path19455)
(Change tool to Cylindrical cutter)

G00 Z2.000000
G00 X19.522219 Y123.662610

G01 Z-1.500000 F150.0(Penetrate)
G01 X16.692239 Y123.662490 Z-1.500000 F400.000000
G01 X16.692189 Y120.832510 Z-1.500000
G01 X19.522339 Y120.832620 Z-1.500000
G01 X19.522219 Y123.662610 Z-1.500000
G00 Z2.000000

(End cutting path id: path19455)


(Start cutting path id: path19455)
(Change tool to Cylindrical cutter)

G00 Z2.000000
G00 X19.522219 Y123.662610

G01 Z-3.000000 F150.0(Penetrate)
G01 X16.692239 Y123.662490 Z-3.000000 F400.000000
G01 X16.692189 Y120.832510 Z-3.000000
G01 X19.522339 Y120.832620 Z-3.000000
G01 X19.522219 Y123.662610 Z-3.000000
G00 Z2.000000

(End cutting path id: path19455)


(Start cutting path id: path19453)
(Change tool to Cylindrical cutter)

G00 Z2.000000
G00 X12.227819 Y151.695150

G01 Z-1.500000 F150.0(Penetrate)
G01 X8.654319 Y151.695000 Z-1.500000 F400.000000
G01 X8.654169 Y155.268480 Z-1.500000
G01 X12.227669 Y155.268640 Z-1.500000
G01 X12.227819 Y151.695150 Z-1.500000
G00 Z2.000000

(End cutting path id: path19453)


(Start cutting path id: path19453)
(Change tool to Cylindrical cutter)

G00 Z2.000000
G00 X12.227819 Y151.695150

G01 Z-3.000000 F150.0(Penetrate)
G01 X8.654319 Y151.695000 Z-3.000000 F400.000000
G01 X8.654169 Y155.268480 Z-3.000000
G01 X12.227669 Y155.268640 Z-3.000000
G01 X12.227819 Y151.695150 Z-3.000000
G00 Z2.000000

(End cutting path id: path19453)


(Start cutting path id: path19451)
(Change tool to Cylindrical cutter)

G00 Z2.000000
G00 X15.728229 Y141.195440

G01 Z-1.500000 F150.0(Penetrate)
G01 X12.154729 Y141.195290 Z-1.500000 F400.000000
G01 X12.154579 Y144.768770 Z-1.500000
G01 X15.728079 Y144.768930 Z-1.500000
G01 X15.728229 Y141.195440 Z-1.500000
G00 Z2.000000

(End cutting path id: path19451)


(Start cutting path id: path19451)
(Change tool to Cylindrical cutter)

G00 Z2.000000
G00 X15.728229 Y141.195440

G01 Z-3.000000 F150.0(Penetrate)
G01 X12.154729 Y141.195290 Z-3.000000 F400.000000
G01 X12.154579 Y144.768770 Z-3.000000
G01 X15.728079 Y144.768930 Z-3.000000
G01 X15.728229 Y141.195440 Z-3.000000
G00 Z2.000000

(End cutting path id: path19451)


(Start cutting path id: path19449)
(Change tool to Cylindrical cutter)

G00 Z2.000000
G00 X12.228719 Y130.695430

G01 Z-1.500000 F150.0(Penetrate)
G01 X8.655219 Y130.695280 Z-1.500000 F400.000000
G01 X8.655069 Y134.268770 Z-1.500000
G01 X12.228559 Y134.268920 Z-1.500000
G01 X12.228719 Y130.695430 Z-1.500000
G00 Z2.000000

(End cutting path id: path19449)


(Start cutting path id: path19449)
(Change tool to Cylindrical cutter)

G00 Z2.000000
G00 X12.228719 Y130.695430

G01 Z-3.000000 F150.0(Penetrate)
G01 X8.655219 Y130.695280 Z-3.000000 F400.000000
G01 X8.655069 Y134.268770 Z-3.000000
G01 X12.228559 Y134.268920 Z-3.000000
G01 X12.228719 Y130.695430 Z-3.000000
G00 Z2.000000

(End cutting path id: path19449)


(Footer)
M5
G00 X0.0000 Y0.0000
M2
(Using default footer. To add your own footer create file "footer" in the output dir.)
(end)
%