%
(Header)
(Generated by gcodetools from Inkscape.)
(Using default header. To add your own header create file "header" in the output dir.)
M3
(Header end.)
G21 (All units in mm)

(Start cutting path id: path4196)
(Change tool to Cylindrical cutter)

G00 Z2.000000
G00 X3.285081 Y180.358380

G01 Z-3.000000 F100.0(Penetrate)
G01 X3.285081 Y190.719013 Z-3.000000 F400.000000
G01 X9.785001 Y190.719013 Z-3.000000
G01 X9.785001 Y197.218923 Z-3.000000
G01 X27.701431 Y197.218123 Z-3.000000
G01 X27.701431 Y190.718213 Z-3.000000
G01 X34.201351 Y190.718213 Z-3.000000
G01 X34.201351 Y180.358340 Z-3.000000
G00 Z2.000000

(End cutting path id: path4196)


(Start cutting path id: path4194)
(Change tool to Cylindrical cutter)

G00 Z2.000000
G00 X1.540261 Y214.928863

G01 Z-3.000000 F100.0(Penetrate)
G01 X1.540791 Y225.289503 Z-3.000000 F400.000000
G01 X8.040701 Y225.289233 Z-3.000000
G01 X8.040971 Y231.789143 Z-3.000000
G01 X25.957391 Y231.787143 Z-3.000000
G01 X25.957131 Y225.287233 Z-3.000000
G01 X32.457051 Y225.286963 Z-3.000000
G01 X32.456521 Y214.927093 Z-3.000000
G00 Z2.000000

(End cutting path id: path4194)


(Start cutting path id: path4192)
(Change tool to Cylindrical cutter)

G00 Z2.000000
G00 X5.762711 Y152.666850

G01 Z-3.000000 F100.0(Penetrate)
G01 X-7.415299 Y152.667120 Z-3.000000 F400.000000
G01 X-7.419299 Y63.887800 Z-3.000000
G01 X20.388711 Y63.886800 Z-3.000000
G01 X20.388561 Y60.390100 Z-3.000000
G01 X35.862441 Y60.386100 Z-3.000000
G01 X35.867441 Y166.664790 Z-3.000000
G01 X20.392611 Y166.664000 Z-3.000000
G00 Z2.000000

(End cutting path id: path4192)


(Footer)
M5
G00 X0.0000 Y0.0000
M2
(Using default footer. To add your own footer create file "footer" in the output dir.)
(end)
%