%
(Header)
(Generated by gcodetools from Inkscape.)
(Using default header. To add your own header create file "header" in the output dir.)
M3
(Header end.)
G21 (All units in mm)

(Start cutting path id: path15926)
(Change tool to Cylindrical cutter)

G00 Z2.000000
G00 X6.523109 Y184.624420

G01 Z-1.500000 F150.0(Penetrate)
G01 X20.653669 Y184.624420 Z-1.500000 F400.000000
G01 X20.653669 Y170.627380 Z-1.500000
G00 Z2.000000

(End cutting path id: path15926)


(Start cutting path id: path15926)
(Change tool to Cylindrical cutter)

G00 Z2.000000
G00 X6.523109 Y184.624420

G01 Z-3.000000 F150.0(Penetrate)
G01 X20.653669 Y184.624420 Z-3.000000 F400.000000
G01 X20.653669 Y170.627380 Z-3.000000
G00 Z2.000000

(End cutting path id: path15926)


(Start cutting path id: path15923)
(Change tool to Cylindrical cutter)

G00 Z2.000000
G00 X8.170389 Y173.687490

G01 Z-1.500000 F150.0(Penetrate)
G01 X8.170389 Y171.967510 Z-1.500000 F400.000000
G01 X9.890369 Y171.967510 Z-1.500000
G01 X9.890369 Y173.687490 Z-1.500000
G01 X8.170389 Y173.687490 Z-1.500000
G00 Z2.000000

(End cutting path id: path15923)


(Start cutting path id: path15923)
(Change tool to Cylindrical cutter)

G00 Z2.000000
G00 X8.170389 Y173.687490

G01 Z-3.000000 F150.0(Penetrate)
G01 X8.170389 Y171.967510 Z-3.000000 F400.000000
G01 X9.890369 Y171.967510 Z-3.000000
G01 X9.890369 Y173.687490 Z-3.000000
G01 X8.170389 Y173.687490 Z-3.000000
G00 Z2.000000

(End cutting path id: path15923)


(Start cutting path id: path15921)
(Change tool to Cylindrical cutter)

G00 Z2.000000
G00 X11.790339 Y173.687490

G01 Z-1.500000 F150.0(Penetrate)
G01 X11.790339 Y171.967510 Z-1.500000 F400.000000
G01 X13.510319 Y171.967510 Z-1.500000
G01 X13.510319 Y173.687490 Z-1.500000
G01 X11.790339 Y173.687490 Z-1.500000
G00 Z2.000000

(End cutting path id: path15921)


(Start cutting path id: path15921)
(Change tool to Cylindrical cutter)

G00 Z2.000000
G00 X11.790339 Y173.687490

G01 Z-3.000000 F150.0(Penetrate)
G01 X11.790339 Y171.967510 Z-3.000000 F400.000000
G01 X13.510319 Y171.967510 Z-3.000000
G01 X13.510319 Y173.687490 Z-3.000000
G01 X11.790339 Y173.687490 Z-3.000000
G00 Z2.000000

(End cutting path id: path15921)


(Start cutting path id: path15919)
(Change tool to Cylindrical cutter)

G00 Z2.000000
G00 X15.410299 Y173.687490

G01 Z-1.500000 F150.0(Penetrate)
G01 X15.410299 Y171.967510 Z-1.500000 F400.000000
G01 X17.130279 Y171.967510 Z-1.500000
G01 X17.130279 Y173.687490 Z-1.500000
G01 X15.410299 Y173.687490 Z-1.500000
G00 Z2.000000

(End cutting path id: path15919)


(Start cutting path id: path15919)
(Change tool to Cylindrical cutter)

G00 Z2.000000
G00 X15.410299 Y173.687490

G01 Z-3.000000 F150.0(Penetrate)
G01 X15.410299 Y171.967510 Z-3.000000 F400.000000
G01 X17.130279 Y171.967510 Z-3.000000
G01 X17.130279 Y173.687490 Z-3.000000
G01 X15.410299 Y173.687490 Z-3.000000
G00 Z2.000000

(End cutting path id: path15919)


(Start cutting path id: path15917)
(Change tool to Cylindrical cutter)

G00 Z2.000000
G00 X8.170389 Y177.307450

G01 Z-1.500000 F150.0(Penetrate)
G01 X8.170389 Y175.587470 Z-1.500000 F400.000000
G01 X9.890369 Y175.587470 Z-1.500000
G01 X9.890369 Y177.307450 Z-1.500000
G01 X8.170389 Y177.307450 Z-1.500000
G00 Z2.000000

(End cutting path id: path15917)


(Start cutting path id: path15917)
(Change tool to Cylindrical cutter)

G00 Z2.000000
G00 X8.170389 Y177.307450

G01 Z-3.000000 F150.0(Penetrate)
G01 X8.170389 Y175.587470 Z-3.000000 F400.000000
G01 X9.890369 Y175.587470 Z-3.000000
G01 X9.890369 Y177.307450 Z-3.000000
G01 X8.170389 Y177.307450 Z-3.000000
G00 Z2.000000

(End cutting path id: path15917)


(Start cutting path id: path15915)
(Change tool to Cylindrical cutter)

G00 Z2.000000
G00 X11.790339 Y177.307450

G01 Z-1.500000 F150.0(Penetrate)
G01 X11.790339 Y175.587470 Z-1.500000 F400.000000
G01 X13.510319 Y175.587470 Z-1.500000
G01 X13.510319 Y177.307450 Z-1.500000
G01 X11.790339 Y177.307450 Z-1.500000
G00 Z2.000000

(End cutting path id: path15915)


(Start cutting path id: path15915)
(Change tool to Cylindrical cutter)

G00 Z2.000000
G00 X11.790339 Y177.307450

G01 Z-3.000000 F150.0(Penetrate)
G01 X11.790339 Y175.587470 Z-3.000000 F400.000000
G01 X13.510319 Y175.587470 Z-3.000000
G01 X13.510319 Y177.307450 Z-3.000000
G01 X11.790339 Y177.307450 Z-3.000000
G00 Z2.000000

(End cutting path id: path15915)


(Start cutting path id: path15913)
(Change tool to Cylindrical cutter)

G00 Z2.000000
G00 X15.410299 Y177.307450

G01 Z-1.500000 F150.0(Penetrate)
G01 X15.410299 Y175.587470 Z-1.500000 F400.000000
G01 X17.130279 Y175.587470 Z-1.500000
G01 X17.130279 Y177.307450 Z-1.500000
G01 X15.410299 Y177.307450 Z-1.500000
G00 Z2.000000

(End cutting path id: path15913)


(Start cutting path id: path15913)
(Change tool to Cylindrical cutter)

G00 Z2.000000
G00 X15.410299 Y177.307450

G01 Z-3.000000 F150.0(Penetrate)
G01 X15.410299 Y175.587470 Z-3.000000 F400.000000
G01 X17.130279 Y175.587470 Z-3.000000
G01 X17.130279 Y177.307450 Z-3.000000
G01 X15.410299 Y177.307450 Z-3.000000
G00 Z2.000000

(End cutting path id: path15913)


(Start cutting path id: path15911)
(Change tool to Cylindrical cutter)

G00 Z2.000000
G00 X8.170389 Y180.927400

G01 Z-1.500000 F150.0(Penetrate)
G01 X8.170389 Y179.207420 Z-1.500000 F400.000000
G01 X9.890369 Y179.207420 Z-1.500000
G01 X9.890369 Y180.927400 Z-1.500000
G01 X8.170389 Y180.927400 Z-1.500000
G00 Z2.000000

(End cutting path id: path15911)


(Start cutting path id: path15911)
(Change tool to Cylindrical cutter)

G00 Z2.000000
G00 X8.170389 Y180.927400

G01 Z-3.000000 F150.0(Penetrate)
G01 X8.170389 Y179.207420 Z-3.000000 F400.000000
G01 X9.890369 Y179.207420 Z-3.000000
G01 X9.890369 Y180.927400 Z-3.000000
G01 X8.170389 Y180.927400 Z-3.000000
G00 Z2.000000

(End cutting path id: path15911)


(Start cutting path id: path15909)
(Change tool to Cylindrical cutter)

G00 Z2.000000
G00 X11.790339 Y180.927400

G01 Z-1.500000 F150.0(Penetrate)
G01 X11.790339 Y179.207420 Z-1.500000 F400.000000
G01 X13.510319 Y179.207420 Z-1.500000
G01 X13.510319 Y180.927400 Z-1.500000
G01 X11.790339 Y180.927400 Z-1.500000
G00 Z2.000000

(End cutting path id: path15909)


(Start cutting path id: path15909)
(Change tool to Cylindrical cutter)

G00 Z2.000000
G00 X11.790339 Y180.927400

G01 Z-3.000000 F150.0(Penetrate)
G01 X11.790339 Y179.207420 Z-3.000000 F400.000000
G01 X13.510319 Y179.207420 Z-3.000000
G01 X13.510319 Y180.927400 Z-3.000000
G01 X11.790339 Y180.927400 Z-3.000000
G00 Z2.000000

(End cutting path id: path15909)


(Start cutting path id: path15907)
(Change tool to Cylindrical cutter)

G00 Z2.000000
G00 X15.410299 Y180.927400

G01 Z-1.500000 F150.0(Penetrate)
G01 X15.410299 Y179.207420 Z-1.500000 F400.000000
G01 X17.130279 Y179.207420 Z-1.500000
G01 X17.130279 Y180.927400 Z-1.500000
G01 X15.410299 Y180.927400 Z-1.500000
G00 Z2.000000

(End cutting path id: path15907)


(Start cutting path id: path15907)
(Change tool to Cylindrical cutter)

G00 Z2.000000
G00 X15.410299 Y180.927400

G01 Z-3.000000 F150.0(Penetrate)
G01 X15.410299 Y179.207420 Z-3.000000 F400.000000
G01 X17.130279 Y179.207420 Z-3.000000
G01 X17.130279 Y180.927400 Z-3.000000
G01 X15.410299 Y180.927400 Z-3.000000
G00 Z2.000000

(End cutting path id: path15907)


(Start cutting path id: path15905)
(Change tool to Cylindrical cutter)

G00 Z2.000000
G00 X-3.729381 Y231.889414

G01 Z-1.500000 F150.0(Penetrate)
G01 X2.770539 Y231.889144 Z-1.500000 F400.000000
G01 X20.686959 Y231.888354 Z-1.500000
G01 X27.186879 Y231.888094 Z-1.500000
G00 Z2.000000

(End cutting path id: path15905)


(Start cutting path id: path15905)
(Change tool to Cylindrical cutter)

G00 Z2.000000
G00 X-3.729381 Y231.889414

G01 Z-3.000000 F150.0(Penetrate)
G01 X2.770539 Y231.889144 Z-3.000000 F400.000000
G01 X20.686959 Y231.888354 Z-3.000000
G01 X27.186879 Y231.888094 Z-3.000000
G00 Z2.000000

(End cutting path id: path15905)


(Start cutting path id: path15902)
(Change tool to Cylindrical cutter)

G00 Z2.000000
G00 X-1.984541 Y197.318930

G01 Z-1.500000 F150.0(Penetrate)
G01 X4.515379 Y197.318930 Z-1.500000 F400.000000
G01 X22.431809 Y197.318930 Z-1.500000
G01 X28.931729 Y197.318930 Z-1.500000
G00 Z2.000000

(End cutting path id: path15902)


(Start cutting path id: path15902)
(Change tool to Cylindrical cutter)

G00 Z2.000000
G00 X-1.984541 Y197.318930

G01 Z-3.000000 F150.0(Penetrate)
G01 X4.515379 Y197.318930 Z-3.000000 F400.000000
G01 X22.431809 Y197.318930 Z-3.000000
G01 X28.931729 Y197.318930 Z-3.000000
G00 Z2.000000

(End cutting path id: path15902)


(Start cutting path id: path15900)
(Change tool to Cylindrical cutter)

G00 Z2.000000
G00 X3.389679 Y98.419630

G01 Z-1.500000 F150.0(Penetrate)
G01 X3.389679 Y96.699650 Z-1.500000 F400.000000
G01 X5.109659 Y96.699650 Z-1.500000
G01 X5.109659 Y98.419630 Z-1.500000
G01 X3.389679 Y98.419630 Z-1.500000
G00 Z2.000000

(End cutting path id: path15900)


(Start cutting path id: path15900)
(Change tool to Cylindrical cutter)

G00 Z2.000000
G00 X3.389679 Y98.419630

G01 Z-3.000000 F150.0(Penetrate)
G01 X3.389679 Y96.699650 Z-3.000000 F400.000000
G01 X5.109659 Y96.699650 Z-3.000000
G01 X5.109659 Y98.419630 Z-3.000000
G01 X3.389679 Y98.419630 Z-3.000000
G00 Z2.000000

(End cutting path id: path15900)


(Start cutting path id: path15898)
(Change tool to Cylindrical cutter)

G00 Z2.000000
G00 X-0.230271 Y98.419630

G01 Z-1.500000 F150.0(Penetrate)
G01 X-0.230271 Y96.699650 Z-1.500000 F400.000000
G01 X1.489699 Y96.699650 Z-1.500000
G01 X1.489699 Y98.419630 Z-1.500000
G01 X-0.230271 Y98.419630 Z-1.500000
G00 Z2.000000

(End cutting path id: path15898)


(Start cutting path id: path15898)
(Change tool to Cylindrical cutter)

G00 Z2.000000
G00 X-0.230271 Y98.419630

G01 Z-3.000000 F150.0(Penetrate)
G01 X-0.230271 Y96.699650 Z-3.000000 F400.000000
G01 X1.489699 Y96.699650 Z-3.000000
G01 X1.489699 Y98.419630 Z-3.000000
G01 X-0.230271 Y98.419630 Z-3.000000
G00 Z2.000000

(End cutting path id: path15898)


(Start cutting path id: path15896)
(Change tool to Cylindrical cutter)

G00 Z2.000000
G00 X-3.850231 Y98.419630

G01 Z-1.500000 F150.0(Penetrate)
G01 X-3.850231 Y96.699650 Z-1.500000 F400.000000
G01 X-2.130251 Y96.699650 Z-1.500000
G01 X-2.130251 Y98.419630 Z-1.500000
G01 X-3.850231 Y98.419630 Z-1.500000
G00 Z2.000000

(End cutting path id: path15896)


(Start cutting path id: path15896)
(Change tool to Cylindrical cutter)

G00 Z2.000000
G00 X-3.850231 Y98.419630

G01 Z-3.000000 F150.0(Penetrate)
G01 X-3.850231 Y96.699650 Z-3.000000 F400.000000
G01 X-2.130251 Y96.699650 Z-3.000000
G01 X-2.130251 Y98.419630 Z-3.000000
G01 X-3.850231 Y98.419630 Z-3.000000
G00 Z2.000000

(End cutting path id: path15896)


(Start cutting path id: path15894)
(Change tool to Cylindrical cutter)

G00 Z2.000000
G00 X-7.470185 Y98.419630

G01 Z-1.500000 F150.0(Penetrate)
G01 X-7.470185 Y96.699650 Z-1.500000 F400.000000
G01 X-5.750201 Y96.699650 Z-1.500000
G01 X-5.750201 Y98.419630 Z-1.500000
G01 X-7.470185 Y98.419630 Z-1.500000
G00 Z2.000000

(End cutting path id: path15894)


(Start cutting path id: path15894)
(Change tool to Cylindrical cutter)

G00 Z2.000000
G00 X-7.470185 Y98.419630

G01 Z-3.000000 F150.0(Penetrate)
G01 X-7.470185 Y96.699650 Z-3.000000 F400.000000
G01 X-5.750201 Y96.699650 Z-3.000000
G01 X-5.750201 Y98.419630 Z-3.000000
G01 X-7.470185 Y98.419630 Z-3.000000
G00 Z2.000000

(End cutting path id: path15894)


(Start cutting path id: path15892)
(Change tool to Cylindrical cutter)

G00 Z2.000000
G00 X-7.470185 Y102.039580

G01 Z-1.500000 F150.0(Penetrate)
G01 X-7.470185 Y100.319610 Z-1.500000 F400.000000
G01 X-5.750201 Y100.319610 Z-1.500000
G01 X-5.750201 Y102.039580 Z-1.500000
G01 X-7.470185 Y102.039580 Z-1.500000
G00 Z2.000000

(End cutting path id: path15892)


(Start cutting path id: path15892)
(Change tool to Cylindrical cutter)

G00 Z2.000000
G00 X-7.470185 Y102.039580

G01 Z-3.000000 F150.0(Penetrate)
G01 X-7.470185 Y100.319610 Z-3.000000 F400.000000
G01 X-5.750201 Y100.319610 Z-3.000000
G01 X-5.750201 Y102.039580 Z-3.000000
G01 X-7.470185 Y102.039580 Z-3.000000
G00 Z2.000000

(End cutting path id: path15892)


(Start cutting path id: path15890)
(Change tool to Cylindrical cutter)

G00 Z2.000000
G00 X-3.850231 Y102.039580

G01 Z-1.500000 F150.0(Penetrate)
G01 X-3.850231 Y100.319610 Z-1.500000 F400.000000
G01 X-2.130251 Y100.319610 Z-1.500000
G01 X-2.130251 Y102.039580 Z-1.500000
G01 X-3.850231 Y102.039580 Z-1.500000
G00 Z2.000000

(End cutting path id: path15890)


(Start cutting path id: path15890)
(Change tool to Cylindrical cutter)

G00 Z2.000000
G00 X-3.850231 Y102.039580

G01 Z-3.000000 F150.0(Penetrate)
G01 X-3.850231 Y100.319610 Z-3.000000 F400.000000
G01 X-2.130251 Y100.319610 Z-3.000000
G01 X-2.130251 Y102.039580 Z-3.000000
G01 X-3.850231 Y102.039580 Z-3.000000
G00 Z2.000000

(End cutting path id: path15890)


(Start cutting path id: path15888)
(Change tool to Cylindrical cutter)

G00 Z2.000000
G00 X-0.230271 Y102.039580

G01 Z-1.500000 F150.0(Penetrate)
G01 X-0.230271 Y100.319610 Z-1.500000 F400.000000
G01 X1.489699 Y100.319610 Z-1.500000
G01 X1.489699 Y102.039580 Z-1.500000
G01 X-0.230271 Y102.039580 Z-1.500000
G00 Z2.000000

(End cutting path id: path15888)


(Start cutting path id: path15888)
(Change tool to Cylindrical cutter)

G00 Z2.000000
G00 X-0.230271 Y102.039580

G01 Z-3.000000 F150.0(Penetrate)
G01 X-0.230271 Y100.319610 Z-3.000000 F400.000000
G01 X1.489699 Y100.319610 Z-3.000000
G01 X1.489699 Y102.039580 Z-3.000000
G01 X-0.230271 Y102.039580 Z-3.000000
G00 Z2.000000

(End cutting path id: path15888)


(Start cutting path id: path15886)
(Change tool to Cylindrical cutter)

G00 Z2.000000
G00 X3.389679 Y102.039580

G01 Z-1.500000 F150.0(Penetrate)
G01 X3.389679 Y100.319610 Z-1.500000 F400.000000
G01 X5.109659 Y100.319610 Z-1.500000
G01 X5.109659 Y102.039580 Z-1.500000
G01 X3.389679 Y102.039580 Z-1.500000
G00 Z2.000000

(End cutting path id: path15886)


(Start cutting path id: path15886)
(Change tool to Cylindrical cutter)

G00 Z2.000000
G00 X3.389679 Y102.039580

G01 Z-3.000000 F150.0(Penetrate)
G01 X3.389679 Y100.319610 Z-3.000000 F400.000000
G01 X5.109659 Y100.319610 Z-3.000000
G01 X5.109659 Y102.039580 Z-3.000000
G01 X3.389679 Y102.039580 Z-3.000000
G00 Z2.000000

(End cutting path id: path15886)


(Start cutting path id: path15883)
(Change tool to Cylindrical cutter)

G00 Z2.000000
G00 X-7.470185 Y105.659540

G01 Z-1.500000 F150.0(Penetrate)
G01 X-7.470185 Y103.939560 Z-1.500000 F400.000000
G01 X-5.750201 Y103.939560 Z-1.500000
G01 X-5.750201 Y105.659540 Z-1.500000
G01 X-7.470185 Y105.659540 Z-1.500000
G00 Z2.000000

(End cutting path id: path15883)


(Start cutting path id: path15883)
(Change tool to Cylindrical cutter)

G00 Z2.000000
G00 X-7.470185 Y105.659540

G01 Z-3.000000 F150.0(Penetrate)
G01 X-7.470185 Y103.939560 Z-3.000000 F400.000000
G01 X-5.750201 Y103.939560 Z-3.000000
G01 X-5.750201 Y105.659540 Z-3.000000
G01 X-7.470185 Y105.659540 Z-3.000000
G00 Z2.000000

(End cutting path id: path15883)


(Start cutting path id: path15881)
(Change tool to Cylindrical cutter)

G00 Z2.000000
G00 X-3.850231 Y105.659540

G01 Z-1.500000 F150.0(Penetrate)
G01 X-3.850231 Y103.939560 Z-1.500000 F400.000000
G01 X-2.130251 Y103.939560 Z-1.500000
G01 X-2.130251 Y105.659540 Z-1.500000
G01 X-3.850231 Y105.659540 Z-1.500000
G00 Z2.000000

(End cutting path id: path15881)


(Start cutting path id: path15881)
(Change tool to Cylindrical cutter)

G00 Z2.000000
G00 X-3.850231 Y105.659540

G01 Z-3.000000 F150.0(Penetrate)
G01 X-3.850231 Y103.939560 Z-3.000000 F400.000000
G01 X-2.130251 Y103.939560 Z-3.000000
G01 X-2.130251 Y105.659540 Z-3.000000
G01 X-3.850231 Y105.659540 Z-3.000000
G00 Z2.000000

(End cutting path id: path15881)


(Start cutting path id: path15879)
(Change tool to Cylindrical cutter)

G00 Z2.000000
G00 X-0.230271 Y105.659540

G01 Z-1.500000 F150.0(Penetrate)
G01 X-0.230271 Y103.939560 Z-1.500000 F400.000000
G01 X1.489699 Y103.939560 Z-1.500000
G01 X1.489699 Y105.659540 Z-1.500000
G01 X-0.230271 Y105.659540 Z-1.500000
G00 Z2.000000

(End cutting path id: path15879)


(Start cutting path id: path15879)
(Change tool to Cylindrical cutter)

G00 Z2.000000
G00 X-0.230271 Y105.659540

G01 Z-3.000000 F150.0(Penetrate)
G01 X-0.230271 Y103.939560 Z-3.000000 F400.000000
G01 X1.489699 Y103.939560 Z-3.000000
G01 X1.489699 Y105.659540 Z-3.000000
G01 X-0.230271 Y105.659540 Z-3.000000
G00 Z2.000000

(End cutting path id: path15879)


(Start cutting path id: path15877)
(Change tool to Cylindrical cutter)

G00 Z2.000000
G00 X3.389679 Y105.659540

G01 Z-1.500000 F150.0(Penetrate)
G01 X3.389679 Y103.939560 Z-1.500000 F400.000000
G01 X5.109659 Y103.939560 Z-1.500000
G01 X5.109659 Y105.659540 Z-1.500000
G01 X3.389679 Y105.659540 Z-1.500000
G00 Z2.000000

(End cutting path id: path15877)


(Start cutting path id: path15877)
(Change tool to Cylindrical cutter)

G00 Z2.000000
G00 X3.389679 Y105.659540

G01 Z-3.000000 F150.0(Penetrate)
G01 X3.389679 Y103.939560 Z-3.000000 F400.000000
G01 X5.109659 Y103.939560 Z-3.000000
G01 X5.109659 Y105.659540 Z-3.000000
G01 X3.389679 Y105.659540 Z-3.000000
G00 Z2.000000

(End cutting path id: path15877)


(Start cutting path id: path15875)
(Change tool to Cylindrical cutter)

G00 Z2.000000
G00 X-7.470185 Y109.279490

G01 Z-1.500000 F150.0(Penetrate)
G01 X-7.470185 Y107.559510 Z-1.500000 F400.000000
G01 X-5.750201 Y107.559510 Z-1.500000
G01 X-5.750201 Y109.279490 Z-1.500000
G01 X-7.470185 Y109.279490 Z-1.500000
G00 Z2.000000

(End cutting path id: path15875)


(Start cutting path id: path15875)
(Change tool to Cylindrical cutter)

G00 Z2.000000
G00 X-7.470185 Y109.279490

G01 Z-3.000000 F150.0(Penetrate)
G01 X-7.470185 Y107.559510 Z-3.000000 F400.000000
G01 X-5.750201 Y107.559510 Z-3.000000
G01 X-5.750201 Y109.279490 Z-3.000000
G01 X-7.470185 Y109.279490 Z-3.000000
G00 Z2.000000

(End cutting path id: path15875)


(Start cutting path id: path15873)
(Change tool to Cylindrical cutter)

G00 Z2.000000
G00 X-3.850231 Y109.279490

G01 Z-1.500000 F150.0(Penetrate)
G01 X-3.850231 Y107.559510 Z-1.500000 F400.000000
G01 X-2.130251 Y107.559510 Z-1.500000
G01 X-2.130251 Y109.279490 Z-1.500000
G01 X-3.850231 Y109.279490 Z-1.500000
G00 Z2.000000

(End cutting path id: path15873)


(Start cutting path id: path15873)
(Change tool to Cylindrical cutter)

G00 Z2.000000
G00 X-3.850231 Y109.279490

G01 Z-3.000000 F150.0(Penetrate)
G01 X-3.850231 Y107.559510 Z-3.000000 F400.000000
G01 X-2.130251 Y107.559510 Z-3.000000
G01 X-2.130251 Y109.279490 Z-3.000000
G01 X-3.850231 Y109.279490 Z-3.000000
G00 Z2.000000

(End cutting path id: path15873)


(Start cutting path id: path15871)
(Change tool to Cylindrical cutter)

G00 Z2.000000
G00 X-0.230271 Y109.279490

G01 Z-1.500000 F150.0(Penetrate)
G01 X-0.230271 Y107.559510 Z-1.500000 F400.000000
G01 X1.489699 Y107.559510 Z-1.500000
G01 X1.489699 Y109.279490 Z-1.500000
G01 X-0.230271 Y109.279490 Z-1.500000
G00 Z2.000000

(End cutting path id: path15871)


(Start cutting path id: path15871)
(Change tool to Cylindrical cutter)

G00 Z2.000000
G00 X-0.230271 Y109.279490

G01 Z-3.000000 F150.0(Penetrate)
G01 X-0.230271 Y107.559510 Z-3.000000 F400.000000
G01 X1.489699 Y107.559510 Z-3.000000
G01 X1.489699 Y109.279490 Z-3.000000
G01 X-0.230271 Y109.279490 Z-3.000000
G00 Z2.000000

(End cutting path id: path15871)


(Start cutting path id: path15869)
(Change tool to Cylindrical cutter)

G00 Z2.000000
G00 X3.389679 Y109.279490

G01 Z-1.500000 F150.0(Penetrate)
G01 X3.389679 Y107.559510 Z-1.500000 F400.000000
G01 X5.109659 Y107.559510 Z-1.500000
G01 X5.109659 Y109.279490 Z-1.500000
G01 X3.389679 Y109.279490 Z-1.500000
G00 Z2.000000

(End cutting path id: path15869)


(Start cutting path id: path15869)
(Change tool to Cylindrical cutter)

G00 Z2.000000
G00 X3.389679 Y109.279490

G01 Z-3.000000 F150.0(Penetrate)
G01 X3.389679 Y107.559510 Z-3.000000 F400.000000
G01 X5.109659 Y107.559510 Z-3.000000
G01 X5.109659 Y109.279490 Z-3.000000
G01 X3.389679 Y109.279490 Z-3.000000
G00 Z2.000000

(End cutting path id: path15869)


(Start cutting path id: path15867)
(Change tool to Cylindrical cutter)

G00 Z2.000000
G00 X23.015589 Y98.414850

G01 Z-1.500000 F150.0(Penetrate)
G01 X23.015589 Y96.694880 Z-1.500000 F400.000000
G01 X24.735569 Y96.694880 Z-1.500000
G01 X24.735569 Y98.414850 Z-1.500000
G01 X23.015589 Y98.414850 Z-1.500000
G00 Z2.000000

(End cutting path id: path15867)


(Start cutting path id: path15867)
(Change tool to Cylindrical cutter)

G00 Z2.000000
G00 X23.015589 Y98.414850

G01 Z-3.000000 F150.0(Penetrate)
G01 X23.015589 Y96.694880 Z-3.000000 F400.000000
G01 X24.735569 Y96.694880 Z-3.000000
G01 X24.735569 Y98.414850 Z-3.000000
G01 X23.015589 Y98.414850 Z-3.000000
G00 Z2.000000

(End cutting path id: path15867)


(Start cutting path id: path15865)
(Change tool to Cylindrical cutter)

G00 Z2.000000
G00 X26.635539 Y98.414850

G01 Z-1.500000 F150.0(Penetrate)
G01 X26.635539 Y96.694880 Z-1.500000 F400.000000
G01 X28.355519 Y96.694880 Z-1.500000
G01 X28.355519 Y98.414850 Z-1.500000
G01 X26.635539 Y98.414850 Z-1.500000
G00 Z2.000000

(End cutting path id: path15865)


(Start cutting path id: path15865)
(Change tool to Cylindrical cutter)

G00 Z2.000000
G00 X26.635539 Y98.414850

G01 Z-3.000000 F150.0(Penetrate)
G01 X26.635539 Y96.694880 Z-3.000000 F400.000000
G01 X28.355519 Y96.694880 Z-3.000000
G01 X28.355519 Y98.414850 Z-3.000000
G01 X26.635539 Y98.414850 Z-3.000000
G00 Z2.000000

(End cutting path id: path15865)


(Start cutting path id: path15863)
(Change tool to Cylindrical cutter)

G00 Z2.000000
G00 X30.255499 Y98.414850

G01 Z-1.500000 F150.0(Penetrate)
G01 X30.255499 Y96.694880 Z-1.500000 F400.000000
G01 X31.975469 Y96.694880 Z-1.500000
G01 X31.975469 Y98.414850 Z-1.500000
G01 X30.255499 Y98.414850 Z-1.500000
G00 Z2.000000

(End cutting path id: path15863)


(Start cutting path id: path15863)
(Change tool to Cylindrical cutter)

G00 Z2.000000
G00 X30.255499 Y98.414850

G01 Z-3.000000 F150.0(Penetrate)
G01 X30.255499 Y96.694880 Z-3.000000 F400.000000
G01 X31.975469 Y96.694880 Z-3.000000
G01 X31.975469 Y98.414850 Z-3.000000
G01 X30.255499 Y98.414850 Z-3.000000
G00 Z2.000000

(End cutting path id: path15863)


(Start cutting path id: path15860)
(Change tool to Cylindrical cutter)

G00 Z2.000000
G00 X30.255499 Y102.034810

G01 Z-1.500000 F150.0(Penetrate)
G01 X30.255499 Y100.314830 Z-1.500000 F400.000000
G01 X31.975469 Y100.314830 Z-1.500000
G01 X31.975469 Y102.034810 Z-1.500000
G01 X30.255499 Y102.034810 Z-1.500000
G00 Z2.000000

(End cutting path id: path15860)


(Start cutting path id: path15860)
(Change tool to Cylindrical cutter)

G00 Z2.000000
G00 X30.255499 Y102.034810

G01 Z-3.000000 F150.0(Penetrate)
G01 X30.255499 Y100.314830 Z-3.000000 F400.000000
G01 X31.975469 Y100.314830 Z-3.000000
G01 X31.975469 Y102.034810 Z-3.000000
G01 X30.255499 Y102.034810 Z-3.000000
G00 Z2.000000

(End cutting path id: path15860)


(Start cutting path id: path15858)
(Change tool to Cylindrical cutter)

G00 Z2.000000
G00 X26.635539 Y102.034810

G01 Z-1.500000 F150.0(Penetrate)
G01 X26.635539 Y100.314830 Z-1.500000 F400.000000
G01 X28.355519 Y100.314830 Z-1.500000
G01 X28.355519 Y102.034810 Z-1.500000
G01 X26.635539 Y102.034810 Z-1.500000
G00 Z2.000000

(End cutting path id: path15858)


(Start cutting path id: path15858)
(Change tool to Cylindrical cutter)

G00 Z2.000000
G00 X26.635539 Y102.034810

G01 Z-3.000000 F150.0(Penetrate)
G01 X26.635539 Y100.314830 Z-3.000000 F400.000000
G01 X28.355519 Y100.314830 Z-3.000000
G01 X28.355519 Y102.034810 Z-3.000000
G01 X26.635539 Y102.034810 Z-3.000000
G00 Z2.000000

(End cutting path id: path15858)


(Start cutting path id: path15856)
(Change tool to Cylindrical cutter)

G00 Z2.000000
G00 X23.015589 Y102.034810

G01 Z-1.500000 F150.0(Penetrate)
G01 X23.015589 Y100.314830 Z-1.500000 F400.000000
G01 X24.735569 Y100.314830 Z-1.500000
G01 X24.735569 Y102.034810 Z-1.500000
G01 X23.015589 Y102.034810 Z-1.500000
G00 Z2.000000

(End cutting path id: path15856)


(Start cutting path id: path15856)
(Change tool to Cylindrical cutter)

G00 Z2.000000
G00 X23.015589 Y102.034810

G01 Z-3.000000 F150.0(Penetrate)
G01 X23.015589 Y100.314830 Z-3.000000 F400.000000
G01 X24.735569 Y100.314830 Z-3.000000
G01 X24.735569 Y102.034810 Z-3.000000
G01 X23.015589 Y102.034810 Z-3.000000
G00 Z2.000000

(End cutting path id: path15856)


(Start cutting path id: path15854)
(Change tool to Cylindrical cutter)

G00 Z2.000000
G00 X19.395639 Y102.034810

G01 Z-1.500000 F150.0(Penetrate)
G01 X19.395639 Y100.314830 Z-1.500000 F400.000000
G01 X21.115609 Y100.314830 Z-1.500000
G01 X21.115609 Y102.034810 Z-1.500000
G01 X19.395639 Y102.034810 Z-1.500000
G00 Z2.000000

(End cutting path id: path15854)


(Start cutting path id: path15854)
(Change tool to Cylindrical cutter)

G00 Z2.000000
G00 X19.395639 Y102.034810

G01 Z-3.000000 F150.0(Penetrate)
G01 X19.395639 Y100.314830 Z-3.000000 F400.000000
G01 X21.115609 Y100.314830 Z-3.000000
G01 X21.115609 Y102.034810 Z-3.000000
G01 X19.395639 Y102.034810 Z-3.000000
G00 Z2.000000

(End cutting path id: path15854)


(Start cutting path id: path15852)
(Change tool to Cylindrical cutter)

G00 Z2.000000
G00 X19.395639 Y98.414850

G01 Z-1.500000 F150.0(Penetrate)
G01 X19.395639 Y96.694880 Z-1.500000 F400.000000
G01 X21.115609 Y96.694880 Z-1.500000
G01 X21.115609 Y98.414850 Z-1.500000
G01 X19.395639 Y98.414850 Z-1.500000
G00 Z2.000000

(End cutting path id: path15852)


(Start cutting path id: path15852)
(Change tool to Cylindrical cutter)

G00 Z2.000000
G00 X19.395639 Y98.414850

G01 Z-3.000000 F150.0(Penetrate)
G01 X19.395639 Y96.694880 Z-3.000000 F400.000000
G01 X21.115609 Y96.694880 Z-3.000000
G01 X21.115609 Y98.414850 Z-3.000000
G01 X19.395639 Y98.414850 Z-3.000000
G00 Z2.000000

(End cutting path id: path15852)


(Start cutting path id: path15850)
(Change tool to Cylindrical cutter)

G00 Z2.000000
G00 X15.775679 Y98.414850

G01 Z-1.500000 F150.0(Penetrate)
G01 X15.775679 Y96.694880 Z-1.500000 F400.000000
G01 X17.495659 Y96.694880 Z-1.500000
G01 X17.495659 Y98.414850 Z-1.500000
G01 X15.775679 Y98.414850 Z-1.500000
G00 Z2.000000

(End cutting path id: path15850)


(Start cutting path id: path15850)
(Change tool to Cylindrical cutter)

G00 Z2.000000
G00 X15.775679 Y98.414850

G01 Z-3.000000 F150.0(Penetrate)
G01 X15.775679 Y96.694880 Z-3.000000 F400.000000
G01 X17.495659 Y96.694880 Z-3.000000
G01 X17.495659 Y98.414850 Z-3.000000
G01 X15.775679 Y98.414850 Z-3.000000
G00 Z2.000000

(End cutting path id: path15850)


(Start cutting path id: path15848)
(Change tool to Cylindrical cutter)

G00 Z2.000000
G00 X15.775679 Y102.034810

G01 Z-1.500000 F150.0(Penetrate)
G01 X15.775679 Y100.314830 Z-1.500000 F400.000000
G01 X17.495659 Y100.314830 Z-1.500000
G01 X17.495659 Y102.034810 Z-1.500000
G01 X15.775679 Y102.034810 Z-1.500000
G00 Z2.000000

(End cutting path id: path15848)


(Start cutting path id: path15848)
(Change tool to Cylindrical cutter)

G00 Z2.000000
G00 X15.775679 Y102.034810

G01 Z-3.000000 F150.0(Penetrate)
G01 X15.775679 Y100.314830 Z-3.000000 F400.000000
G01 X17.495659 Y100.314830 Z-3.000000
G01 X17.495659 Y102.034810 Z-3.000000
G01 X15.775679 Y102.034810 Z-3.000000
G00 Z2.000000

(End cutting path id: path15848)


(Start cutting path id: path15846)
(Change tool to Cylindrical cutter)

G00 Z2.000000
G00 X12.155729 Y102.034810

G01 Z-1.500000 F150.0(Penetrate)
G01 X12.155729 Y100.314830 Z-1.500000 F400.000000
G01 X13.875699 Y100.314830 Z-1.500000
G01 X13.875699 Y102.034810 Z-1.500000
G01 X12.155729 Y102.034810 Z-1.500000
G00 Z2.000000

(End cutting path id: path15846)


(Start cutting path id: path15846)
(Change tool to Cylindrical cutter)

G00 Z2.000000
G00 X12.155729 Y102.034810

G01 Z-3.000000 F150.0(Penetrate)
G01 X12.155729 Y100.314830 Z-3.000000 F400.000000
G01 X13.875699 Y100.314830 Z-3.000000
G01 X13.875699 Y102.034810 Z-3.000000
G01 X12.155729 Y102.034810 Z-3.000000
G00 Z2.000000

(End cutting path id: path15846)


(Start cutting path id: path15844)
(Change tool to Cylindrical cutter)

G00 Z2.000000
G00 X12.155729 Y98.414850

G01 Z-1.500000 F150.0(Penetrate)
G01 X12.155729 Y96.694880 Z-1.500000 F400.000000
G01 X13.875699 Y96.694880 Z-1.500000
G01 X13.875699 Y98.414850 Z-1.500000
G01 X12.155729 Y98.414850 Z-1.500000
G00 Z2.000000

(End cutting path id: path15844)


(Start cutting path id: path15844)
(Change tool to Cylindrical cutter)

G00 Z2.000000
G00 X12.155729 Y98.414850

G01 Z-3.000000 F150.0(Penetrate)
G01 X12.155729 Y96.694880 Z-3.000000 F400.000000
G01 X13.875699 Y96.694880 Z-3.000000
G01 X13.875699 Y98.414850 Z-3.000000
G01 X12.155729 Y98.414850 Z-3.000000
G00 Z2.000000

(End cutting path id: path15844)


(Start cutting path id: path15842)
(Change tool to Cylindrical cutter)

G00 Z2.000000
G00 X12.155729 Y105.654760

G01 Z-1.500000 F150.0(Penetrate)
G01 X12.155729 Y103.934790 Z-1.500000 F400.000000
G01 X13.875699 Y103.934790 Z-1.500000
G01 X13.875699 Y105.654760 Z-1.500000
G01 X12.155729 Y105.654760 Z-1.500000
G00 Z2.000000

(End cutting path id: path15842)


(Start cutting path id: path15842)
(Change tool to Cylindrical cutter)

G00 Z2.000000
G00 X12.155729 Y105.654760

G01 Z-3.000000 F150.0(Penetrate)
G01 X12.155729 Y103.934790 Z-3.000000 F400.000000
G01 X13.875699 Y103.934790 Z-3.000000
G01 X13.875699 Y105.654760 Z-3.000000
G01 X12.155729 Y105.654760 Z-3.000000
G00 Z2.000000

(End cutting path id: path15842)


(Start cutting path id: path15839)
(Change tool to Cylindrical cutter)

G00 Z2.000000
G00 X15.775679 Y105.654760

G01 Z-1.500000 F150.0(Penetrate)
G01 X15.775679 Y103.934790 Z-1.500000 F400.000000
G01 X17.495659 Y103.934790 Z-1.500000
G01 X17.495659 Y105.654760 Z-1.500000
G01 X15.775679 Y105.654760 Z-1.500000
G00 Z2.000000

(End cutting path id: path15839)


(Start cutting path id: path15839)
(Change tool to Cylindrical cutter)

G00 Z2.000000
G00 X15.775679 Y105.654760

G01 Z-3.000000 F150.0(Penetrate)
G01 X15.775679 Y103.934790 Z-3.000000 F400.000000
G01 X17.495659 Y103.934790 Z-3.000000
G01 X17.495659 Y105.654760 Z-3.000000
G01 X15.775679 Y105.654760 Z-3.000000
G00 Z2.000000

(End cutting path id: path15839)


(Start cutting path id: path15837)
(Change tool to Cylindrical cutter)

G00 Z2.000000
G00 X19.395639 Y105.654760

G01 Z-1.500000 F150.0(Penetrate)
G01 X19.395639 Y103.934790 Z-1.500000 F400.000000
G01 X21.115609 Y103.934790 Z-1.500000
G01 X21.115609 Y105.654760 Z-1.500000
G01 X19.395639 Y105.654760 Z-1.500000
G00 Z2.000000

(End cutting path id: path15837)


(Start cutting path id: path15837)
(Change tool to Cylindrical cutter)

G00 Z2.000000
G00 X19.395639 Y105.654760

G01 Z-3.000000 F150.0(Penetrate)
G01 X19.395639 Y103.934790 Z-3.000000 F400.000000
G01 X21.115609 Y103.934790 Z-3.000000
G01 X21.115609 Y105.654760 Z-3.000000
G01 X19.395639 Y105.654760 Z-3.000000
G00 Z2.000000

(End cutting path id: path15837)


(Start cutting path id: path15835)
(Change tool to Cylindrical cutter)

G00 Z2.000000
G00 X23.015589 Y105.654760

G01 Z-1.500000 F150.0(Penetrate)
G01 X23.015589 Y103.934790 Z-1.500000 F400.000000
G01 X24.735569 Y103.934790 Z-1.500000
G01 X24.735569 Y105.654760 Z-1.500000
G01 X23.015589 Y105.654760 Z-1.500000
G00 Z2.000000

(End cutting path id: path15835)


(Start cutting path id: path15835)
(Change tool to Cylindrical cutter)

G00 Z2.000000
G00 X23.015589 Y105.654760

G01 Z-3.000000 F150.0(Penetrate)
G01 X23.015589 Y103.934790 Z-3.000000 F400.000000
G01 X24.735569 Y103.934790 Z-3.000000
G01 X24.735569 Y105.654760 Z-3.000000
G01 X23.015589 Y105.654760 Z-3.000000
G00 Z2.000000

(End cutting path id: path15835)


(Start cutting path id: path15833)
(Change tool to Cylindrical cutter)

G00 Z2.000000
G00 X26.635539 Y105.654760

G01 Z-1.500000 F150.0(Penetrate)
G01 X26.635539 Y103.934790 Z-1.500000 F400.000000
G01 X28.355519 Y103.934790 Z-1.500000
G01 X28.355519 Y105.654760 Z-1.500000
G01 X26.635539 Y105.654760 Z-1.500000
G00 Z2.000000

(End cutting path id: path15833)


(Start cutting path id: path15833)
(Change tool to Cylindrical cutter)

G00 Z2.000000
G00 X26.635539 Y105.654760

G01 Z-3.000000 F150.0(Penetrate)
G01 X26.635539 Y103.934790 Z-3.000000 F400.000000
G01 X28.355519 Y103.934790 Z-3.000000
G01 X28.355519 Y105.654760 Z-3.000000
G01 X26.635539 Y105.654760 Z-3.000000
G00 Z2.000000

(End cutting path id: path15833)


(Start cutting path id: path15831)
(Change tool to Cylindrical cutter)

G00 Z2.000000
G00 X30.255499 Y105.654760

G01 Z-1.500000 F150.0(Penetrate)
G01 X30.255499 Y103.934790 Z-1.500000 F400.000000
G01 X31.975469 Y103.934790 Z-1.500000
G01 X31.975469 Y105.654760 Z-1.500000
G01 X30.255499 Y105.654760 Z-1.500000
G00 Z2.000000

(End cutting path id: path15831)


(Start cutting path id: path15831)
(Change tool to Cylindrical cutter)

G00 Z2.000000
G00 X30.255499 Y105.654760

G01 Z-3.000000 F150.0(Penetrate)
G01 X30.255499 Y103.934790 Z-3.000000 F400.000000
G01 X31.975469 Y103.934790 Z-3.000000
G01 X31.975469 Y105.654760 Z-3.000000
G01 X30.255499 Y105.654760 Z-3.000000
G00 Z2.000000

(End cutting path id: path15831)


(Start cutting path id: path15829)
(Change tool to Cylindrical cutter)

G00 Z2.000000
G00 X30.255499 Y109.274720

G01 Z-1.500000 F150.0(Penetrate)
G01 X30.255499 Y107.554740 Z-1.500000 F400.000000
G01 X31.975469 Y107.554740 Z-1.500000
G01 X31.975469 Y109.274720 Z-1.500000
G01 X30.255499 Y109.274720 Z-1.500000
G00 Z2.000000

(End cutting path id: path15829)


(Start cutting path id: path15829)
(Change tool to Cylindrical cutter)

G00 Z2.000000
G00 X30.255499 Y109.274720

G01 Z-3.000000 F150.0(Penetrate)
G01 X30.255499 Y107.554740 Z-3.000000 F400.000000
G01 X31.975469 Y107.554740 Z-3.000000
G01 X31.975469 Y109.274720 Z-3.000000
G01 X30.255499 Y109.274720 Z-3.000000
G00 Z2.000000

(End cutting path id: path15829)


(Start cutting path id: path15827)
(Change tool to Cylindrical cutter)

G00 Z2.000000
G00 X26.635539 Y109.274720

G01 Z-1.500000 F150.0(Penetrate)
G01 X26.635539 Y107.554740 Z-1.500000 F400.000000
G01 X28.355519 Y107.554740 Z-1.500000
G01 X28.355519 Y109.274720 Z-1.500000
G01 X26.635539 Y109.274720 Z-1.500000
G00 Z2.000000

(End cutting path id: path15827)


(Start cutting path id: path15827)
(Change tool to Cylindrical cutter)

G00 Z2.000000
G00 X26.635539 Y109.274720

G01 Z-3.000000 F150.0(Penetrate)
G01 X26.635539 Y107.554740 Z-3.000000 F400.000000
G01 X28.355519 Y107.554740 Z-3.000000
G01 X28.355519 Y109.274720 Z-3.000000
G01 X26.635539 Y109.274720 Z-3.000000
G00 Z2.000000

(End cutting path id: path15827)


(Start cutting path id: path15825)
(Change tool to Cylindrical cutter)

G00 Z2.000000
G00 X23.015589 Y109.274720

G01 Z-1.500000 F150.0(Penetrate)
G01 X23.015589 Y107.554740 Z-1.500000 F400.000000
G01 X24.735569 Y107.554740 Z-1.500000
G01 X24.735569 Y109.274720 Z-1.500000
G01 X23.015589 Y109.274720 Z-1.500000
G00 Z2.000000

(End cutting path id: path15825)


(Start cutting path id: path15825)
(Change tool to Cylindrical cutter)

G00 Z2.000000
G00 X23.015589 Y109.274720

G01 Z-3.000000 F150.0(Penetrate)
G01 X23.015589 Y107.554740 Z-3.000000 F400.000000
G01 X24.735569 Y107.554740 Z-3.000000
G01 X24.735569 Y109.274720 Z-3.000000
G01 X23.015589 Y109.274720 Z-3.000000
G00 Z2.000000

(End cutting path id: path15825)


(Start cutting path id: path15823)
(Change tool to Cylindrical cutter)

G00 Z2.000000
G00 X19.395639 Y109.274720

G01 Z-1.500000 F150.0(Penetrate)
G01 X19.395639 Y107.554740 Z-1.500000 F400.000000
G01 X21.115609 Y107.554740 Z-1.500000
G01 X21.115609 Y109.274720 Z-1.500000
G01 X19.395639 Y109.274720 Z-1.500000
G00 Z2.000000

(End cutting path id: path15823)


(Start cutting path id: path15823)
(Change tool to Cylindrical cutter)

G00 Z2.000000
G00 X19.395639 Y109.274720

G01 Z-3.000000 F150.0(Penetrate)
G01 X19.395639 Y107.554740 Z-3.000000 F400.000000
G01 X21.115609 Y107.554740 Z-3.000000
G01 X21.115609 Y109.274720 Z-3.000000
G01 X19.395639 Y109.274720 Z-3.000000
G00 Z2.000000

(End cutting path id: path15823)


(Start cutting path id: path15821)
(Change tool to Cylindrical cutter)

G00 Z2.000000
G00 X15.775679 Y109.274720

G01 Z-1.500000 F150.0(Penetrate)
G01 X15.775679 Y107.554740 Z-1.500000 F400.000000
G01 X17.495659 Y107.554740 Z-1.500000
G01 X17.495659 Y109.274720 Z-1.500000
G01 X15.775679 Y109.274720 Z-1.500000
G00 Z2.000000

(End cutting path id: path15821)


(Start cutting path id: path15821)
(Change tool to Cylindrical cutter)

G00 Z2.000000
G00 X15.775679 Y109.274720

G01 Z-3.000000 F150.0(Penetrate)
G01 X15.775679 Y107.554740 Z-3.000000 F400.000000
G01 X17.495659 Y107.554740 Z-3.000000
G01 X17.495659 Y109.274720 Z-3.000000
G01 X15.775679 Y109.274720 Z-3.000000
G00 Z2.000000

(End cutting path id: path15821)


(Start cutting path id: path15818)
(Change tool to Cylindrical cutter)

G00 Z2.000000
G00 X12.155729 Y109.274720

G01 Z-1.500000 F150.0(Penetrate)
G01 X12.155729 Y107.554740 Z-1.500000 F400.000000
G01 X13.875699 Y107.554740 Z-1.500000
G01 X13.875699 Y109.274720 Z-1.500000
G01 X12.155729 Y109.274720 Z-1.500000
G00 Z2.000000

(End cutting path id: path15818)


(Start cutting path id: path15818)
(Change tool to Cylindrical cutter)

G00 Z2.000000
G00 X12.155729 Y109.274720

G01 Z-3.000000 F150.0(Penetrate)
G01 X12.155729 Y107.554740 Z-3.000000 F400.000000
G01 X13.875699 Y107.554740 Z-3.000000
G01 X13.875699 Y109.274720 Z-3.000000
G01 X12.155729 Y109.274720 Z-3.000000
G00 Z2.000000

(End cutting path id: path15818)


(Start cutting path id: path15816)
(Change tool to Cylindrical cutter)

G00 Z2.000000
G00 X11.862609 Y116.002360

G01 Z-1.500000 F150.0(Penetrate)
G01 X14.692139 Y116.002480 Z-1.500000 F400.000000
G01 X14.692029 Y118.832460 Z-1.500000
G01 X11.862479 Y118.832340 Z-1.500000
G01 X11.862609 Y116.002360 Z-1.500000
G00 Z2.000000

(End cutting path id: path15816)


(Start cutting path id: path15816)
(Change tool to Cylindrical cutter)

G00 Z2.000000
G00 X11.862609 Y116.002360

G01 Z-3.000000 F150.0(Penetrate)
G01 X14.692139 Y116.002480 Z-3.000000 F400.000000
G01 X14.692029 Y118.832460 Z-3.000000
G01 X11.862479 Y118.832340 Z-3.000000
G01 X11.862609 Y116.002360 Z-3.000000
G00 Z2.000000

(End cutting path id: path15816)


(Start cutting path id: path15814)
(Change tool to Cylindrical cutter)

G00 Z2.000000
G00 X19.522509 Y116.002690

G01 Z-1.500000 F150.0(Penetrate)
G01 X19.522389 Y118.832660 Z-1.500000 F400.000000
G01 X16.692169 Y118.832540 Z-1.500000
G01 X16.692129 Y116.002570 Z-1.500000
G01 X19.522509 Y116.002690 Z-1.500000
G00 Z2.000000

(End cutting path id: path15814)


(Start cutting path id: path15814)
(Change tool to Cylindrical cutter)

G00 Z2.000000
G00 X19.522509 Y116.002690

G01 Z-3.000000 F150.0(Penetrate)
G01 X19.522389 Y118.832660 Z-3.000000 F400.000000
G01 X16.692169 Y118.832540 Z-3.000000
G01 X16.692129 Y116.002570 Z-3.000000
G01 X19.522509 Y116.002690 Z-3.000000
G00 Z2.000000

(End cutting path id: path15814)


(Start cutting path id: path15812)
(Change tool to Cylindrical cutter)

G00 Z2.000000
G00 X11.862299 Y123.662300

G01 Z-1.500000 F150.0(Penetrate)
G01 X11.862429 Y120.832330 Z-1.500000 F400.000000
G01 X14.691969 Y120.832450 Z-1.500000
G01 X14.691859 Y123.662420 Z-1.500000
G01 X11.862299 Y123.662300 Z-1.500000
G00 Z2.000000

(End cutting path id: path15812)


(Start cutting path id: path15812)
(Change tool to Cylindrical cutter)

G00 Z2.000000
G00 X11.862299 Y123.662300

G01 Z-3.000000 F150.0(Penetrate)
G01 X11.862429 Y120.832330 Z-3.000000 F400.000000
G01 X14.691969 Y120.832450 Z-3.000000
G01 X14.691859 Y123.662420 Z-3.000000
G01 X11.862299 Y123.662300 Z-3.000000
G00 Z2.000000

(End cutting path id: path15812)


(Start cutting path id: path15810)
(Change tool to Cylindrical cutter)

G00 Z2.000000
G00 X19.522219 Y123.662610

G01 Z-1.500000 F150.0(Penetrate)
G01 X16.692239 Y123.662490 Z-1.500000 F400.000000
G01 X16.692189 Y120.832510 Z-1.500000
G01 X19.522339 Y120.832620 Z-1.500000
G01 X19.522219 Y123.662610 Z-1.500000
G00 Z2.000000

(End cutting path id: path15810)


(Start cutting path id: path15810)
(Change tool to Cylindrical cutter)

G00 Z2.000000
G00 X19.522219 Y123.662610

G01 Z-3.000000 F150.0(Penetrate)
G01 X16.692239 Y123.662490 Z-3.000000 F400.000000
G01 X16.692189 Y120.832510 Z-3.000000
G01 X19.522339 Y120.832620 Z-3.000000
G01 X19.522219 Y123.662610 Z-3.000000
G00 Z2.000000

(End cutting path id: path15810)


(Start cutting path id: path15808)
(Change tool to Cylindrical cutter)

G00 Z2.000000
G00 X12.227819 Y151.695150

G01 Z-1.500000 F150.0(Penetrate)
G01 X8.654319 Y151.695000 Z-1.500000 F400.000000
G01 X8.654169 Y155.268480 Z-1.500000
G01 X12.227669 Y155.268640 Z-1.500000
G01 X12.227819 Y151.695150 Z-1.500000
G00 Z2.000000

(End cutting path id: path15808)


(Start cutting path id: path15808)
(Change tool to Cylindrical cutter)

G00 Z2.000000
G00 X12.227819 Y151.695150

G01 Z-3.000000 F150.0(Penetrate)
G01 X8.654319 Y151.695000 Z-3.000000 F400.000000
G01 X8.654169 Y155.268480 Z-3.000000
G01 X12.227669 Y155.268640 Z-3.000000
G01 X12.227819 Y151.695150 Z-3.000000
G00 Z2.000000

(End cutting path id: path15808)


(Start cutting path id: path15806)
(Change tool to Cylindrical cutter)

G00 Z2.000000
G00 X15.728229 Y141.195440

G01 Z-1.500000 F150.0(Penetrate)
G01 X12.154729 Y141.195290 Z-1.500000 F400.000000
G01 X12.154579 Y144.768770 Z-1.500000
G01 X15.728079 Y144.768930 Z-1.500000
G01 X15.728229 Y141.195440 Z-1.500000
G00 Z2.000000

(End cutting path id: path15806)


(Start cutting path id: path15806)
(Change tool to Cylindrical cutter)

G00 Z2.000000
G00 X15.728229 Y141.195440

G01 Z-3.000000 F150.0(Penetrate)
G01 X12.154729 Y141.195290 Z-3.000000 F400.000000
G01 X12.154579 Y144.768770 Z-3.000000
G01 X15.728079 Y144.768930 Z-3.000000
G01 X15.728229 Y141.195440 Z-3.000000
G00 Z2.000000

(End cutting path id: path15806)


(Start cutting path id: path15804)
(Change tool to Cylindrical cutter)

G00 Z2.000000
G00 X12.228719 Y130.695430

G01 Z-1.500000 F150.0(Penetrate)
G01 X8.655219 Y130.695280 Z-1.500000 F400.000000
G01 X8.655069 Y134.268770 Z-1.500000
G01 X12.228559 Y134.268920 Z-1.500000
G01 X12.228719 Y130.695430 Z-1.500000
G00 Z2.000000

(End cutting path id: path15804)


(Start cutting path id: path15804)
(Change tool to Cylindrical cutter)

G00 Z2.000000
G00 X12.228719 Y130.695430

G01 Z-3.000000 F150.0(Penetrate)
G01 X8.655219 Y130.695280 Z-3.000000 F400.000000
G01 X8.655069 Y134.268770 Z-3.000000
G01 X12.228559 Y134.268920 Z-3.000000
G01 X12.228719 Y130.695430 Z-3.000000
G00 Z2.000000

(End cutting path id: path15804)


(Start cutting path id: path19575)
(Change tool to Cylindrical cutter)

G00 Z2.000000
G00 X6.523109 Y184.624420

G01 Z-1.500000 F150.0(Penetrate)
G01 X20.653669 Y184.624420 Z-1.500000 F400.000000
G01 X20.653669 Y170.627380 Z-1.500000
G00 Z2.000000

(End cutting path id: path19575)


(Start cutting path id: path19575)
(Change tool to Cylindrical cutter)

G00 Z2.000000
G00 X6.523109 Y184.624420

G01 Z-3.000000 F150.0(Penetrate)
G01 X20.653669 Y184.624420 Z-3.000000 F400.000000
G01 X20.653669 Y170.627380 Z-3.000000
G00 Z2.000000

(End cutting path id: path19575)


(Start cutting path id: path19573)
(Change tool to Cylindrical cutter)

G00 Z2.000000
G00 X8.170389 Y173.687490

G01 Z-1.500000 F150.0(Penetrate)
G01 X8.170389 Y171.967510 Z-1.500000 F400.000000
G01 X9.890369 Y171.967510 Z-1.500000
G01 X9.890369 Y173.687490 Z-1.500000
G01 X8.170389 Y173.687490 Z-1.500000
G00 Z2.000000

(End cutting path id: path19573)


(Start cutting path id: path19573)
(Change tool to Cylindrical cutter)

G00 Z2.000000
G00 X8.170389 Y173.687490

G01 Z-3.000000 F150.0(Penetrate)
G01 X8.170389 Y171.967510 Z-3.000000 F400.000000
G01 X9.890369 Y171.967510 Z-3.000000
G01 X9.890369 Y173.687490 Z-3.000000
G01 X8.170389 Y173.687490 Z-3.000000
G00 Z2.000000

(End cutting path id: path19573)


(Start cutting path id: path19571)
(Change tool to Cylindrical cutter)

G00 Z2.000000
G00 X11.790339 Y173.687490

G01 Z-1.500000 F150.0(Penetrate)
G01 X11.790339 Y171.967510 Z-1.500000 F400.000000
G01 X13.510319 Y171.967510 Z-1.500000
G01 X13.510319 Y173.687490 Z-1.500000
G01 X11.790339 Y173.687490 Z-1.500000
G00 Z2.000000

(End cutting path id: path19571)


(Start cutting path id: path19571)
(Change tool to Cylindrical cutter)

G00 Z2.000000
G00 X11.790339 Y173.687490

G01 Z-3.000000 F150.0(Penetrate)
G01 X11.790339 Y171.967510 Z-3.000000 F400.000000
G01 X13.510319 Y171.967510 Z-3.000000
G01 X13.510319 Y173.687490 Z-3.000000
G01 X11.790339 Y173.687490 Z-3.000000
G00 Z2.000000

(End cutting path id: path19571)


(Start cutting path id: path19569)
(Change tool to Cylindrical cutter)

G00 Z2.000000
G00 X15.410299 Y173.687490

G01 Z-1.500000 F150.0(Penetrate)
G01 X15.410299 Y171.967510 Z-1.500000 F400.000000
G01 X17.130279 Y171.967510 Z-1.500000
G01 X17.130279 Y173.687490 Z-1.500000
G01 X15.410299 Y173.687490 Z-1.500000
G00 Z2.000000

(End cutting path id: path19569)


(Start cutting path id: path19569)
(Change tool to Cylindrical cutter)

G00 Z2.000000
G00 X15.410299 Y173.687490

G01 Z-3.000000 F150.0(Penetrate)
G01 X15.410299 Y171.967510 Z-3.000000 F400.000000
G01 X17.130279 Y171.967510 Z-3.000000
G01 X17.130279 Y173.687490 Z-3.000000
G01 X15.410299 Y173.687490 Z-3.000000
G00 Z2.000000

(End cutting path id: path19569)


(Start cutting path id: path19567)
(Change tool to Cylindrical cutter)

G00 Z2.000000
G00 X8.170389 Y177.307450

G01 Z-1.500000 F150.0(Penetrate)
G01 X8.170389 Y175.587470 Z-1.500000 F400.000000
G01 X9.890369 Y175.587470 Z-1.500000
G01 X9.890369 Y177.307450 Z-1.500000
G01 X8.170389 Y177.307450 Z-1.500000
G00 Z2.000000

(End cutting path id: path19567)


(Start cutting path id: path19567)
(Change tool to Cylindrical cutter)

G00 Z2.000000
G00 X8.170389 Y177.307450

G01 Z-3.000000 F150.0(Penetrate)
G01 X8.170389 Y175.587470 Z-3.000000 F400.000000
G01 X9.890369 Y175.587470 Z-3.000000
G01 X9.890369 Y177.307450 Z-3.000000
G01 X8.170389 Y177.307450 Z-3.000000
G00 Z2.000000

(End cutting path id: path19567)


(Start cutting path id: path19565)
(Change tool to Cylindrical cutter)

G00 Z2.000000
G00 X11.790339 Y177.307450

G01 Z-1.500000 F150.0(Penetrate)
G01 X11.790339 Y175.587470 Z-1.500000 F400.000000
G01 X13.510319 Y175.587470 Z-1.500000
G01 X13.510319 Y177.307450 Z-1.500000
G01 X11.790339 Y177.307450 Z-1.500000
G00 Z2.000000

(End cutting path id: path19565)


(Start cutting path id: path19565)
(Change tool to Cylindrical cutter)

G00 Z2.000000
G00 X11.790339 Y177.307450

G01 Z-3.000000 F150.0(Penetrate)
G01 X11.790339 Y175.587470 Z-3.000000 F400.000000
G01 X13.510319 Y175.587470 Z-3.000000
G01 X13.510319 Y177.307450 Z-3.000000
G01 X11.790339 Y177.307450 Z-3.000000
G00 Z2.000000

(End cutting path id: path19565)


(Start cutting path id: path19563)
(Change tool to Cylindrical cutter)

G00 Z2.000000
G00 X15.410299 Y177.307450

G01 Z-1.500000 F150.0(Penetrate)
G01 X15.410299 Y175.587470 Z-1.500000 F400.000000
G01 X17.130279 Y175.587470 Z-1.500000
G01 X17.130279 Y177.307450 Z-1.500000
G01 X15.410299 Y177.307450 Z-1.500000
G00 Z2.000000

(End cutting path id: path19563)


(Start cutting path id: path19563)
(Change tool to Cylindrical cutter)

G00 Z2.000000
G00 X15.410299 Y177.307450

G01 Z-3.000000 F150.0(Penetrate)
G01 X15.410299 Y175.587470 Z-3.000000 F400.000000
G01 X17.130279 Y175.587470 Z-3.000000
G01 X17.130279 Y177.307450 Z-3.000000
G01 X15.410299 Y177.307450 Z-3.000000
G00 Z2.000000

(End cutting path id: path19563)


(Start cutting path id: path19561)
(Change tool to Cylindrical cutter)

G00 Z2.000000
G00 X8.170389 Y180.927400

G01 Z-1.500000 F150.0(Penetrate)
G01 X8.170389 Y179.207420 Z-1.500000 F400.000000
G01 X9.890369 Y179.207420 Z-1.500000
G01 X9.890369 Y180.927400 Z-1.500000
G01 X8.170389 Y180.927400 Z-1.500000
G00 Z2.000000

(End cutting path id: path19561)


(Start cutting path id: path19561)
(Change tool to Cylindrical cutter)

G00 Z2.000000
G00 X8.170389 Y180.927400

G01 Z-3.000000 F150.0(Penetrate)
G01 X8.170389 Y179.207420 Z-3.000000 F400.000000
G01 X9.890369 Y179.207420 Z-3.000000
G01 X9.890369 Y180.927400 Z-3.000000
G01 X8.170389 Y180.927400 Z-3.000000
G00 Z2.000000

(End cutting path id: path19561)


(Start cutting path id: path19559)
(Change tool to Cylindrical cutter)

G00 Z2.000000
G00 X11.790339 Y180.927400

G01 Z-1.500000 F150.0(Penetrate)
G01 X11.790339 Y179.207420 Z-1.500000 F400.000000
G01 X13.510319 Y179.207420 Z-1.500000
G01 X13.510319 Y180.927400 Z-1.500000
G01 X11.790339 Y180.927400 Z-1.500000
G00 Z2.000000

(End cutting path id: path19559)


(Start cutting path id: path19559)
(Change tool to Cylindrical cutter)

G00 Z2.000000
G00 X11.790339 Y180.927400

G01 Z-3.000000 F150.0(Penetrate)
G01 X11.790339 Y179.207420 Z-3.000000 F400.000000
G01 X13.510319 Y179.207420 Z-3.000000
G01 X13.510319 Y180.927400 Z-3.000000
G01 X11.790339 Y180.927400 Z-3.000000
G00 Z2.000000

(End cutting path id: path19559)


(Start cutting path id: path19557)
(Change tool to Cylindrical cutter)

G00 Z2.000000
G00 X15.410299 Y180.927400

G01 Z-1.500000 F150.0(Penetrate)
G01 X15.410299 Y179.207420 Z-1.500000 F400.000000
G01 X17.130279 Y179.207420 Z-1.500000
G01 X17.130279 Y180.927400 Z-1.500000
G01 X15.410299 Y180.927400 Z-1.500000
G00 Z2.000000

(End cutting path id: path19557)


(Start cutting path id: path19557)
(Change tool to Cylindrical cutter)

G00 Z2.000000
G00 X15.410299 Y180.927400

G01 Z-3.000000 F150.0(Penetrate)
G01 X15.410299 Y179.207420 Z-3.000000 F400.000000
G01 X17.130279 Y179.207420 Z-3.000000
G01 X17.130279 Y180.927400 Z-3.000000
G01 X15.410299 Y180.927400 Z-3.000000
G00 Z2.000000

(End cutting path id: path19557)


(Start cutting path id: path19555)
(Change tool to Cylindrical cutter)

G00 Z2.000000
G00 X-25.928066 Y194.972130

G01 Z-1.500000 F150.0(Penetrate)
G01 X-25.928066 Y152.875870 Z-1.500000 F400.000000
G00 Z2.000000

(End cutting path id: path19555)


(Start cutting path id: path19555)
(Change tool to Cylindrical cutter)

G00 Z2.000000
G00 X-25.928066 Y194.972130

G01 Z-3.000000 F150.0(Penetrate)
G01 X-25.928066 Y152.875870 Z-3.000000 F400.000000
G00 Z2.000000

(End cutting path id: path19555)


(Start cutting path id: path19553)
(Change tool to Cylindrical cutter)

G00 Z2.000000
G00 X38.396822 Y52.403140

G01 Z-1.500000 F150.0(Penetrate)
G01 X38.396822 Y70.902910 Z-1.500000 F400.000000
G01 X23.046992 Y70.902910 Z-1.500000
G01 X23.046992 Y58.203070 Z-1.500000
G01 X9.142982 Y58.203070 Z-1.500000
G01 X9.142982 Y70.902910 Z-1.500000
G01 X-4.761022 Y70.902910 Z-1.500000
G01 X-8.257722 Y70.902910 Z-1.500000
G01 X-23.732402 Y70.902910 Z-1.500000
G01 X-42.582152 Y70.902910 Z-1.500000
G01 X-42.582152 Y52.403140 Z-1.500000
G00 Z2.000000

(End cutting path id: path19553)


(Start cutting path id: path19553)
(Change tool to Cylindrical cutter)

G00 Z2.000000
G00 X38.396822 Y52.403140

G01 Z-3.000000 F150.0(Penetrate)
G01 X38.396822 Y70.902910 Z-3.000000 F400.000000
G01 X23.046992 Y70.902910 Z-3.000000
G01 X23.046992 Y58.203070 Z-3.000000
G01 X9.142982 Y58.203070 Z-3.000000
G01 X9.142982 Y70.902910 Z-3.000000
G01 X-4.761022 Y70.902910 Z-3.000000
G01 X-8.257722 Y70.902910 Z-3.000000
G01 X-23.732402 Y70.902910 Z-3.000000
G01 X-42.582152 Y70.902910 Z-3.000000
G01 X-42.582152 Y52.403140 Z-3.000000
G00 Z2.000000

(End cutting path id: path19553)


(Start cutting path id: path19551)
(Change tool to Cylindrical cutter)

G00 Z2.000000
G00 X-35.877936 Y102.346410

G01 Z-1.500000 F150.0(Penetrate)
G01 X-35.877936 Y77.346600 Z-1.500000 F400.000000
G01 X-17.378176 Y77.346600 Z-1.500000
G00 Z2.000000

(End cutting path id: path19551)


(Start cutting path id: path19551)
(Change tool to Cylindrical cutter)

G00 Z2.000000
G00 X-35.877936 Y102.346410

G01 Z-3.000000 F150.0(Penetrate)
G01 X-35.877936 Y77.346600 Z-3.000000 F400.000000
G01 X-17.378176 Y77.346600 Z-3.000000
G00 Z2.000000

(End cutting path id: path19551)


(Start cutting path id: path19549)
(Change tool to Cylindrical cutter)

G00 Z2.000000
G00 X-3.729381 Y231.889414

G01 Z-1.500000 F150.0(Penetrate)
G01 X2.770539 Y231.889144 Z-1.500000 F400.000000
G01 X20.686959 Y231.888354 Z-1.500000
G01 X27.186879 Y231.888094 Z-1.500000
G00 Z2.000000

(End cutting path id: path19549)


(Start cutting path id: path19549)
(Change tool to Cylindrical cutter)

G00 Z2.000000
G00 X-3.729381 Y231.889414

G01 Z-3.000000 F150.0(Penetrate)
G01 X2.770539 Y231.889144 Z-3.000000 F400.000000
G01 X20.686959 Y231.888354 Z-3.000000
G01 X27.186879 Y231.888094 Z-3.000000
G00 Z2.000000

(End cutting path id: path19549)


(Start cutting path id: path19547)
(Change tool to Cylindrical cutter)

G00 Z2.000000
G00 X-1.984541 Y197.318930

G01 Z-1.500000 F150.0(Penetrate)
G01 X4.515379 Y197.318930 Z-1.500000 F400.000000
G01 X22.431809 Y197.318930 Z-1.500000
G01 X28.931729 Y197.318930 Z-1.500000
G00 Z2.000000

(End cutting path id: path19547)


(Start cutting path id: path19547)
(Change tool to Cylindrical cutter)

G00 Z2.000000
G00 X-1.984541 Y197.318930

G01 Z-3.000000 F150.0(Penetrate)
G01 X4.515379 Y197.318930 Z-3.000000 F400.000000
G01 X22.431809 Y197.318930 Z-3.000000
G01 X28.931729 Y197.318930 Z-3.000000
G00 Z2.000000

(End cutting path id: path19547)


(Start cutting path id: path19545)
(Change tool to Cylindrical cutter)

G00 Z2.000000
G00 X-35.877936 Y213.268270

G01 Z-1.500000 F150.0(Penetrate)
G01 X-35.877936 Y195.472130 Z-1.500000 F400.000000
G01 X-35.877936 Y166.372480 Z-1.500000
G01 X-35.877936 Y152.375880 Z-1.500000
G01 X-35.877936 Y138.192930 Z-1.500000
G01 X-35.877936 Y120.262830 Z-1.500000
G00 Z2.000000

(End cutting path id: path19545)


(Start cutting path id: path19545)
(Change tool to Cylindrical cutter)

G00 Z2.000000
G00 X-35.877936 Y213.268270

G01 Z-3.000000 F150.0(Penetrate)
G01 X-35.877936 Y195.472130 Z-3.000000 F400.000000
G01 X-35.877936 Y166.372480 Z-3.000000
G01 X-35.877936 Y152.375880 Z-3.000000
G01 X-35.877936 Y138.192930 Z-3.000000
G01 X-35.877936 Y120.262830 Z-3.000000
G00 Z2.000000

(End cutting path id: path19545)


(Start cutting path id: path19543)
(Change tool to Cylindrical cutter)

G00 Z2.000000
G00 X-17.378176 Y270.317914

G01 Z-1.500000 F150.0(Penetrate)
G01 X-35.877936 Y270.317914 Z-1.500000 F400.000000
G01 X-35.877936 Y231.184690 Z-1.500000
G00 Z2.000000

(End cutting path id: path19543)


(Start cutting path id: path19543)
(Change tool to Cylindrical cutter)

G00 Z2.000000
G00 X-17.378176 Y270.317914

G01 Z-3.000000 F150.0(Penetrate)
G01 X-35.877936 Y270.317914 Z-3.000000 F400.000000
G01 X-35.877936 Y231.184690 Z-3.000000
G00 Z2.000000

(End cutting path id: path19543)


(Start cutting path id: path19541)
(Change tool to Cylindrical cutter)

G00 Z2.000000
G00 X3.389679 Y98.419630

G01 Z-1.500000 F150.0(Penetrate)
G01 X3.389679 Y96.699650 Z-1.500000 F400.000000
G01 X5.109659 Y96.699650 Z-1.500000
G01 X5.109659 Y98.419630 Z-1.500000
G01 X3.389679 Y98.419630 Z-1.500000
G00 Z2.000000

(End cutting path id: path19541)


(Start cutting path id: path19541)
(Change tool to Cylindrical cutter)

G00 Z2.000000
G00 X3.389679 Y98.419630

G01 Z-3.000000 F150.0(Penetrate)
G01 X3.389679 Y96.699650 Z-3.000000 F400.000000
G01 X5.109659 Y96.699650 Z-3.000000
G01 X5.109659 Y98.419630 Z-3.000000
G01 X3.389679 Y98.419630 Z-3.000000
G00 Z2.000000

(End cutting path id: path19541)


(Start cutting path id: path19539)
(Change tool to Cylindrical cutter)

G00 Z2.000000
G00 X-0.230271 Y98.419630

G01 Z-1.500000 F150.0(Penetrate)
G01 X-0.230271 Y96.699650 Z-1.500000 F400.000000
G01 X1.489699 Y96.699650 Z-1.500000
G01 X1.489699 Y98.419630 Z-1.500000
G01 X-0.230271 Y98.419630 Z-1.500000
G00 Z2.000000

(End cutting path id: path19539)


(Start cutting path id: path19539)
(Change tool to Cylindrical cutter)

G00 Z2.000000
G00 X-0.230271 Y98.419630

G01 Z-3.000000 F150.0(Penetrate)
G01 X-0.230271 Y96.699650 Z-3.000000 F400.000000
G01 X1.489699 Y96.699650 Z-3.000000
G01 X1.489699 Y98.419630 Z-3.000000
G01 X-0.230271 Y98.419630 Z-3.000000
G00 Z2.000000

(End cutting path id: path19539)


(Start cutting path id: path19537)
(Change tool to Cylindrical cutter)

G00 Z2.000000
G00 X-3.850231 Y98.419630

G01 Z-1.500000 F150.0(Penetrate)
G01 X-3.850231 Y96.699650 Z-1.500000 F400.000000
G01 X-2.130251 Y96.699650 Z-1.500000
G01 X-2.130251 Y98.419630 Z-1.500000
G01 X-3.850231 Y98.419630 Z-1.500000
G00 Z2.000000

(End cutting path id: path19537)


(Start cutting path id: path19537)
(Change tool to Cylindrical cutter)

G00 Z2.000000
G00 X-3.850231 Y98.419630

G01 Z-3.000000 F150.0(Penetrate)
G01 X-3.850231 Y96.699650 Z-3.000000 F400.000000
G01 X-2.130251 Y96.699650 Z-3.000000
G01 X-2.130251 Y98.419630 Z-3.000000
G01 X-3.850231 Y98.419630 Z-3.000000
G00 Z2.000000

(End cutting path id: path19537)


(Start cutting path id: path19535)
(Change tool to Cylindrical cutter)

G00 Z2.000000
G00 X-7.470185 Y98.419630

G01 Z-1.500000 F150.0(Penetrate)
G01 X-7.470185 Y96.699650 Z-1.500000 F400.000000
G01 X-5.750201 Y96.699650 Z-1.500000
G01 X-5.750201 Y98.419630 Z-1.500000
G01 X-7.470185 Y98.419630 Z-1.500000
G00 Z2.000000

(End cutting path id: path19535)


(Start cutting path id: path19535)
(Change tool to Cylindrical cutter)

G00 Z2.000000
G00 X-7.470185 Y98.419630

G01 Z-3.000000 F150.0(Penetrate)
G01 X-7.470185 Y96.699650 Z-3.000000 F400.000000
G01 X-5.750201 Y96.699650 Z-3.000000
G01 X-5.750201 Y98.419630 Z-3.000000
G01 X-7.470185 Y98.419630 Z-3.000000
G00 Z2.000000

(End cutting path id: path19535)


(Start cutting path id: path19533)
(Change tool to Cylindrical cutter)

G00 Z2.000000
G00 X-7.470185 Y102.039580

G01 Z-1.500000 F150.0(Penetrate)
G01 X-7.470185 Y100.319610 Z-1.500000 F400.000000
G01 X-5.750201 Y100.319610 Z-1.500000
G01 X-5.750201 Y102.039580 Z-1.500000
G01 X-7.470185 Y102.039580 Z-1.500000
G00 Z2.000000

(End cutting path id: path19533)


(Start cutting path id: path19533)
(Change tool to Cylindrical cutter)

G00 Z2.000000
G00 X-7.470185 Y102.039580

G01 Z-3.000000 F150.0(Penetrate)
G01 X-7.470185 Y100.319610 Z-3.000000 F400.000000
G01 X-5.750201 Y100.319610 Z-3.000000
G01 X-5.750201 Y102.039580 Z-3.000000
G01 X-7.470185 Y102.039580 Z-3.000000
G00 Z2.000000

(End cutting path id: path19533)


(Start cutting path id: path19531)
(Change tool to Cylindrical cutter)

G00 Z2.000000
G00 X-3.850231 Y102.039580

G01 Z-1.500000 F150.0(Penetrate)
G01 X-3.850231 Y100.319610 Z-1.500000 F400.000000
G01 X-2.130251 Y100.319610 Z-1.500000
G01 X-2.130251 Y102.039580 Z-1.500000
G01 X-3.850231 Y102.039580 Z-1.500000
G00 Z2.000000

(End cutting path id: path19531)


(Start cutting path id: path19531)
(Change tool to Cylindrical cutter)

G00 Z2.000000
G00 X-3.850231 Y102.039580

G01 Z-3.000000 F150.0(Penetrate)
G01 X-3.850231 Y100.319610 Z-3.000000 F400.000000
G01 X-2.130251 Y100.319610 Z-3.000000
G01 X-2.130251 Y102.039580 Z-3.000000
G01 X-3.850231 Y102.039580 Z-3.000000
G00 Z2.000000

(End cutting path id: path19531)


(Start cutting path id: path19529)
(Change tool to Cylindrical cutter)

G00 Z2.000000
G00 X-0.230271 Y102.039580

G01 Z-1.500000 F150.0(Penetrate)
G01 X-0.230271 Y100.319610 Z-1.500000 F400.000000
G01 X1.489699 Y100.319610 Z-1.500000
G01 X1.489699 Y102.039580 Z-1.500000
G01 X-0.230271 Y102.039580 Z-1.500000
G00 Z2.000000

(End cutting path id: path19529)


(Start cutting path id: path19529)
(Change tool to Cylindrical cutter)

G00 Z2.000000
G00 X-0.230271 Y102.039580

G01 Z-3.000000 F150.0(Penetrate)
G01 X-0.230271 Y100.319610 Z-3.000000 F400.000000
G01 X1.489699 Y100.319610 Z-3.000000
G01 X1.489699 Y102.039580 Z-3.000000
G01 X-0.230271 Y102.039580 Z-3.000000
G00 Z2.000000

(End cutting path id: path19529)


(Start cutting path id: path19527)
(Change tool to Cylindrical cutter)

G00 Z2.000000
G00 X3.389679 Y102.039580

G01 Z-1.500000 F150.0(Penetrate)
G01 X3.389679 Y100.319610 Z-1.500000 F400.000000
G01 X5.109659 Y100.319610 Z-1.500000
G01 X5.109659 Y102.039580 Z-1.500000
G01 X3.389679 Y102.039580 Z-1.500000
G00 Z2.000000

(End cutting path id: path19527)


(Start cutting path id: path19527)
(Change tool to Cylindrical cutter)

G00 Z2.000000
G00 X3.389679 Y102.039580

G01 Z-3.000000 F150.0(Penetrate)
G01 X3.389679 Y100.319610 Z-3.000000 F400.000000
G01 X5.109659 Y100.319610 Z-3.000000
G01 X5.109659 Y102.039580 Z-3.000000
G01 X3.389679 Y102.039580 Z-3.000000
G00 Z2.000000

(End cutting path id: path19527)


(Start cutting path id: path19525)
(Change tool to Cylindrical cutter)

G00 Z2.000000
G00 X-7.470185 Y105.659540

G01 Z-1.500000 F150.0(Penetrate)
G01 X-7.470185 Y103.939560 Z-1.500000 F400.000000
G01 X-5.750201 Y103.939560 Z-1.500000
G01 X-5.750201 Y105.659540 Z-1.500000
G01 X-7.470185 Y105.659540 Z-1.500000
G00 Z2.000000

(End cutting path id: path19525)


(Start cutting path id: path19525)
(Change tool to Cylindrical cutter)

G00 Z2.000000
G00 X-7.470185 Y105.659540

G01 Z-3.000000 F150.0(Penetrate)
G01 X-7.470185 Y103.939560 Z-3.000000 F400.000000
G01 X-5.750201 Y103.939560 Z-3.000000
G01 X-5.750201 Y105.659540 Z-3.000000
G01 X-7.470185 Y105.659540 Z-3.000000
G00 Z2.000000

(End cutting path id: path19525)


(Start cutting path id: path19523)
(Change tool to Cylindrical cutter)

G00 Z2.000000
G00 X-3.850231 Y105.659540

G01 Z-1.500000 F150.0(Penetrate)
G01 X-3.850231 Y103.939560 Z-1.500000 F400.000000
G01 X-2.130251 Y103.939560 Z-1.500000
G01 X-2.130251 Y105.659540 Z-1.500000
G01 X-3.850231 Y105.659540 Z-1.500000
G00 Z2.000000

(End cutting path id: path19523)


(Start cutting path id: path19523)
(Change tool to Cylindrical cutter)

G00 Z2.000000
G00 X-3.850231 Y105.659540

G01 Z-3.000000 F150.0(Penetrate)
G01 X-3.850231 Y103.939560 Z-3.000000 F400.000000
G01 X-2.130251 Y103.939560 Z-3.000000
G01 X-2.130251 Y105.659540 Z-3.000000
G01 X-3.850231 Y105.659540 Z-3.000000
G00 Z2.000000

(End cutting path id: path19523)


(Start cutting path id: path19521)
(Change tool to Cylindrical cutter)

G00 Z2.000000
G00 X-0.230271 Y105.659540

G01 Z-1.500000 F150.0(Penetrate)
G01 X-0.230271 Y103.939560 Z-1.500000 F400.000000
G01 X1.489699 Y103.939560 Z-1.500000
G01 X1.489699 Y105.659540 Z-1.500000
G01 X-0.230271 Y105.659540 Z-1.500000
G00 Z2.000000

(End cutting path id: path19521)


(Start cutting path id: path19521)
(Change tool to Cylindrical cutter)

G00 Z2.000000
G00 X-0.230271 Y105.659540

G01 Z-3.000000 F150.0(Penetrate)
G01 X-0.230271 Y103.939560 Z-3.000000 F400.000000
G01 X1.489699 Y103.939560 Z-3.000000
G01 X1.489699 Y105.659540 Z-3.000000
G01 X-0.230271 Y105.659540 Z-3.000000
G00 Z2.000000

(End cutting path id: path19521)


(Start cutting path id: path19519)
(Change tool to Cylindrical cutter)

G00 Z2.000000
G00 X3.389679 Y105.659540

G01 Z-1.500000 F150.0(Penetrate)
G01 X3.389679 Y103.939560 Z-1.500000 F400.000000
G01 X5.109659 Y103.939560 Z-1.500000
G01 X5.109659 Y105.659540 Z-1.500000
G01 X3.389679 Y105.659540 Z-1.500000
G00 Z2.000000

(End cutting path id: path19519)


(Start cutting path id: path19519)
(Change tool to Cylindrical cutter)

G00 Z2.000000
G00 X3.389679 Y105.659540

G01 Z-3.000000 F150.0(Penetrate)
G01 X3.389679 Y103.939560 Z-3.000000 F400.000000
G01 X5.109659 Y103.939560 Z-3.000000
G01 X5.109659 Y105.659540 Z-3.000000
G01 X3.389679 Y105.659540 Z-3.000000
G00 Z2.000000

(End cutting path id: path19519)


(Start cutting path id: path19517)
(Change tool to Cylindrical cutter)

G00 Z2.000000
G00 X-7.470185 Y109.279490

G01 Z-1.500000 F150.0(Penetrate)
G01 X-7.470185 Y107.559510 Z-1.500000 F400.000000
G01 X-5.750201 Y107.559510 Z-1.500000
G01 X-5.750201 Y109.279490 Z-1.500000
G01 X-7.470185 Y109.279490 Z-1.500000
G00 Z2.000000

(End cutting path id: path19517)


(Start cutting path id: path19517)
(Change tool to Cylindrical cutter)

G00 Z2.000000
G00 X-7.470185 Y109.279490

G01 Z-3.000000 F150.0(Penetrate)
G01 X-7.470185 Y107.559510 Z-3.000000 F400.000000
G01 X-5.750201 Y107.559510 Z-3.000000
G01 X-5.750201 Y109.279490 Z-3.000000
G01 X-7.470185 Y109.279490 Z-3.000000
G00 Z2.000000

(End cutting path id: path19517)


(Start cutting path id: path19515)
(Change tool to Cylindrical cutter)

G00 Z2.000000
G00 X-3.850231 Y109.279490

G01 Z-1.500000 F150.0(Penetrate)
G01 X-3.850231 Y107.559510 Z-1.500000 F400.000000
G01 X-2.130251 Y107.559510 Z-1.500000
G01 X-2.130251 Y109.279490 Z-1.500000
G01 X-3.850231 Y109.279490 Z-1.500000
G00 Z2.000000

(End cutting path id: path19515)


(Start cutting path id: path19515)
(Change tool to Cylindrical cutter)

G00 Z2.000000
G00 X-3.850231 Y109.279490

G01 Z-3.000000 F150.0(Penetrate)
G01 X-3.850231 Y107.559510 Z-3.000000 F400.000000
G01 X-2.130251 Y107.559510 Z-3.000000
G01 X-2.130251 Y109.279490 Z-3.000000
G01 X-3.850231 Y109.279490 Z-3.000000
G00 Z2.000000

(End cutting path id: path19515)


(Start cutting path id: path19513)
(Change tool to Cylindrical cutter)

G00 Z2.000000
G00 X-0.230271 Y109.279490

G01 Z-1.500000 F150.0(Penetrate)
G01 X-0.230271 Y107.559510 Z-1.500000 F400.000000
G01 X1.489699 Y107.559510 Z-1.500000
G01 X1.489699 Y109.279490 Z-1.500000
G01 X-0.230271 Y109.279490 Z-1.500000
G00 Z2.000000

(End cutting path id: path19513)


(Start cutting path id: path19513)
(Change tool to Cylindrical cutter)

G00 Z2.000000
G00 X-0.230271 Y109.279490

G01 Z-3.000000 F150.0(Penetrate)
G01 X-0.230271 Y107.559510 Z-3.000000 F400.000000
G01 X1.489699 Y107.559510 Z-3.000000
G01 X1.489699 Y109.279490 Z-3.000000
G01 X-0.230271 Y109.279490 Z-3.000000
G00 Z2.000000

(End cutting path id: path19513)


(Start cutting path id: path19511)
(Change tool to Cylindrical cutter)

G00 Z2.000000
G00 X3.389679 Y109.279490

G01 Z-1.500000 F150.0(Penetrate)
G01 X3.389679 Y107.559510 Z-1.500000 F400.000000
G01 X5.109659 Y107.559510 Z-1.500000
G01 X5.109659 Y109.279490 Z-1.500000
G01 X3.389679 Y109.279490 Z-1.500000
G00 Z2.000000

(End cutting path id: path19511)


(Start cutting path id: path19511)
(Change tool to Cylindrical cutter)

G00 Z2.000000
G00 X3.389679 Y109.279490

G01 Z-3.000000 F150.0(Penetrate)
G01 X3.389679 Y107.559510 Z-3.000000 F400.000000
G01 X5.109659 Y107.559510 Z-3.000000
G01 X5.109659 Y109.279490 Z-3.000000
G01 X3.389679 Y109.279490 Z-3.000000
G00 Z2.000000

(End cutting path id: path19511)


(Start cutting path id: path19509)
(Change tool to Cylindrical cutter)

G00 Z2.000000
G00 X23.015589 Y98.414850

G01 Z-1.500000 F150.0(Penetrate)
G01 X23.015589 Y96.694880 Z-1.500000 F400.000000
G01 X24.735569 Y96.694880 Z-1.500000
G01 X24.735569 Y98.414850 Z-1.500000
G01 X23.015589 Y98.414850 Z-1.500000
G00 Z2.000000

(End cutting path id: path19509)


(Start cutting path id: path19509)
(Change tool to Cylindrical cutter)

G00 Z2.000000
G00 X23.015589 Y98.414850

G01 Z-3.000000 F150.0(Penetrate)
G01 X23.015589 Y96.694880 Z-3.000000 F400.000000
G01 X24.735569 Y96.694880 Z-3.000000
G01 X24.735569 Y98.414850 Z-3.000000
G01 X23.015589 Y98.414850 Z-3.000000
G00 Z2.000000

(End cutting path id: path19509)


(Start cutting path id: path19507)
(Change tool to Cylindrical cutter)

G00 Z2.000000
G00 X26.635539 Y98.414850

G01 Z-1.500000 F150.0(Penetrate)
G01 X26.635539 Y96.694880 Z-1.500000 F400.000000
G01 X28.355519 Y96.694880 Z-1.500000
G01 X28.355519 Y98.414850 Z-1.500000
G01 X26.635539 Y98.414850 Z-1.500000
G00 Z2.000000

(End cutting path id: path19507)


(Start cutting path id: path19507)
(Change tool to Cylindrical cutter)

G00 Z2.000000
G00 X26.635539 Y98.414850

G01 Z-3.000000 F150.0(Penetrate)
G01 X26.635539 Y96.694880 Z-3.000000 F400.000000
G01 X28.355519 Y96.694880 Z-3.000000
G01 X28.355519 Y98.414850 Z-3.000000
G01 X26.635539 Y98.414850 Z-3.000000
G00 Z2.000000

(End cutting path id: path19507)


(Start cutting path id: path19505)
(Change tool to Cylindrical cutter)

G00 Z2.000000
G00 X30.255499 Y98.414850

G01 Z-1.500000 F150.0(Penetrate)
G01 X30.255499 Y96.694880 Z-1.500000 F400.000000
G01 X31.975469 Y96.694880 Z-1.500000
G01 X31.975469 Y98.414850 Z-1.500000
G01 X30.255499 Y98.414850 Z-1.500000
G00 Z2.000000

(End cutting path id: path19505)


(Start cutting path id: path19505)
(Change tool to Cylindrical cutter)

G00 Z2.000000
G00 X30.255499 Y98.414850

G01 Z-3.000000 F150.0(Penetrate)
G01 X30.255499 Y96.694880 Z-3.000000 F400.000000
G01 X31.975469 Y96.694880 Z-3.000000
G01 X31.975469 Y98.414850 Z-3.000000
G01 X30.255499 Y98.414850 Z-3.000000
G00 Z2.000000

(End cutting path id: path19505)


(Start cutting path id: path19503)
(Change tool to Cylindrical cutter)

G00 Z2.000000
G00 X30.255499 Y102.034810

G01 Z-1.500000 F150.0(Penetrate)
G01 X30.255499 Y100.314830 Z-1.500000 F400.000000
G01 X31.975469 Y100.314830 Z-1.500000
G01 X31.975469 Y102.034810 Z-1.500000
G01 X30.255499 Y102.034810 Z-1.500000
G00 Z2.000000

(End cutting path id: path19503)


(Start cutting path id: path19503)
(Change tool to Cylindrical cutter)

G00 Z2.000000
G00 X30.255499 Y102.034810

G01 Z-3.000000 F150.0(Penetrate)
G01 X30.255499 Y100.314830 Z-3.000000 F400.000000
G01 X31.975469 Y100.314830 Z-3.000000
G01 X31.975469 Y102.034810 Z-3.000000
G01 X30.255499 Y102.034810 Z-3.000000
G00 Z2.000000

(End cutting path id: path19503)


(Start cutting path id: path19501)
(Change tool to Cylindrical cutter)

G00 Z2.000000
G00 X26.635539 Y102.034810

G01 Z-1.500000 F150.0(Penetrate)
G01 X26.635539 Y100.314830 Z-1.500000 F400.000000
G01 X28.355519 Y100.314830 Z-1.500000
G01 X28.355519 Y102.034810 Z-1.500000
G01 X26.635539 Y102.034810 Z-1.500000
G00 Z2.000000

(End cutting path id: path19501)


(Start cutting path id: path19501)
(Change tool to Cylindrical cutter)

G00 Z2.000000
G00 X26.635539 Y102.034810

G01 Z-3.000000 F150.0(Penetrate)
G01 X26.635539 Y100.314830 Z-3.000000 F400.000000
G01 X28.355519 Y100.314830 Z-3.000000
G01 X28.355519 Y102.034810 Z-3.000000
G01 X26.635539 Y102.034810 Z-3.000000
G00 Z2.000000

(End cutting path id: path19501)


(Start cutting path id: path19499)
(Change tool to Cylindrical cutter)

G00 Z2.000000
G00 X23.015589 Y102.034810

G01 Z-1.500000 F150.0(Penetrate)
G01 X23.015589 Y100.314830 Z-1.500000 F400.000000
G01 X24.735569 Y100.314830 Z-1.500000
G01 X24.735569 Y102.034810 Z-1.500000
G01 X23.015589 Y102.034810 Z-1.500000
G00 Z2.000000

(End cutting path id: path19499)


(Start cutting path id: path19499)
(Change tool to Cylindrical cutter)

G00 Z2.000000
G00 X23.015589 Y102.034810

G01 Z-3.000000 F150.0(Penetrate)
G01 X23.015589 Y100.314830 Z-3.000000 F400.000000
G01 X24.735569 Y100.314830 Z-3.000000
G01 X24.735569 Y102.034810 Z-3.000000
G01 X23.015589 Y102.034810 Z-3.000000
G00 Z2.000000

(End cutting path id: path19499)


(Start cutting path id: path19497)
(Change tool to Cylindrical cutter)

G00 Z2.000000
G00 X19.395639 Y102.034810

G01 Z-1.500000 F150.0(Penetrate)
G01 X19.395639 Y100.314830 Z-1.500000 F400.000000
G01 X21.115609 Y100.314830 Z-1.500000
G01 X21.115609 Y102.034810 Z-1.500000
G01 X19.395639 Y102.034810 Z-1.500000
G00 Z2.000000

(End cutting path id: path19497)


(Start cutting path id: path19497)
(Change tool to Cylindrical cutter)

G00 Z2.000000
G00 X19.395639 Y102.034810

G01 Z-3.000000 F150.0(Penetrate)
G01 X19.395639 Y100.314830 Z-3.000000 F400.000000
G01 X21.115609 Y100.314830 Z-3.000000
G01 X21.115609 Y102.034810 Z-3.000000
G01 X19.395639 Y102.034810 Z-3.000000
G00 Z2.000000

(End cutting path id: path19497)


(Start cutting path id: path19495)
(Change tool to Cylindrical cutter)

G00 Z2.000000
G00 X19.395639 Y98.414850

G01 Z-1.500000 F150.0(Penetrate)
G01 X19.395639 Y96.694880 Z-1.500000 F400.000000
G01 X21.115609 Y96.694880 Z-1.500000
G01 X21.115609 Y98.414850 Z-1.500000
G01 X19.395639 Y98.414850 Z-1.500000
G00 Z2.000000

(End cutting path id: path19495)


(Start cutting path id: path19495)
(Change tool to Cylindrical cutter)

G00 Z2.000000
G00 X19.395639 Y98.414850

G01 Z-3.000000 F150.0(Penetrate)
G01 X19.395639 Y96.694880 Z-3.000000 F400.000000
G01 X21.115609 Y96.694880 Z-3.000000
G01 X21.115609 Y98.414850 Z-3.000000
G01 X19.395639 Y98.414850 Z-3.000000
G00 Z2.000000

(End cutting path id: path19495)


(Start cutting path id: path19493)
(Change tool to Cylindrical cutter)

G00 Z2.000000
G00 X15.775679 Y98.414850

G01 Z-1.500000 F150.0(Penetrate)
G01 X15.775679 Y96.694880 Z-1.500000 F400.000000
G01 X17.495659 Y96.694880 Z-1.500000
G01 X17.495659 Y98.414850 Z-1.500000
G01 X15.775679 Y98.414850 Z-1.500000
G00 Z2.000000

(End cutting path id: path19493)


(Start cutting path id: path19493)
(Change tool to Cylindrical cutter)

G00 Z2.000000
G00 X15.775679 Y98.414850

G01 Z-3.000000 F150.0(Penetrate)
G01 X15.775679 Y96.694880 Z-3.000000 F400.000000
G01 X17.495659 Y96.694880 Z-3.000000
G01 X17.495659 Y98.414850 Z-3.000000
G01 X15.775679 Y98.414850 Z-3.000000
G00 Z2.000000

(End cutting path id: path19493)


(Start cutting path id: path19491)
(Change tool to Cylindrical cutter)

G00 Z2.000000
G00 X15.775679 Y102.034810

G01 Z-1.500000 F150.0(Penetrate)
G01 X15.775679 Y100.314830 Z-1.500000 F400.000000
G01 X17.495659 Y100.314830 Z-1.500000
G01 X17.495659 Y102.034810 Z-1.500000
G01 X15.775679 Y102.034810 Z-1.500000
G00 Z2.000000

(End cutting path id: path19491)


(Start cutting path id: path19491)
(Change tool to Cylindrical cutter)

G00 Z2.000000
G00 X15.775679 Y102.034810

G01 Z-3.000000 F150.0(Penetrate)
G01 X15.775679 Y100.314830 Z-3.000000 F400.000000
G01 X17.495659 Y100.314830 Z-3.000000
G01 X17.495659 Y102.034810 Z-3.000000
G01 X15.775679 Y102.034810 Z-3.000000
G00 Z2.000000

(End cutting path id: path19491)


(Start cutting path id: path19489)
(Change tool to Cylindrical cutter)

G00 Z2.000000
G00 X12.155729 Y102.034810

G01 Z-1.500000 F150.0(Penetrate)
G01 X12.155729 Y100.314830 Z-1.500000 F400.000000
G01 X13.875699 Y100.314830 Z-1.500000
G01 X13.875699 Y102.034810 Z-1.500000
G01 X12.155729 Y102.034810 Z-1.500000
G00 Z2.000000

(End cutting path id: path19489)


(Start cutting path id: path19489)
(Change tool to Cylindrical cutter)

G00 Z2.000000
G00 X12.155729 Y102.034810

G01 Z-3.000000 F150.0(Penetrate)
G01 X12.155729 Y100.314830 Z-3.000000 F400.000000
G01 X13.875699 Y100.314830 Z-3.000000
G01 X13.875699 Y102.034810 Z-3.000000
G01 X12.155729 Y102.034810 Z-3.000000
G00 Z2.000000

(End cutting path id: path19489)


(Start cutting path id: path19487)
(Change tool to Cylindrical cutter)

G00 Z2.000000
G00 X12.155729 Y98.414850

G01 Z-1.500000 F150.0(Penetrate)
G01 X12.155729 Y96.694880 Z-1.500000 F400.000000
G01 X13.875699 Y96.694880 Z-1.500000
G01 X13.875699 Y98.414850 Z-1.500000
G01 X12.155729 Y98.414850 Z-1.500000
G00 Z2.000000

(End cutting path id: path19487)


(Start cutting path id: path19487)
(Change tool to Cylindrical cutter)

G00 Z2.000000
G00 X12.155729 Y98.414850

G01 Z-3.000000 F150.0(Penetrate)
G01 X12.155729 Y96.694880 Z-3.000000 F400.000000
G01 X13.875699 Y96.694880 Z-3.000000
G01 X13.875699 Y98.414850 Z-3.000000
G01 X12.155729 Y98.414850 Z-3.000000
G00 Z2.000000

(End cutting path id: path19487)


(Start cutting path id: path19485)
(Change tool to Cylindrical cutter)

G00 Z2.000000
G00 X12.155729 Y105.654760

G01 Z-1.500000 F150.0(Penetrate)
G01 X12.155729 Y103.934790 Z-1.500000 F400.000000
G01 X13.875699 Y103.934790 Z-1.500000
G01 X13.875699 Y105.654760 Z-1.500000
G01 X12.155729 Y105.654760 Z-1.500000
G00 Z2.000000

(End cutting path id: path19485)


(Start cutting path id: path19485)
(Change tool to Cylindrical cutter)

G00 Z2.000000
G00 X12.155729 Y105.654760

G01 Z-3.000000 F150.0(Penetrate)
G01 X12.155729 Y103.934790 Z-3.000000 F400.000000
G01 X13.875699 Y103.934790 Z-3.000000
G01 X13.875699 Y105.654760 Z-3.000000
G01 X12.155729 Y105.654760 Z-3.000000
G00 Z2.000000

(End cutting path id: path19485)


(Start cutting path id: path19483)
(Change tool to Cylindrical cutter)

G00 Z2.000000
G00 X15.775679 Y105.654760

G01 Z-1.500000 F150.0(Penetrate)
G01 X15.775679 Y103.934790 Z-1.500000 F400.000000
G01 X17.495659 Y103.934790 Z-1.500000
G01 X17.495659 Y105.654760 Z-1.500000
G01 X15.775679 Y105.654760 Z-1.500000
G00 Z2.000000

(End cutting path id: path19483)


(Start cutting path id: path19483)
(Change tool to Cylindrical cutter)

G00 Z2.000000
G00 X15.775679 Y105.654760

G01 Z-3.000000 F150.0(Penetrate)
G01 X15.775679 Y103.934790 Z-3.000000 F400.000000
G01 X17.495659 Y103.934790 Z-3.000000
G01 X17.495659 Y105.654760 Z-3.000000
G01 X15.775679 Y105.654760 Z-3.000000
G00 Z2.000000

(End cutting path id: path19483)


(Start cutting path id: path19481)
(Change tool to Cylindrical cutter)

G00 Z2.000000
G00 X19.395639 Y105.654760

G01 Z-1.500000 F150.0(Penetrate)
G01 X19.395639 Y103.934790 Z-1.500000 F400.000000
G01 X21.115609 Y103.934790 Z-1.500000
G01 X21.115609 Y105.654760 Z-1.500000
G01 X19.395639 Y105.654760 Z-1.500000
G00 Z2.000000

(End cutting path id: path19481)


(Start cutting path id: path19481)
(Change tool to Cylindrical cutter)

G00 Z2.000000
G00 X19.395639 Y105.654760

G01 Z-3.000000 F150.0(Penetrate)
G01 X19.395639 Y103.934790 Z-3.000000 F400.000000
G01 X21.115609 Y103.934790 Z-3.000000
G01 X21.115609 Y105.654760 Z-3.000000
G01 X19.395639 Y105.654760 Z-3.000000
G00 Z2.000000

(End cutting path id: path19481)


(Start cutting path id: path19479)
(Change tool to Cylindrical cutter)

G00 Z2.000000
G00 X23.015589 Y105.654760

G01 Z-1.500000 F150.0(Penetrate)
G01 X23.015589 Y103.934790 Z-1.500000 F400.000000
G01 X24.735569 Y103.934790 Z-1.500000
G01 X24.735569 Y105.654760 Z-1.500000
G01 X23.015589 Y105.654760 Z-1.500000
G00 Z2.000000

(End cutting path id: path19479)


(Start cutting path id: path19479)
(Change tool to Cylindrical cutter)

G00 Z2.000000
G00 X23.015589 Y105.654760

G01 Z-3.000000 F150.0(Penetrate)
G01 X23.015589 Y103.934790 Z-3.000000 F400.000000
G01 X24.735569 Y103.934790 Z-3.000000
G01 X24.735569 Y105.654760 Z-3.000000
G01 X23.015589 Y105.654760 Z-3.000000
G00 Z2.000000

(End cutting path id: path19479)


(Start cutting path id: path19477)
(Change tool to Cylindrical cutter)

G00 Z2.000000
G00 X26.635539 Y105.654760

G01 Z-1.500000 F150.0(Penetrate)
G01 X26.635539 Y103.934790 Z-1.500000 F400.000000
G01 X28.355519 Y103.934790 Z-1.500000
G01 X28.355519 Y105.654760 Z-1.500000
G01 X26.635539 Y105.654760 Z-1.500000
G00 Z2.000000

(End cutting path id: path19477)


(Start cutting path id: path19477)
(Change tool to Cylindrical cutter)

G00 Z2.000000
G00 X26.635539 Y105.654760

G01 Z-3.000000 F150.0(Penetrate)
G01 X26.635539 Y103.934790 Z-3.000000 F400.000000
G01 X28.355519 Y103.934790 Z-3.000000
G01 X28.355519 Y105.654760 Z-3.000000
G01 X26.635539 Y105.654760 Z-3.000000
G00 Z2.000000

(End cutting path id: path19477)


(Start cutting path id: path19475)
(Change tool to Cylindrical cutter)

G00 Z2.000000
G00 X30.255499 Y105.654760

G01 Z-1.500000 F150.0(Penetrate)
G01 X30.255499 Y103.934790 Z-1.500000 F400.000000
G01 X31.975469 Y103.934790 Z-1.500000
G01 X31.975469 Y105.654760 Z-1.500000
G01 X30.255499 Y105.654760 Z-1.500000
G00 Z2.000000

(End cutting path id: path19475)


(Start cutting path id: path19475)
(Change tool to Cylindrical cutter)

G00 Z2.000000
G00 X30.255499 Y105.654760

G01 Z-3.000000 F150.0(Penetrate)
G01 X30.255499 Y103.934790 Z-3.000000 F400.000000
G01 X31.975469 Y103.934790 Z-3.000000
G01 X31.975469 Y105.654760 Z-3.000000
G01 X30.255499 Y105.654760 Z-3.000000
G00 Z2.000000

(End cutting path id: path19475)


(Start cutting path id: path19473)
(Change tool to Cylindrical cutter)

G00 Z2.000000
G00 X30.255499 Y109.274720

G01 Z-1.500000 F150.0(Penetrate)
G01 X30.255499 Y107.554740 Z-1.500000 F400.000000
G01 X31.975469 Y107.554740 Z-1.500000
G01 X31.975469 Y109.274720 Z-1.500000
G01 X30.255499 Y109.274720 Z-1.500000
G00 Z2.000000

(End cutting path id: path19473)


(Start cutting path id: path19473)
(Change tool to Cylindrical cutter)

G00 Z2.000000
G00 X30.255499 Y109.274720

G01 Z-3.000000 F150.0(Penetrate)
G01 X30.255499 Y107.554740 Z-3.000000 F400.000000
G01 X31.975469 Y107.554740 Z-3.000000
G01 X31.975469 Y109.274720 Z-3.000000
G01 X30.255499 Y109.274720 Z-3.000000
G00 Z2.000000

(End cutting path id: path19473)


(Start cutting path id: path19471)
(Change tool to Cylindrical cutter)

G00 Z2.000000
G00 X26.635539 Y109.274720

G01 Z-1.500000 F150.0(Penetrate)
G01 X26.635539 Y107.554740 Z-1.500000 F400.000000
G01 X28.355519 Y107.554740 Z-1.500000
G01 X28.355519 Y109.274720 Z-1.500000
G01 X26.635539 Y109.274720 Z-1.500000
G00 Z2.000000

(End cutting path id: path19471)


(Start cutting path id: path19471)
(Change tool to Cylindrical cutter)

G00 Z2.000000
G00 X26.635539 Y109.274720

G01 Z-3.000000 F150.0(Penetrate)
G01 X26.635539 Y107.554740 Z-3.000000 F400.000000
G01 X28.355519 Y107.554740 Z-3.000000
G01 X28.355519 Y109.274720 Z-3.000000
G01 X26.635539 Y109.274720 Z-3.000000
G00 Z2.000000

(End cutting path id: path19471)


(Start cutting path id: path19469)
(Change tool to Cylindrical cutter)

G00 Z2.000000
G00 X23.015589 Y109.274720

G01 Z-1.500000 F150.0(Penetrate)
G01 X23.015589 Y107.554740 Z-1.500000 F400.000000
G01 X24.735569 Y107.554740 Z-1.500000
G01 X24.735569 Y109.274720 Z-1.500000
G01 X23.015589 Y109.274720 Z-1.500000
G00 Z2.000000

(End cutting path id: path19469)


(Start cutting path id: path19469)
(Change tool to Cylindrical cutter)

G00 Z2.000000
G00 X23.015589 Y109.274720

G01 Z-3.000000 F150.0(Penetrate)
G01 X23.015589 Y107.554740 Z-3.000000 F400.000000
G01 X24.735569 Y107.554740 Z-3.000000
G01 X24.735569 Y109.274720 Z-3.000000
G01 X23.015589 Y109.274720 Z-3.000000
G00 Z2.000000

(End cutting path id: path19469)


(Start cutting path id: path19467)
(Change tool to Cylindrical cutter)

G00 Z2.000000
G00 X19.395639 Y109.274720

G01 Z-1.500000 F150.0(Penetrate)
G01 X19.395639 Y107.554740 Z-1.500000 F400.000000
G01 X21.115609 Y107.554740 Z-1.500000
G01 X21.115609 Y109.274720 Z-1.500000
G01 X19.395639 Y109.274720 Z-1.500000
G00 Z2.000000

(End cutting path id: path19467)


(Start cutting path id: path19467)
(Change tool to Cylindrical cutter)

G00 Z2.000000
G00 X19.395639 Y109.274720

G01 Z-3.000000 F150.0(Penetrate)
G01 X19.395639 Y107.554740 Z-3.000000 F400.000000
G01 X21.115609 Y107.554740 Z-3.000000
G01 X21.115609 Y109.274720 Z-3.000000
G01 X19.395639 Y109.274720 Z-3.000000
G00 Z2.000000

(End cutting path id: path19467)


(Start cutting path id: path19465)
(Change tool to Cylindrical cutter)

G00 Z2.000000
G00 X15.775679 Y109.274720

G01 Z-1.500000 F150.0(Penetrate)
G01 X15.775679 Y107.554740 Z-1.500000 F400.000000
G01 X17.495659 Y107.554740 Z-1.500000
G01 X17.495659 Y109.274720 Z-1.500000
G01 X15.775679 Y109.274720 Z-1.500000
G00 Z2.000000

(End cutting path id: path19465)


(Start cutting path id: path19465)
(Change tool to Cylindrical cutter)

G00 Z2.000000
G00 X15.775679 Y109.274720

G01 Z-3.000000 F150.0(Penetrate)
G01 X15.775679 Y107.554740 Z-3.000000 F400.000000
G01 X17.495659 Y107.554740 Z-3.000000
G01 X17.495659 Y109.274720 Z-3.000000
G01 X15.775679 Y109.274720 Z-3.000000
G00 Z2.000000

(End cutting path id: path19465)


(Start cutting path id: path19463)
(Change tool to Cylindrical cutter)

G00 Z2.000000
G00 X12.155729 Y109.274720

G01 Z-1.500000 F150.0(Penetrate)
G01 X12.155729 Y107.554740 Z-1.500000 F400.000000
G01 X13.875699 Y107.554740 Z-1.500000
G01 X13.875699 Y109.274720 Z-1.500000
G01 X12.155729 Y109.274720 Z-1.500000
G00 Z2.000000

(End cutting path id: path19463)


(Start cutting path id: path19463)
(Change tool to Cylindrical cutter)

G00 Z2.000000
G00 X12.155729 Y109.274720

G01 Z-3.000000 F150.0(Penetrate)
G01 X12.155729 Y107.554740 Z-3.000000 F400.000000
G01 X13.875699 Y107.554740 Z-3.000000
G01 X13.875699 Y109.274720 Z-3.000000
G01 X12.155729 Y109.274720 Z-3.000000
G00 Z2.000000

(End cutting path id: path19463)


(Start cutting path id: path19461)
(Change tool to Cylindrical cutter)

G00 Z2.000000
G00 X11.862609 Y116.002360

G01 Z-1.500000 F150.0(Penetrate)
G01 X14.692139 Y116.002480 Z-1.500000 F400.000000
G01 X14.692029 Y118.832460 Z-1.500000
G01 X11.862479 Y118.832340 Z-1.500000
G01 X11.862609 Y116.002360 Z-1.500000
G00 Z2.000000

(End cutting path id: path19461)


(Start cutting path id: path19461)
(Change tool to Cylindrical cutter)

G00 Z2.000000
G00 X11.862609 Y116.002360

G01 Z-3.000000 F150.0(Penetrate)
G01 X14.692139 Y116.002480 Z-3.000000 F400.000000
G01 X14.692029 Y118.832460 Z-3.000000
G01 X11.862479 Y118.832340 Z-3.000000
G01 X11.862609 Y116.002360 Z-3.000000
G00 Z2.000000

(End cutting path id: path19461)


(Start cutting path id: path19459)
(Change tool to Cylindrical cutter)

G00 Z2.000000
G00 X19.522509 Y116.002690

G01 Z-1.500000 F150.0(Penetrate)
G01 X19.522389 Y118.832660 Z-1.500000 F400.000000
G01 X16.692169 Y118.832540 Z-1.500000
G01 X16.692129 Y116.002570 Z-1.500000
G01 X19.522509 Y116.002690 Z-1.500000
G00 Z2.000000

(End cutting path id: path19459)


(Start cutting path id: path19459)
(Change tool to Cylindrical cutter)

G00 Z2.000000
G00 X19.522509 Y116.002690

G01 Z-3.000000 F150.0(Penetrate)
G01 X19.522389 Y118.832660 Z-3.000000 F400.000000
G01 X16.692169 Y118.832540 Z-3.000000
G01 X16.692129 Y116.002570 Z-3.000000
G01 X19.522509 Y116.002690 Z-3.000000
G00 Z2.000000

(End cutting path id: path19459)


(Start cutting path id: path19457)
(Change tool to Cylindrical cutter)

G00 Z2.000000
G00 X11.862299 Y123.662300

G01 Z-1.500000 F150.0(Penetrate)
G01 X11.862429 Y120.832330 Z-1.500000 F400.000000
G01 X14.691969 Y120.832450 Z-1.500000
G01 X14.691859 Y123.662420 Z-1.500000
G01 X11.862299 Y123.662300 Z-1.500000
G00 Z2.000000

(End cutting path id: path19457)


(Start cutting path id: path19457)
(Change tool to Cylindrical cutter)

G00 Z2.000000
G00 X11.862299 Y123.662300

G01 Z-3.000000 F150.0(Penetrate)
G01 X11.862429 Y120.832330 Z-3.000000 F400.000000
G01 X14.691969 Y120.832450 Z-3.000000
G01 X14.691859 Y123.662420 Z-3.000000
G01 X11.862299 Y123.662300 Z-3.000000
G00 Z2.000000

(End cutting path id: path19457)


(Start cutting path id: path19455)
(Change tool to Cylindrical cutter)

G00 Z2.000000
G00 X19.522219 Y123.662610

G01 Z-1.500000 F150.0(Penetrate)
G01 X16.692239 Y123.662490 Z-1.500000 F400.000000
G01 X16.692189 Y120.832510 Z-1.500000
G01 X19.522339 Y120.832620 Z-1.500000
G01 X19.522219 Y123.662610 Z-1.500000
G00 Z2.000000

(End cutting path id: path19455)


(Start cutting path id: path19455)
(Change tool to Cylindrical cutter)

G00 Z2.000000
G00 X19.522219 Y123.662610

G01 Z-3.000000 F150.0(Penetrate)
G01 X16.692239 Y123.662490 Z-3.000000 F400.000000
G01 X16.692189 Y120.832510 Z-3.000000
G01 X19.522339 Y120.832620 Z-3.000000
G01 X19.522219 Y123.662610 Z-3.000000
G00 Z2.000000

(End cutting path id: path19455)


(Start cutting path id: path19453)
(Change tool to Cylindrical cutter)

G00 Z2.000000
G00 X12.227819 Y151.695150

G01 Z-1.500000 F150.0(Penetrate)
G01 X8.654319 Y151.695000 Z-1.500000 F400.000000
G01 X8.654169 Y155.268480 Z-1.500000
G01 X12.227669 Y155.268640 Z-1.500000
G01 X12.227819 Y151.695150 Z-1.500000
G00 Z2.000000

(End cutting path id: path19453)


(Start cutting path id: path19453)
(Change tool to Cylindrical cutter)

G00 Z2.000000
G00 X12.227819 Y151.695150

G01 Z-3.000000 F150.0(Penetrate)
G01 X8.654319 Y151.695000 Z-3.000000 F400.000000
G01 X8.654169 Y155.268480 Z-3.000000
G01 X12.227669 Y155.268640 Z-3.000000
G01 X12.227819 Y151.695150 Z-3.000000
G00 Z2.000000

(End cutting path id: path19453)


(Start cutting path id: path19451)
(Change tool to Cylindrical cutter)

G00 Z2.000000
G00 X15.728229 Y141.195440

G01 Z-1.500000 F150.0(Penetrate)
G01 X12.154729 Y141.195290 Z-1.500000 F400.000000
G01 X12.154579 Y144.768770 Z-1.500000
G01 X15.728079 Y144.768930 Z-1.500000
G01 X15.728229 Y141.195440 Z-1.500000
G00 Z2.000000

(End cutting path id: path19451)


(Start cutting path id: path19451)
(Change tool to Cylindrical cutter)

G00 Z2.000000
G00 X15.728229 Y141.195440

G01 Z-3.000000 F150.0(Penetrate)
G01 X12.154729 Y141.195290 Z-3.000000 F400.000000
G01 X12.154579 Y144.768770 Z-3.000000
G01 X15.728079 Y144.768930 Z-3.000000
G01 X15.728229 Y141.195440 Z-3.000000
G00 Z2.000000

(End cutting path id: path19451)


(Start cutting path id: path19449)
(Change tool to Cylindrical cutter)

G00 Z2.000000
G00 X12.228719 Y130.695430

G01 Z-1.500000 F150.0(Penetrate)
G01 X8.655219 Y130.695280 Z-1.500000 F400.000000
G01 X8.655069 Y134.268770 Z-1.500000
G01 X12.228559 Y134.268920 Z-1.500000
G01 X12.228719 Y130.695430 Z-1.500000
G00 Z2.000000

(End cutting path id: path19449)


(Start cutting path id: path19449)
(Change tool to Cylindrical cutter)

G00 Z2.000000
G00 X12.228719 Y130.695430

G01 Z-3.000000 F150.0(Penetrate)
G01 X8.655219 Y130.695280 Z-3.000000 F400.000000
G01 X8.655069 Y134.268770 Z-3.000000
G01 X12.228559 Y134.268920 Z-3.000000
G01 X12.228719 Y130.695430 Z-3.000000
G00 Z2.000000

(End cutting path id: path19449)


(Footer)
M5
G00 X0.0000 Y0.0000
M2
(Using default footer. To add your own footer create file "footer" in the output dir.)
(end)
%