%
(Header)
(Generated by gcodetools from Inkscape.)
(Using default header. To add your own header create file "header" in the output dir.)
M3
(Header end.)
G21 (All units in mm)

(Start cutting path id: path4220)
(Change tool to Cylindrical cutter)

G00 Z2.000000
G00 X19.893271 Y167.163880

G01 Z-3.000000 F100.0(Penetrate)
G01 X5.762711 Y167.163880 Z-3.000000 F400.000000
G01 X5.762711 Y153.166830 Z-3.000000
G00 Z2.000000

(End cutting path id: path4220)


(Start cutting path id: path4218)
(Change tool to Cylindrical cutter)

G00 Z2.000000
G00 X-26.826859 Y177.511590

G01 Z-3.000000 F100.0(Penetrate)
G01 X-26.826859 Y135.415320 Z-3.000000 F400.000000
G00 Z2.000000

(End cutting path id: path4218)


(Start cutting path id: path4216)
(Change tool to Cylindrical cutter)

G00 Z2.000000
G00 X39.860471 Y30.771570

G01 Z-3.000000 F100.0(Penetrate)
G01 X39.860471 Y49.271340 Z-3.000000 F400.000000
G01 X24.510641 Y49.271340 Z-3.000000
G01 X24.510641 Y36.571500 Z-3.000000
G01 X10.606631 Y36.571500 Z-3.000000
G01 X10.606631 Y49.271340 Z-3.000000
G01 X-3.297369 Y49.271340 Z-3.000000
G01 X-6.794069 Y49.271340 Z-3.000000
G01 X-22.268749 Y49.271340 Z-3.000000
G01 X-41.118499 Y49.271340 Z-3.000000
G01 X-41.118499 Y30.771570 Z-3.000000
G00 Z2.000000

(End cutting path id: path4216)


(Start cutting path id: path4214)
(Change tool to Cylindrical cutter)

G00 Z2.000000
G00 X-36.776729 Y84.885860

G01 Z-3.000000 F100.0(Penetrate)
G01 X-36.776729 Y59.886050 Z-3.000000 F400.000000
G01 X-18.276969 Y59.886050 Z-3.000000
G00 Z2.000000

(End cutting path id: path4214)


(Start cutting path id: path4212)
(Change tool to Cylindrical cutter)

G00 Z2.000000
G00 X-36.776729 Y195.807733

G01 Z-3.000000 F100.0(Penetrate)
G01 X-36.776729 Y178.011580 Z-3.000000 F400.000000
G01 X-36.776729 Y148.911930 Z-3.000000
G01 X-36.776729 Y134.915330 Z-3.000000
G01 X-36.776729 Y120.732380 Z-3.000000
G01 X-36.776729 Y102.802280 Z-3.000000
G00 Z2.000000

(End cutting path id: path4212)


(Start cutting path id: path4210)
(Change tool to Cylindrical cutter)

G00 Z2.000000
G00 X-18.276969 Y252.857373

G01 Z-3.000000 F100.0(Penetrate)
G01 X-36.776729 Y252.857373 Z-3.000000 F400.000000
G01 X-36.776729 Y213.724153 Z-3.000000
G00 Z2.000000

(End cutting path id: path4210)


(Footer)
M5
G00 X0.0000 Y0.0000
M2
(Using default footer. To add your own footer create file "footer" in the output dir.)
(end)
%