%
(Header)
(Generated by gcodetools from Inkscape.)
(Using default header. To add your own header create file "header" in the output dir.)
M3
(Header end.)
G21 (All units in mm)

(Start cutting path id: path70030)
(Change tool to Cylindrical cutter)

G00 Z5.000000
G00 X31.771484 Y122.519530

G01 Z-1.000000 F100.0(Penetrate)
G01 X31.771484 Y114.445310 Z-1.000000 F200.000000
G02 X31.701405 Y114.191051 Z-1.000000 I-0.500048 J0.001037
G02 X31.511719 Y114.007810 Z-1.000000 I-0.429978 J0.255302
G01 X28.271484 Y112.222660 Z-1.000000
G01 X28.269484 Y104.240230 Z-1.000000
G01 X31.511672 Y102.457030 Z-1.000000
G02 X31.700245 Y102.273445 Z-1.000000 I-0.242237 J-0.437459
G02 X31.769484 Y102.019530 Z-1.000000 I-0.430810 J-0.253874
G01 X31.769484 Y93.445310 Z-1.000000
G02 X31.674203 Y93.150761 Z-1.000000 I-0.500056 J-0.000926
G02 X31.423781 Y92.968750 Z-1.000000 I-0.404756 J0.293609
G01 X25.015578 Y90.910160 Z-1.000000
G01 X25.013578 Y80.191410 Z-1.000000
G01 X35.597562 Y80.191410 Z-1.000000
G01 X35.597562 Y91.273440 Z-1.000000
G02 X35.664414 Y91.523765 Z-1.000000 I0.500041 J0.000548
G02 X35.847562 Y91.707030 Z-1.000000 I0.433219 J-0.249794
G01 X39.343656 Y93.732420 Z-1.000000
G01 X39.343656 Y101.722660 Z-1.000000
G01 X36.103422 Y103.507810 Z-1.000000
G02 X35.913736 Y103.691057 Z-1.000000 I0.240343 J0.438588
G02 X35.843656 Y103.945310 Z-1.000000 I0.429943 J0.255290
G01 X35.843656 Y112.517580 Z-1.000000
G02 X35.913240 Y112.772955 Z-1.000000 I0.500058 J0.000913
G02 X36.103422 Y112.957030 Z-1.000000 I0.430451 J-0.254448
G01 X39.343656 Y114.740230 Z-1.000000
G01 X39.343656 Y122.517580 Z-1.000000
G01 X31.771484 Y122.519530 Z-1.000000
G00 Z5.000000

(End cutting path id: path70030)


(Start cutting path id: path70030)
(Change tool to Cylindrical cutter)

G00 Z5.000000
G00 X31.771484 Y122.519530

G01 Z-1.500000 F100.0(Penetrate)
G01 X31.771484 Y114.445310 Z-1.500000 F200.000000
G02 X31.701405 Y114.191051 Z-1.500000 I-0.500048 J0.001037
G02 X31.511719 Y114.007810 Z-1.500000 I-0.429978 J0.255302
G01 X28.271484 Y112.222660 Z-1.500000
G01 X28.269484 Y104.240230 Z-1.500000
G01 X31.511672 Y102.457030 Z-1.500000
G02 X31.700245 Y102.273445 Z-1.500000 I-0.242237 J-0.437459
G02 X31.769484 Y102.019530 Z-1.500000 I-0.430810 J-0.253874
G01 X31.769484 Y93.445310 Z-1.500000
G02 X31.674203 Y93.150761 Z-1.500000 I-0.500056 J-0.000926
G02 X31.423781 Y92.968750 Z-1.500000 I-0.404756 J0.293609
G01 X25.015578 Y90.910160 Z-1.500000
G01 X25.013578 Y80.191410 Z-1.500000
G01 X35.597562 Y80.191410 Z-1.500000
G01 X35.597562 Y91.273440 Z-1.500000
G02 X35.664414 Y91.523765 Z-1.500000 I0.500041 J0.000548
G02 X35.847562 Y91.707030 Z-1.500000 I0.433219 J-0.249794
G01 X39.343656 Y93.732420 Z-1.500000
G01 X39.343656 Y101.722660 Z-1.500000
G01 X36.103422 Y103.507810 Z-1.500000
G02 X35.913736 Y103.691057 Z-1.500000 I0.240343 J0.438588
G02 X35.843656 Y103.945310 Z-1.500000 I0.429943 J0.255290
G01 X35.843656 Y112.517580 Z-1.500000
G02 X35.913240 Y112.772955 Z-1.500000 I0.500058 J0.000913
G02 X36.103422 Y112.957030 Z-1.500000 I0.430451 J-0.254448
G01 X39.343656 Y114.740230 Z-1.500000
G01 X39.343656 Y122.517580 Z-1.500000
G01 X31.771484 Y122.519530 Z-1.500000
G00 Z5.000000

(End cutting path id: path70030)


(Start cutting path id: path77834)
(Change tool to Cylindrical cutter)

G00 Z5.000000
G00 X32.671875 Y121.619140

G01 Z-1.000000 F100.0(Penetrate)
G01 X32.669875 Y114.445310 Z-1.000000 F200.000000
G02 X32.475228 Y113.732980 Z-1.000000 I-1.400152 J-0.000162
G02 X31.945265 Y113.218750 Z-1.000000 I-1.205469 J0.712147
G01 X29.169875 Y111.691410 Z-1.000000
G01 X29.169875 Y104.773440 Z-1.000000
G01 X31.945265 Y103.246090 Z-1.000000
G02 X32.475228 Y102.731860 Z-1.000000 I-0.675506 J-1.226377
G02 X32.669875 Y102.019530 Z-1.000000 I-1.205505 J-0.712168
G01 X32.669875 Y93.445310 Z-1.000000
G02 X32.401288 Y92.621330 Z-1.000000 I-1.400131 J0.000627
G02 X31.699172 Y92.113280 Z-1.000000 I-1.131567 J0.824623
G01 X25.915969 Y90.253910 Z-1.000000
G01 X25.913969 Y81.091800 Z-1.000000
G01 X34.697173 Y81.089800 Z-1.000000
G01 X34.699173 Y91.273400 Z-1.000000
G02 X34.885946 Y91.972074 Z-1.000000 I1.400152 J0.000006
G02 X35.396438 Y92.484340 Z-1.000000 I1.213348 J-0.698650
G01 X38.443313 Y94.251910 Z-1.000000
G01 X38.443313 Y101.191370 Z-1.000000
G01 X35.667923 Y102.718710 Z-1.000000
G02 X35.137960 Y103.232940 Z-1.000000 I0.675506 J1.226377
G02 X34.943313 Y103.945270 Z-1.000000 I1.205505 J0.712168
G01 X34.943313 Y112.517540 Z-1.000000
G02 X35.138799 Y113.230213 Z-1.000000 I1.400148 J-0.000913
G02 X35.669876 Y113.744100 Z-1.000000 I1.204642 J-0.713574
G01 X38.443313 Y115.271440 Z-1.000000
G01 X38.445313 Y121.619100 Z-1.000000
G01 X32.671875 Y121.619140 Z-1.000000
G00 Z5.000000

(End cutting path id: path77834)


(Start cutting path id: path77834)
(Change tool to Cylindrical cutter)

G00 Z5.000000
G00 X32.671875 Y121.619140

G01 Z-1.500000 F100.0(Penetrate)
G01 X32.669875 Y114.445310 Z-1.500000 F200.000000
G02 X32.475228 Y113.732980 Z-1.500000 I-1.400152 J-0.000162
G02 X31.945265 Y113.218750 Z-1.500000 I-1.205469 J0.712147
G01 X29.169875 Y111.691410 Z-1.500000
G01 X29.169875 Y104.773440 Z-1.500000
G01 X31.945265 Y103.246090 Z-1.500000
G02 X32.475228 Y102.731860 Z-1.500000 I-0.675506 J-1.226377
G02 X32.669875 Y102.019530 Z-1.500000 I-1.205505 J-0.712168
G01 X32.669875 Y93.445310 Z-1.500000
G02 X32.401288 Y92.621330 Z-1.500000 I-1.400131 J0.000627
G02 X31.699172 Y92.113280 Z-1.500000 I-1.131567 J0.824623
G01 X25.915969 Y90.253910 Z-1.500000
G01 X25.913969 Y81.091800 Z-1.500000
G01 X34.697173 Y81.089800 Z-1.500000
G01 X34.699173 Y91.273400 Z-1.500000
G02 X34.885946 Y91.972074 Z-1.500000 I1.400152 J0.000006
G02 X35.396438 Y92.484340 Z-1.500000 I1.213348 J-0.698650
G01 X38.443313 Y94.251910 Z-1.500000
G01 X38.443313 Y101.191370 Z-1.500000
G01 X35.667923 Y102.718710 Z-1.500000
G02 X35.137960 Y103.232940 Z-1.500000 I0.675506 J1.226377
G02 X34.943313 Y103.945270 Z-1.500000 I1.205505 J0.712168
G01 X34.943313 Y112.517540 Z-1.500000
G02 X35.138799 Y113.230213 Z-1.500000 I1.400148 J-0.000913
G02 X35.669876 Y113.744100 Z-1.500000 I1.204642 J-0.713574
G01 X38.443313 Y115.271440 Z-1.500000
G01 X38.445313 Y121.619100 Z-1.500000
G01 X32.671875 Y121.619140 Z-1.500000
G00 Z5.000000

(End cutting path id: path77834)


(Start cutting path id: path77836)
(Change tool to Cylindrical cutter)

G00 Z5.000000
G00 X33.570312 Y120.718750

G01 Z-1.000000 F100.0(Penetrate)
G01 X33.570312 Y114.445310 Z-1.000000 F200.000000
G02 X33.250259 Y113.274571 Z-1.000000 I-2.300225 J-0.000288
G02 X32.378906 Y112.429690 Z-1.000000 I-1.980183 J1.170458
G01 X30.070312 Y111.160160 Z-1.000000
G01 X30.070312 Y105.304690 Z-1.000000
G01 X32.378906 Y104.033200 Z-1.000000
G02 X33.249759 Y103.189165 Z-1.000000 I-1.108814 J-2.015325
G02 X33.570312 Y102.019530 Z-1.000000 I-1.979680 J-1.171298
G01 X33.570312 Y93.445310 Z-1.000000
G02 X33.128996 Y92.090736 Z-1.000000 I-2.300228 J0.000230
G02 X31.974609 Y91.255860 Z-1.000000 I-1.858918 J1.354808
G01 X26.814453 Y89.597660 Z-1.000000
G01 X26.814453 Y81.990230 Z-1.000000
G01 X33.798828 Y81.990230 Z-1.000000
G01 X33.798828 Y91.273440 Z-1.000000
G02 X34.105884 Y92.421892 Z-1.000000 I2.300236 J0.000272
G02 X34.945312 Y93.263670 Z-1.000000 I1.993168 J-1.148174
G01 X37.542969 Y94.769530 Z-1.000000
G01 X37.542969 Y100.658200 Z-1.000000
G01 X35.234375 Y101.929690 Z-1.000000
G02 X34.363022 Y102.774571 Z-1.000000 I1.108830 J2.015339
G02 X34.042969 Y103.945310 Z-1.000000 I1.980171 J1.170451
G01 X34.044969 Y112.519530 Z-1.000000
G02 X34.364678 Y113.688815 Z-1.000000 I2.300240 J-0.000588
G02 X35.234422 Y114.533200 Z-1.000000 I1.980499 J-1.169854
G01 X37.544969 Y115.804690 Z-1.000000
G01 X37.544969 Y120.718750 Z-1.000000
G01 X33.570312 Y120.718750 Z-1.000000
G00 Z5.000000

(End cutting path id: path77836)


(Start cutting path id: path77836)
(Change tool to Cylindrical cutter)

G00 Z5.000000
G00 X33.570312 Y120.718750

G01 Z-1.500000 F100.0(Penetrate)
G01 X33.570312 Y114.445310 Z-1.500000 F200.000000
G02 X33.250259 Y113.274571 Z-1.500000 I-2.300225 J-0.000288
G02 X32.378906 Y112.429690 Z-1.500000 I-1.980183 J1.170458
G01 X30.070312 Y111.160160 Z-1.500000
G01 X30.070312 Y105.304690 Z-1.500000
G01 X32.378906 Y104.033200 Z-1.500000
G02 X33.249759 Y103.189165 Z-1.500000 I-1.108814 J-2.015325
G02 X33.570312 Y102.019530 Z-1.500000 I-1.979680 J-1.171298
G01 X33.570312 Y93.445310 Z-1.500000
G02 X33.128996 Y92.090736 Z-1.500000 I-2.300228 J0.000230
G02 X31.974609 Y91.255860 Z-1.500000 I-1.858918 J1.354808
G01 X26.814453 Y89.597660 Z-1.500000
G01 X26.814453 Y81.990230 Z-1.500000
G01 X33.798828 Y81.990230 Z-1.500000
G01 X33.798828 Y91.273440 Z-1.500000
G02 X34.105884 Y92.421892 Z-1.500000 I2.300236 J0.000272
G02 X34.945312 Y93.263670 Z-1.500000 I1.993168 J-1.148174
G01 X37.542969 Y94.769530 Z-1.500000
G01 X37.542969 Y100.658200 Z-1.500000
G01 X35.234375 Y101.929690 Z-1.500000
G02 X34.363022 Y102.774571 Z-1.500000 I1.108830 J2.015339
G02 X34.042969 Y103.945310 Z-1.500000 I1.980171 J1.170451
G01 X34.044969 Y112.519530 Z-1.500000
G02 X34.364678 Y113.688815 Z-1.500000 I2.300240 J-0.000588
G02 X35.234422 Y114.533200 Z-1.500000 I1.980499 J-1.169854
G01 X37.544969 Y115.804690 Z-1.500000
G01 X37.544969 Y120.718750 Z-1.500000
G01 X33.570312 Y120.718750 Z-1.500000
G00 Z5.000000

(End cutting path id: path77836)


(Start cutting path id: path77838)
(Change tool to Cylindrical cutter)

G00 Z5.000000
G00 X32.898438 Y90.695310

G01 Z-1.000000 F100.0(Penetrate)
G02 X32.582513 Y90.528755 Z-1.000000 I-1.647835 J2.742738 F200.000000
G02 X32.250000 Y90.398440 Z-1.000000 I-1.332317 J2.910181
G01 X27.714844 Y88.941410 Z-1.000000
G01 X27.714844 Y82.890620 Z-1.000000
G01 X32.898438 Y82.890620 Z-1.000000
G01 X32.898438 Y90.695310 Z-1.000000
G00 Z5.000000

(End cutting path id: path77838)


(Start cutting path id: path77838)
(Change tool to Cylindrical cutter)

G00 Z5.000000
G00 X32.898438 Y90.695310

G01 Z-1.500000 F100.0(Penetrate)
G02 X32.582513 Y90.528755 Z-1.500000 I-1.647835 J2.742738 F200.000000
G02 X32.250000 Y90.398440 Z-1.500000 I-1.332317 J2.910181
G01 X27.714844 Y88.941410 Z-1.500000
G01 X27.714844 Y82.890620 Z-1.500000
G01 X32.898438 Y82.890620 Z-1.500000
G01 X32.898438 Y90.695310 Z-1.500000
G00 Z5.000000

(End cutting path id: path77838)


(Start cutting path id: path77846)
(Change tool to Cylindrical cutter)

G00 Z5.000000
G00 X31.998047 Y89.373050

G01 Z-1.000000 F100.0(Penetrate)
G01 X30.308515 Y88.829710 Z-1.000000 F200.000000
G01 X28.615234 Y88.285160 Z-1.000000
G01 X28.615234 Y83.791020 Z-1.000000
G01 X31.998047 Y83.791020 Z-1.000000
G01 X31.998047 Y89.373050 Z-1.000000
G00 Z5.000000

(End cutting path id: path77846)


(Start cutting path id: path77846)
(Change tool to Cylindrical cutter)

G00 Z5.000000
G00 X31.998047 Y89.373050

G01 Z-1.500000 F100.0(Penetrate)
G01 X30.308515 Y88.829710 Z-1.500000 F200.000000
G01 X28.615234 Y88.285160 Z-1.500000
G01 X28.615234 Y83.791020 Z-1.500000
G01 X31.998047 Y83.791020 Z-1.500000
G01 X31.998047 Y89.373050 Z-1.500000
G00 Z5.000000

(End cutting path id: path77846)


(Start cutting path id: path77854)
(Change tool to Cylindrical cutter)

G00 Z5.000000
G00 X31.097656 Y88.138670

G01 Z-1.000000 F100.0(Penetrate)
G01 X29.515625 Y87.628910 Z-1.000000 F200.000000
G01 X29.515625 Y84.691410 Z-1.000000
G01 X31.097656 Y84.691410 Z-1.000000
G01 X31.097656 Y88.138670 Z-1.000000
G00 Z5.000000

(End cutting path id: path77854)


(Start cutting path id: path77854)
(Change tool to Cylindrical cutter)

G00 Z5.000000
G00 X31.097656 Y88.138670

G01 Z-1.500000 F100.0(Penetrate)
G01 X29.515625 Y87.628910 Z-1.500000 F200.000000
G01 X29.515625 Y84.691410 Z-1.500000
G01 X31.097656 Y84.691410 Z-1.500000
G01 X31.097656 Y88.138670 Z-1.500000
G00 Z5.000000

(End cutting path id: path77854)


(Start cutting path id: path77856)
(Change tool to Cylindrical cutter)

G00 Z5.000000
G00 X30.484375 Y87.296880

G01 Z-1.000000 F100.0(Penetrate)
G01 X30.128906 Y87.181640 Z-1.000000 F200.000000
G01 X30.128906 Y85.304690 Z-1.000000
G01 X30.484375 Y85.304690 Z-1.000000
G01 X30.484375 Y87.296880 Z-1.000000
G00 Z5.000000

(End cutting path id: path77856)


(Start cutting path id: path77856)
(Change tool to Cylindrical cutter)

G00 Z5.000000
G00 X30.484375 Y87.296880

G01 Z-1.500000 F100.0(Penetrate)
G01 X30.128906 Y87.181640 Z-1.500000 F200.000000
G01 X30.128906 Y85.304690 Z-1.500000
G01 X30.484375 Y85.304690 Z-1.500000
G01 X30.484375 Y87.296880 Z-1.500000
G00 Z5.000000

(End cutting path id: path77856)


(Start cutting path id: path77840)
(Change tool to Cylindrical cutter)

G00 Z5.000000
G00 X34.470703 Y101.355470

G01 Z-1.000000 F100.0(Penetrate)
G01 X34.470703 Y94.029300 Z-1.000000 F200.000000
G02 X34.482455 Y94.036284 Z-1.000000 I0.109121 J-0.170229
G03 X34.494143 Y94.043000 Z-1.000000 I-0.169990 J0.309383
G01 X36.644533 Y95.289090 Z-1.000000
G01 X36.644533 Y100.126980 Z-1.000000
G01 X34.800783 Y101.142610 Z-1.000000
G02 X34.632479 Y101.243970 Z-1.000000 I1.555597 J2.773405
G02 X34.470705 Y101.355500 Z-1.000000 I1.739691 J2.696519
G01 X34.470703 Y101.355470 Z-1.000000
G00 Z5.000000

(End cutting path id: path77840)


(Start cutting path id: path77840)
(Change tool to Cylindrical cutter)

G00 Z5.000000
G00 X34.470703 Y101.355470

G01 Z-1.500000 F100.0(Penetrate)
G01 X34.470703 Y94.029300 Z-1.500000 F200.000000
G02 X34.482455 Y94.036284 Z-1.500000 I0.109121 J-0.170229
G03 X34.494143 Y94.043000 Z-1.500000 I-0.169990 J0.309383
G01 X36.644533 Y95.289090 Z-1.500000
G01 X36.644533 Y100.126980 Z-1.500000
G01 X34.800783 Y101.142610 Z-1.500000
G02 X34.632479 Y101.243970 Z-1.500000 I1.555597 J2.773405
G02 X34.470705 Y101.355500 Z-1.500000 I1.739691 J2.696519
G01 X34.470703 Y101.355470 Z-1.500000
G00 Z5.000000

(End cutting path id: path77840)


(Start cutting path id: path77848)
(Change tool to Cylindrical cutter)

G00 Z5.000000
G00 X35.371094 Y99.800780

G01 Z-1.000000 F100.0(Penetrate)
G01 X35.369094 Y95.589840 Z-1.000000 F200.000000
G01 X35.744094 Y95.806640 Z-1.000000
G01 X35.744094 Y99.595700 Z-1.000000
G01 X35.371094 Y99.800780 Z-1.000000
G00 Z5.000000

(End cutting path id: path77848)


(Start cutting path id: path77848)
(Change tool to Cylindrical cutter)

G00 Z5.000000
G00 X35.371094 Y99.800780

G01 Z-1.500000 F100.0(Penetrate)
G01 X35.369094 Y95.589840 Z-1.500000 F200.000000
G01 X35.744094 Y95.806640 Z-1.500000
G01 X35.744094 Y99.595700 Z-1.500000
G01 X35.371094 Y99.800780 Z-1.500000
G00 Z5.000000

(End cutting path id: path77848)


(Start cutting path id: path77842)
(Change tool to Cylindrical cutter)

G00 Z5.000000
G00 X33.144531 Y111.855470

G01 Z-1.000000 F100.0(Penetrate)
G02 X32.982753 Y111.743935 Z-1.000000 I-1.883992 J2.559586 F200.000000
G02 X32.814453 Y111.642580 Z-1.000000 I-1.738684 J2.696666
G01 X30.970703 Y110.626950 Z-1.000000
G01 X30.970703 Y105.835940 Z-1.000000
G01 X32.814453 Y104.822270 Z-1.000000
G02 X32.982757 Y104.720910 Z-1.000000 I-1.555597 J-2.773405
G02 X33.144531 Y104.609380 Z-1.000000 I-1.739691 J-2.696519
G01 X33.144531 Y111.855470 Z-1.000000
G00 Z5.000000

(End cutting path id: path77842)


(Start cutting path id: path77842)
(Change tool to Cylindrical cutter)

G00 Z5.000000
G00 X33.144531 Y111.855470

G01 Z-1.500000 F100.0(Penetrate)
G02 X32.982753 Y111.743935 Z-1.500000 I-1.883992 J2.559586 F200.000000
G02 X32.814453 Y111.642580 Z-1.500000 I-1.738684 J2.696666
G01 X30.970703 Y110.626950 Z-1.500000
G01 X30.970703 Y105.835940 Z-1.500000
G01 X32.814453 Y104.822270 Z-1.500000
G02 X32.982757 Y104.720910 Z-1.500000 I-1.555597 J-2.773405
G02 X33.144531 Y104.609380 Z-1.500000 I-1.739691 J-2.696519
G01 X33.144531 Y111.855470 Z-1.500000
G00 Z5.000000

(End cutting path id: path77842)


(Start cutting path id: path77850)
(Change tool to Cylindrical cutter)

G00 Z5.000000
G00 X32.244141 Y110.300780

G01 Z-1.000000 F100.0(Penetrate)
G01 X31.871094 Y110.095700 Z-1.000000 F200.000000
G01 X31.871094 Y106.369140 Z-1.000000
G01 X32.244141 Y106.164060 Z-1.000000
G01 X32.244141 Y110.300780 Z-1.000000
G00 Z5.000000

(End cutting path id: path77850)


(Start cutting path id: path77850)
(Change tool to Cylindrical cutter)

G00 Z5.000000
G00 X32.244141 Y110.300780

G01 Z-1.500000 F100.0(Penetrate)
G01 X31.871094 Y110.095700 Z-1.500000 F200.000000
G01 X31.871094 Y106.369140 Z-1.500000
G01 X32.244141 Y106.164060 Z-1.500000
G01 X32.244141 Y110.300780 Z-1.500000
G00 Z5.000000

(End cutting path id: path77850)


(Start cutting path id: path77844)
(Change tool to Cylindrical cutter)

G00 Z5.000000
G00 X34.470703 Y119.818360

G01 Z-1.000000 F100.0(Penetrate)
G01 X34.470703 Y115.107420 Z-1.000000 F200.000000
G02 X34.632429 Y115.219916 Z-1.000000 I1.914679 J-2.580073
G02 X34.800781 Y115.322270 Z-1.000000 I1.743182 J-2.677561
G01 X36.644531 Y116.335940 Z-1.000000
G01 X36.644531 Y119.818360 Z-1.000000
G01 X34.470703 Y119.818360 Z-1.000000
G00 Z5.000000

(End cutting path id: path77844)


(Start cutting path id: path77844)
(Change tool to Cylindrical cutter)

G00 Z5.000000
G00 X34.470703 Y119.818360

G01 Z-1.500000 F100.0(Penetrate)
G01 X34.470703 Y115.107420 Z-1.500000 F200.000000
G02 X34.632429 Y115.219916 Z-1.500000 I1.914679 J-2.580073
G02 X34.800781 Y115.322270 Z-1.500000 I1.743182 J-2.677561
G01 X36.644531 Y116.335940 Z-1.500000
G01 X36.644531 Y119.818360 Z-1.500000
G01 X34.470703 Y119.818360 Z-1.500000
G00 Z5.000000

(End cutting path id: path77844)


(Start cutting path id: path77852)
(Change tool to Cylindrical cutter)

G00 Z5.000000
G00 X35.371094 Y118.917970

G01 Z-1.000000 F100.0(Penetrate)
G01 X35.371094 Y116.664060 Z-1.000000 F200.000000
G01 X35.744141 Y116.869140 Z-1.000000
G01 X35.744141 Y118.917970 Z-1.000000
G01 X35.371094 Y118.917970 Z-1.000000
G00 Z5.000000

(End cutting path id: path77852)


(Start cutting path id: path77852)
(Change tool to Cylindrical cutter)

G00 Z5.000000
G00 X35.371094 Y118.917970

G01 Z-1.500000 F100.0(Penetrate)
G01 X35.371094 Y116.664060 Z-1.500000 F200.000000
G01 X35.744141 Y116.869140 Z-1.500000
G01 X35.744141 Y118.917970 Z-1.500000
G01 X35.371094 Y118.917970 Z-1.500000
G00 Z5.000000

(End cutting path id: path77852)


(Footer)
M5
G00 X0.0000 Y0.0000
M2
(Using default footer. To add your own footer create file "footer" in the output dir.)
(end)
%