%
(Header)
(Generated by gcodetools from Inkscape.)
(Using default header. To add your own header create file "header" in the output dir.)
M3
(Header end.)
G21 (All units in mm)

(Start cutting path id: path70030)
(Change tool to Cylindrical cutter)

G00 Z5.000000
G00 X30.484375 Y87.296880

G01 Z-1.000000 F100.0(Penetrate)
G01 X30.128906 Y87.181640 Z-1.000000 F400.000000
G01 X30.128906 Y85.304690 Z-1.000000
G01 X30.484375 Y85.304690 Z-1.000000
G01 X30.484375 Y87.296880 Z-1.000000
G00 Z5.000000

(End cutting path id: path70030)


(Start cutting path id: path70030)
(Change tool to Cylindrical cutter)

G00 Z5.000000
G00 X31.097656 Y88.138670

G01 Z-1.000000 F100.0(Penetrate)
G01 X29.515625 Y87.628910 Z-1.000000 F400.000000
G01 X29.515625 Y84.691410 Z-1.000000
G01 X31.097656 Y84.691410 Z-1.000000
G01 X31.097656 Y88.138670 Z-1.000000
G00 Z5.000000

(End cutting path id: path70030)


(Start cutting path id: path70030)
(Change tool to Cylindrical cutter)

G00 Z5.000000
G00 X35.371094 Y118.917970

G01 Z-1.000000 F100.0(Penetrate)
G01 X35.371094 Y116.664060 Z-1.000000 F400.000000
G01 X35.744141 Y116.869140 Z-1.000000
G01 X35.744141 Y118.917970 Z-1.000000
G01 X35.371094 Y118.917970 Z-1.000000
G00 Z5.000000

(End cutting path id: path70030)


(Start cutting path id: path70030)
(Change tool to Cylindrical cutter)

G00 Z5.000000
G00 X32.244141 Y110.300780

G01 Z-1.000000 F100.0(Penetrate)
G01 X31.871094 Y110.095700 Z-1.000000 F400.000000
G01 X31.871094 Y106.369140 Z-1.000000
G01 X32.244141 Y106.164060 Z-1.000000
G01 X32.244141 Y110.300780 Z-1.000000
G00 Z5.000000

(End cutting path id: path70030)


(Start cutting path id: path70030)
(Change tool to Cylindrical cutter)

G00 Z5.000000
G00 X35.371094 Y99.800780

G01 Z-1.000000 F100.0(Penetrate)
G01 X35.369094 Y95.589840 Z-1.000000 F400.000000
G01 X35.744094 Y95.806640 Z-1.000000
G01 X35.744094 Y99.595700 Z-1.000000
G01 X35.371094 Y99.800780 Z-1.000000
G00 Z5.000000

(End cutting path id: path70030)


(Start cutting path id: path70030)
(Change tool to Cylindrical cutter)

G00 Z5.000000
G00 X31.998047 Y89.373050

G01 Z-1.000000 F100.0(Penetrate)
G01 X28.615234 Y88.285160 Z-1.000000 F400.000000
G01 X28.615234 Y83.791020 Z-1.000000
G01 X31.998047 Y83.791020 Z-1.000000
G01 X31.998047 Y89.373050 Z-1.000000
G00 Z5.000000

(End cutting path id: path70030)


(Start cutting path id: path70030)
(Change tool to Cylindrical cutter)

G00 Z5.000000
G00 X34.470703 Y119.818360

G01 Z-1.000000 F100.0(Penetrate)
G01 X34.470703 Y115.107420 Z-1.000000 F400.000000
G02 X34.632434 Y115.219927 Z-1.000000 I1.907577 J-2.569669
G02 X34.800781 Y115.322270 Z-1.000000 I1.745846 J-2.682176
G01 X36.644531 Y116.335940 Z-1.000000
G01 X36.644531 Y119.818360 Z-1.000000
G01 X34.470703 Y119.818360 Z-1.000000
G00 Z5.000000

(End cutting path id: path70030)


(Start cutting path id: path70030)
(Change tool to Cylindrical cutter)

G00 Z5.000000
G00 X33.144531 Y111.855470

G01 Z-1.000000 F100.0(Penetrate)
G02 X32.982761 Y111.743956 Z-1.000000 I-1.896384 J2.577940 F400.000000
G02 X32.814453 Y111.642580 Z-1.000000 I-1.734614 J2.689454
G01 X30.970703 Y110.626950 Z-1.000000
G01 X30.970703 Y105.835940 Z-1.000000
G01 X32.814453 Y104.822270 Z-1.000000
G02 X32.982761 Y104.720894 Z-1.000000 I-1.566306 J-2.790830
G02 X33.144531 Y104.609380 Z-1.000000 I-1.734614 J-2.689454
G01 X33.144531 Y111.855470 Z-1.000000
G00 Z5.000000

(End cutting path id: path70030)


(Start cutting path id: path70030)
(Change tool to Cylindrical cutter)

G00 Z5.000000
G00 X34.470703 Y101.355470

G01 Z-1.000000 F100.0(Penetrate)
G01 X34.470703 Y94.029300 Z-1.000000 F400.000000
G02 X34.482408 Y94.036175 Z-1.000000 I1.626599 J-2.756125
G02 X34.494143 Y94.043000 Z-1.000000 I1.614893 J-2.763000
G01 X36.644533 Y95.289090 Z-1.000000
G01 X36.644533 Y100.126980 Z-1.000000
G01 X34.800783 Y101.142610 Z-1.000000
G02 X34.632475 Y101.243986 Z-1.000000 I1.566306 J2.790830
G02 X34.470705 Y101.355500 Z-1.000000 I1.734614 J2.689454
G01 X34.470703 Y101.355470 Z-1.000000
G00 Z5.000000

(End cutting path id: path70030)


(Start cutting path id: path70030)
(Change tool to Cylindrical cutter)

G00 Z5.000000
G00 X32.898438 Y90.695310

G01 Z-1.000000 F100.0(Penetrate)
G02 X32.582514 Y90.528756 Z-1.000000 I-1.648126 J2.743306 F400.000000
G02 X32.250000 Y90.398440 Z-1.000000 I-1.332202 J2.909860
G01 X27.714844 Y88.941410 Z-1.000000
G01 X27.714844 Y82.890620 Z-1.000000
G01 X32.898438 Y82.890620 Z-1.000000
G01 X32.898438 Y90.695310 Z-1.000000
G00 Z5.000000

(End cutting path id: path70030)


(Start cutting path id: path70030)
(Change tool to Cylindrical cutter)

G00 Z5.000000
G00 X33.570312 Y120.718750

G01 Z-1.000000 F100.0(Penetrate)
G01 X33.570312 Y114.445310 Z-1.000000 F400.000000
G02 X33.250257 Y113.274568 Z-1.000000 I-2.300230 J-0.000287
G02 X32.378906 Y112.429690 Z-1.000000 I-1.980175 J1.170455
G01 X30.070312 Y111.160160 Z-1.000000
G01 X30.070312 Y105.304690 Z-1.000000
G01 X32.378906 Y104.033200 Z-1.000000
G02 X33.249761 Y103.189161 Z-1.000000 I-1.108823 J-2.015333
G02 X33.570312 Y102.019530 Z-1.000000 I-1.979678 J-1.171295
G01 X33.570312 Y93.445310 Z-1.000000
G02 X33.128997 Y92.090736 Z-1.000000 I-2.300230 J0.000230
G02 X31.974609 Y91.255860 Z-1.000000 I-1.858915 J1.354804
G01 X26.814453 Y89.597660 Z-1.000000
G01 X26.814453 Y81.990230 Z-1.000000
G01 X33.798828 Y81.990230 Z-1.000000
G01 X33.798828 Y91.273440 Z-1.000000
G02 X34.105884 Y92.421893 Z-1.000000 I2.300230 J0.000273
G02 X34.945312 Y93.263670 Z-1.000000 I1.993174 J-1.148180
G01 X37.542969 Y94.769530 Z-1.000000
G01 X37.542969 Y100.658200 Z-1.000000
G01 X35.234375 Y101.929690 Z-1.000000
G02 X34.363024 Y102.774568 Z-1.000000 I1.108824 J2.015333
G02 X34.042969 Y103.945310 Z-1.000000 I1.980175 J1.170455
G01 X34.044969 Y112.519530 Z-1.000000
G02 X34.364679 Y113.688814 Z-1.000000 I2.300230 J-0.000587
G02 X35.234422 Y114.533200 Z-1.000000 I1.980520 J-1.169872
G01 X37.544969 Y115.804690 Z-1.000000
G01 X37.544969 Y120.718750 Z-1.000000
G01 X33.570312 Y120.718750 Z-1.000000
G00 Z5.000000

(End cutting path id: path70030)


(Start cutting path id: path70030)
(Change tool to Cylindrical cutter)

G00 Z5.000000
G00 X32.671875 Y121.619140

G01 Z-1.000000 F100.0(Penetrate)
G01 X32.669875 Y114.445310 Z-1.000000 F400.000000
G02 X32.475228 Y113.732983 Z-1.000000 I-1.400140 J-0.000162
G02 X31.945265 Y113.218750 Z-1.000000 I-1.205493 J0.712164
G01 X29.169875 Y111.691410 Z-1.000000
G01 X29.169875 Y104.773440 Z-1.000000
G01 X31.945265 Y103.246090 Z-1.000000
G02 X32.475228 Y102.731857 Z-1.000000 I-0.675530 J-1.226398
G02 X32.669875 Y102.019530 Z-1.000000 I-1.205493 J-0.712164
G01 X32.669875 Y93.445310 Z-1.000000
G02 X32.401289 Y92.621330 Z-1.000000 I-1.400140 J0.000627
G02 X31.699172 Y92.113280 Z-1.000000 I-1.131554 J0.824608
G01 X25.915969 Y90.253910 Z-1.000000
G01 X25.913969 Y81.091800 Z-1.000000
G01 X34.697173 Y81.089800 Z-1.000000
G01 X34.699173 Y91.273400 Z-1.000000
G02 X34.885945 Y91.972070 Z-1.000000 I1.400140 J0.000007
G02 X35.396438 Y92.484340 Z-1.000000 I1.213368 J-0.698663
G01 X38.443313 Y94.251910 Z-1.000000
G01 X38.443313 Y101.191370 Z-1.000000
G01 X35.667923 Y102.718710 Z-1.000000
G02 X35.137960 Y103.232943 Z-1.000000 I0.675530 J1.226398
G02 X34.943313 Y103.945270 Z-1.000000 I1.205493 J0.712164
G01 X34.943313 Y112.517540 Z-1.000000
G02 X35.138800 Y113.230214 Z-1.000000 I1.400140 J-0.000912
G02 X35.669876 Y113.744100 Z-1.000000 I1.204652 J-0.713586
G01 X38.443313 Y115.271440 Z-1.000000
G01 X38.445313 Y121.619100 Z-1.000000
G01 X32.671875 Y121.619140 Z-1.000000
G00 Z5.000000

(End cutting path id: path70030)


(Start cutting path id: path70030)
(Change tool to Cylindrical cutter)

G00 Z5.000000
G00 X31.771484 Y122.519530

G01 Z-1.000000 F100.0(Penetrate)
G01 X31.771484 Y114.445310 Z-1.000000 F400.000000
G02 X31.701406 Y114.191051 Z-1.000000 I-0.500049 J0.001036
G02 X31.511719 Y114.007810 Z-1.000000 I-0.429971 J0.255294
G01 X28.271484 Y112.222660 Z-1.000000
G01 X28.269484 Y104.240230 Z-1.000000
G01 X31.511672 Y102.457030 Z-1.000000
G02 X31.700247 Y102.273442 Z-1.000000 I-0.242238 J-0.437459
G02 X31.769484 Y102.019530 Z-1.000000 I-0.430813 J-0.253871
G01 X31.769484 Y93.445310 Z-1.000000
G02 X31.674201 Y93.150761 Z-1.000000 I-0.500049 J-0.000926
G02 X31.423781 Y92.968750 Z-1.000000 I-0.404766 J0.293623
G01 X25.015578 Y90.910160 Z-1.000000
G01 X25.013578 Y80.191410 Z-1.000000
G01 X35.597562 Y80.191410 Z-1.000000
G01 X35.597562 Y91.273440 Z-1.000000
G02 X35.664412 Y91.523763 Z-1.000000 I0.500050 J0.000548
G02 X35.847562 Y91.707030 Z-1.000000 I0.433200 J-0.249775
G01 X39.343656 Y93.732420 Z-1.000000
G01 X39.343656 Y101.722660 Z-1.000000
G01 X36.103422 Y103.507810 Z-1.000000
G02 X35.913735 Y103.691051 Z-1.000000 I0.240283 J0.438536
G02 X35.843656 Y103.945310 Z-1.000000 I0.429970 J0.255295
G01 X35.843656 Y112.517580 Z-1.000000
G02 X35.913238 Y112.772950 Z-1.000000 I0.500049 J0.000914
G02 X36.103422 Y112.957030 Z-1.000000 I0.430467 J-0.254456
G01 X39.343656 Y114.740230 Z-1.000000
G01 X39.343656 Y122.517580 Z-1.000000
G01 X31.771484 Y122.519530 Z-1.000000
G00 Z5.000000

(End cutting path id: path70030)


(Footer)
M5
G00 X0.0000 Y0.0000
M2
(Using default footer. To add your own footer create file "footer" in the output dir.)
(end)
%