(-----> Modified by G-Opti - www.g-opti.de <-----)
%
(Header)
(Generated by gcodetools from Inkscape.)
(Using default header. To add your own header create file "header" in the output dir.)
(-----> no comment found <-----)
M3
(Header end.)
G21 (All units in mm)

(Start cutting path id: path19575)
(Change tool to Cylindrical cutter)

G00 Z3.000000
G00 X39.475588 Y149.874420

G01 Z-1.500000 F200.0(Penetrate)
G01 X25.345028 Y149.874420 Z-1.500000 F300.000000
G01 X25.345028 Y135.877380 Z-1.500000
G00 Z3.000000

(End cutting path id: path19575)


(Start cutting path id: path19575)
(Change tool to Cylindrical cutter)

G00 Z3.000000
G00 X39.475588 Y149.874420

G01 Z-3.000000 F200.0(Penetrate)
G01 X25.345028 Y149.874420 Z-3.000000 F300.000000
G01 X25.345028 Y135.877380 Z-3.000000
G00 Z3.000000

(End cutting path id: path19575)


(Start cutting path id: path19575)
(Change tool to Cylindrical cutter)

G00 Z3.000000
G00 X88.045052 Y67.596410

G01 Z-1.500000 F200.0(Penetrate)
G01 X88.045052 Y42.596600 Z-1.500000 F300.000000
G01 X69.545292 Y42.596600 Z-1.500000
G00 Z3.000000

(End cutting path id: path19575)


(Start cutting path id: path19575)
(Change tool to Cylindrical cutter)

G00 Z3.000000
G00 X88.045052 Y67.596410

G01 Z-3.000000 F200.0(Penetrate)
G01 X88.045052 Y42.596600 Z-3.000000 F300.000000
G01 X69.545292 Y42.596600 Z-3.000000
G00 Z3.000000

(End cutting path id: path19575)


(Start cutting path id: path19575)
(Change tool to Cylindrical cutter)

G00 Z3.000000
G00 X88.045052 Y178.518270

G01 Z-1.500000 F200.0(Penetrate)
G01 X88.045052 Y160.722130 Z-1.500000 F300.000000
G01 X88.045052 Y131.622480 Z-1.500000
G01 X88.045052 Y117.625880 Z-1.500000
G01 X88.045052 Y103.442930 Z-1.500000
G01 X88.045052 Y85.512830 Z-1.500000
G00 Z3.000000

(End cutting path id: path19575)


(Start cutting path id: path19575)
(Change tool to Cylindrical cutter)

G00 Z3.000000
G00 X88.045052 Y178.518270

G01 Z-3.000000 F200.0(Penetrate)
G01 X88.045052 Y160.722130 Z-3.000000 F300.000000
G01 X88.045052 Y131.622480 Z-3.000000
G01 X88.045052 Y117.625880 Z-3.000000
G01 X88.045052 Y103.442930 Z-3.000000
G01 X88.045052 Y85.512830 Z-3.000000
G00 Z3.000000

(End cutting path id: path19575)


(Start cutting path id: path19575)
(Change tool to Cylindrical cutter)

G00 Z3.000000
G00 X69.545292 Y235.567914

G01 Z-1.500000 F200.0(Penetrate)
G01 X88.045052 Y235.567914 Z-1.500000 F300.000000
G01 X88.045052 Y196.434690 Z-1.500000
G00 Z3.000000

(End cutting path id: path19575)


(Start cutting path id: path19575)
(Change tool to Cylindrical cutter)

G00 Z3.000000
G00 X69.545292 Y235.567914

G01 Z-3.000000 F200.0(Penetrate)
G01 X88.045052 Y235.567914 Z-3.000000 F300.000000
G01 X88.045052 Y196.434690 Z-3.000000
G00 Z3.000000

(End cutting path id: path19575)


(Start cutting path id: path19575)
(Change tool to Cylindrical cutter)

G00 Z3.000000
G00 X42.609018 Y63.669630

G01 Z-1.500000 F200.0(Penetrate)
G01 X42.609018 Y61.949650 Z-1.500000 F300.000000
G01 X40.889038 Y61.949650 Z-1.500000
G01 X40.889038 Y63.669630 Z-1.500000
G01 X42.609018 Y63.669630 Z-1.500000
G00 Z3.000000

(End cutting path id: path19575)


(Start cutting path id: path19575)
(Change tool to Cylindrical cutter)

G00 Z3.000000
G00 X42.609018 Y63.669630

G01 Z-3.000000 F200.0(Penetrate)
G01 X42.609018 Y61.949650 Z-3.000000 F300.000000
G01 X40.889038 Y61.949650 Z-3.000000
G01 X40.889038 Y63.669630 Z-3.000000
G01 X42.609018 Y63.669630 Z-3.000000
G00 Z3.000000

(End cutting path id: path19575)


(Start cutting path id: path19575)
(Change tool to Cylindrical cutter)

G00 Z3.000000
G00 X46.228968 Y63.669630

G01 Z-1.500000 F200.0(Penetrate)
G01 X46.228968 Y61.949650 Z-1.500000 F300.000000
G01 X44.508998 Y61.949650 Z-1.500000
G01 X44.508998 Y63.669630 Z-1.500000
G01 X46.228968 Y63.669630 Z-1.500000
G00 Z3.000000

(End cutting path id: path19575)


(Start cutting path id: path19575)
(Change tool to Cylindrical cutter)

G00 Z3.000000
G00 X46.228968 Y63.669630

G01 Z-3.000000 F200.0(Penetrate)
G01 X46.228968 Y61.949650 Z-3.000000 F300.000000
G01 X44.508998 Y61.949650 Z-3.000000
G01 X44.508998 Y63.669630 Z-3.000000
G01 X46.228968 Y63.669630 Z-3.000000
G00 Z3.000000

(End cutting path id: path19575)


(Start cutting path id: path19575)
(Change tool to Cylindrical cutter)

G00 Z3.000000
G00 X49.848928 Y63.669630

G01 Z-1.500000 F200.0(Penetrate)
G01 X49.848928 Y61.949650 Z-1.500000 F300.000000
G01 X48.128948 Y61.949650 Z-1.500000
G01 X48.128948 Y63.669630 Z-1.500000
G01 X49.848928 Y63.669630 Z-1.500000
G00 Z3.000000

(End cutting path id: path19575)


(Start cutting path id: path19575)
(Change tool to Cylindrical cutter)

G00 Z3.000000
G00 X49.848928 Y63.669630

G01 Z-3.000000 F200.0(Penetrate)
G01 X49.848928 Y61.949650 Z-3.000000 F300.000000
G01 X48.128948 Y61.949650 Z-3.000000
G01 X48.128948 Y63.669630 Z-3.000000
G01 X49.848928 Y63.669630 Z-3.000000
G00 Z3.000000

(End cutting path id: path19575)


(Start cutting path id: path19575)
(Change tool to Cylindrical cutter)

G00 Z3.000000
G00 X53.468882 Y63.669630

G01 Z-1.500000 F200.0(Penetrate)
G01 X53.468882 Y61.949650 Z-1.500000 F300.000000
G01 X51.748898 Y61.949650 Z-1.500000
G01 X51.748898 Y63.669630 Z-1.500000
G01 X53.468882 Y63.669630 Z-1.500000
G00 Z3.000000

(End cutting path id: path19575)


(Start cutting path id: path19575)
(Change tool to Cylindrical cutter)

G00 Z3.000000
G00 X53.468882 Y63.669630

G01 Z-3.000000 F200.0(Penetrate)
G01 X53.468882 Y61.949650 Z-3.000000 F300.000000
G01 X51.748898 Y61.949650 Z-3.000000
G01 X51.748898 Y63.669630 Z-3.000000
G01 X53.468882 Y63.669630 Z-3.000000
G00 Z3.000000

(End cutting path id: path19575)


(Start cutting path id: path19575)
(Change tool to Cylindrical cutter)

G00 Z3.000000
G00 X53.468882 Y67.289580

G01 Z-1.500000 F200.0(Penetrate)
G01 X53.468882 Y65.569610 Z-1.500000 F300.000000
G01 X51.748898 Y65.569610 Z-1.500000
G01 X51.748898 Y67.289580 Z-1.500000
G01 X53.468882 Y67.289580 Z-1.500000
G00 Z3.000000

(End cutting path id: path19575)


(Start cutting path id: path19575)
(Change tool to Cylindrical cutter)

G00 Z3.000000
G00 X53.468882 Y67.289580

G01 Z-3.000000 F200.0(Penetrate)
G01 X53.468882 Y65.569610 Z-3.000000 F300.000000
G01 X51.748898 Y65.569610 Z-3.000000
G01 X51.748898 Y67.289580 Z-3.000000
G01 X53.468882 Y67.289580 Z-3.000000
G00 Z3.000000

(End cutting path id: path19575)


(Start cutting path id: path19575)
(Change tool to Cylindrical cutter)

G00 Z3.000000
G00 X49.848928 Y67.289580

G01 Z-1.500000 F200.0(Penetrate)
G01 X49.848928 Y65.569610 Z-1.500000 F300.000000
G01 X48.128948 Y65.569610 Z-1.500000
G01 X48.128948 Y67.289580 Z-1.500000
G01 X49.848928 Y67.289580 Z-1.500000
G00 Z3.000000

(End cutting path id: path19575)


(Start cutting path id: path19575)
(Change tool to Cylindrical cutter)

G00 Z3.000000
G00 X49.848928 Y67.289580

G01 Z-3.000000 F200.0(Penetrate)
G01 X49.848928 Y65.569610 Z-3.000000 F300.000000
G01 X48.128948 Y65.569610 Z-3.000000
G01 X48.128948 Y67.289580 Z-3.000000
G01 X49.848928 Y67.289580 Z-3.000000
G00 Z3.000000

(End cutting path id: path19575)


(Start cutting path id: path19575)
(Change tool to Cylindrical cutter)

G00 Z3.000000
G00 X46.228968 Y67.289580

G01 Z-1.500000 F200.0(Penetrate)
G01 X46.228968 Y65.569610 Z-1.500000 F300.000000
G01 X44.508998 Y65.569610 Z-1.500000
G01 X44.508998 Y67.289580 Z-1.500000
G01 X46.228968 Y67.289580 Z-1.500000
G00 Z3.000000

(End cutting path id: path19575)


(Start cutting path id: path19575)
(Change tool to Cylindrical cutter)

G00 Z3.000000
G00 X46.228968 Y67.289580

G01 Z-3.000000 F200.0(Penetrate)
G01 X46.228968 Y65.569610 Z-3.000000 F300.000000
G01 X44.508998 Y65.569610 Z-3.000000
G01 X44.508998 Y67.289580 Z-3.000000
G01 X46.228968 Y67.289580 Z-3.000000
G00 Z3.000000

(End cutting path id: path19575)


(Start cutting path id: path19575)
(Change tool to Cylindrical cutter)

G00 Z3.000000
G00 X42.609018 Y67.289580

G01 Z-1.500000 F200.0(Penetrate)
G01 X42.609018 Y65.569610 Z-1.500000 F300.000000
G01 X40.889038 Y65.569610 Z-1.500000
G01 X40.889038 Y67.289580 Z-1.500000
G01 X42.609018 Y67.289580 Z-1.500000
G00 Z3.000000

(End cutting path id: path19575)


(Start cutting path id: path19575)
(Change tool to Cylindrical cutter)

G00 Z3.000000
G00 X42.609018 Y67.289580

G01 Z-3.000000 F200.0(Penetrate)
G01 X42.609018 Y65.569610 Z-3.000000 F300.000000
G01 X40.889038 Y65.569610 Z-3.000000
G01 X40.889038 Y67.289580 Z-3.000000
G01 X42.609018 Y67.289580 Z-3.000000
G00 Z3.000000

(End cutting path id: path19575)


(Start cutting path id: path19575)
(Change tool to Cylindrical cutter)

G00 Z3.000000
G00 X53.468882 Y70.909540

G01 Z-1.500000 F200.0(Penetrate)
G01 X53.468882 Y69.189560 Z-1.500000 F300.000000
G01 X51.748898 Y69.189560 Z-1.500000
G01 X51.748898 Y70.909540 Z-1.500000
G01 X53.468882 Y70.909540 Z-1.500000
G00 Z3.000000

(End cutting path id: path19575)


(Start cutting path id: path19575)
(Change tool to Cylindrical cutter)

G00 Z3.000000
G00 X53.468882 Y70.909540

G01 Z-3.000000 F200.0(Penetrate)
G01 X53.468882 Y69.189560 Z-3.000000 F300.000000
G01 X51.748898 Y69.189560 Z-3.000000
G01 X51.748898 Y70.909540 Z-3.000000
G01 X53.468882 Y70.909540 Z-3.000000
G00 Z3.000000

(End cutting path id: path19575)


(Start cutting path id: path19575)
(Change tool to Cylindrical cutter)

G00 Z3.000000
G00 X49.848928 Y70.909540

G01 Z-1.500000 F200.0(Penetrate)
G01 X49.848928 Y69.189560 Z-1.500000 F300.000000
G01 X48.128948 Y69.189560 Z-1.500000
G01 X48.128948 Y70.909540 Z-1.500000
G01 X49.848928 Y70.909540 Z-1.500000
G00 Z3.000000

(End cutting path id: path19575)


(Start cutting path id: path19575)
(Change tool to Cylindrical cutter)

G00 Z3.000000
G00 X49.848928 Y70.909540

G01 Z-3.000000 F200.0(Penetrate)
G01 X49.848928 Y69.189560 Z-3.000000 F300.000000
G01 X48.128948 Y69.189560 Z-3.000000
G01 X48.128948 Y70.909540 Z-3.000000
G01 X49.848928 Y70.909540 Z-3.000000
G00 Z3.000000

(End cutting path id: path19575)


(Start cutting path id: path19575)
(Change tool to Cylindrical cutter)

G00 Z3.000000
G00 X46.228968 Y70.909540

G01 Z-1.500000 F200.0(Penetrate)
G01 X46.228968 Y69.189560 Z-1.500000 F300.000000
G01 X44.508998 Y69.189560 Z-1.500000
G01 X44.508998 Y70.909540 Z-1.500000
G01 X46.228968 Y70.909540 Z-1.500000
G00 Z3.000000

(End cutting path id: path19575)


(Start cutting path id: path19575)
(Change tool to Cylindrical cutter)

G00 Z3.000000
G00 X46.228968 Y70.909540

G01 Z-3.000000 F200.0(Penetrate)
G01 X46.228968 Y69.189560 Z-3.000000 F300.000000
G01 X44.508998 Y69.189560 Z-3.000000
G01 X44.508998 Y70.909540 Z-3.000000
G01 X46.228968 Y70.909540 Z-3.000000
G00 Z3.000000

(End cutting path id: path19575)


(Start cutting path id: path19575)
(Change tool to Cylindrical cutter)

G00 Z3.000000
G00 X42.609018 Y70.909540

G01 Z-1.500000 F200.0(Penetrate)
G01 X42.609018 Y69.189560 Z-1.500000 F300.000000
G01 X40.889038 Y69.189560 Z-1.500000
G01 X40.889038 Y70.909540 Z-1.500000
G01 X42.609018 Y70.909540 Z-1.500000
G00 Z3.000000

(End cutting path id: path19575)


(Start cutting path id: path19575)
(Change tool to Cylindrical cutter)

G00 Z3.000000
G00 X42.609018 Y70.909540

G01 Z-3.000000 F200.0(Penetrate)
G01 X42.609018 Y69.189560 Z-3.000000 F300.000000
G01 X40.889038 Y69.189560 Z-3.000000
G01 X40.889038 Y70.909540 Z-3.000000
G01 X42.609018 Y70.909540 Z-3.000000
G00 Z3.000000

(End cutting path id: path19575)


(Start cutting path id: path19575)
(Change tool to Cylindrical cutter)

G00 Z3.000000
G00 X53.468882 Y74.529490

G01 Z-1.500000 F200.0(Penetrate)
G01 X53.468882 Y72.809510 Z-1.500000 F300.000000
G01 X51.748898 Y72.809510 Z-1.500000
G01 X51.748898 Y74.529490 Z-1.500000
G01 X53.468882 Y74.529490 Z-1.500000
G00 Z3.000000

(End cutting path id: path19575)


(Start cutting path id: path19575)
(Change tool to Cylindrical cutter)

G00 Z3.000000
G00 X53.468882 Y74.529490

G01 Z-3.000000 F200.0(Penetrate)
G01 X53.468882 Y72.809510 Z-3.000000 F300.000000
G01 X51.748898 Y72.809510 Z-3.000000
G01 X51.748898 Y74.529490 Z-3.000000
G01 X53.468882 Y74.529490 Z-3.000000
G00 Z3.000000

(End cutting path id: path19575)


(Start cutting path id: path19575)
(Change tool to Cylindrical cutter)

G00 Z3.000000
G00 X49.848928 Y74.529490

G01 Z-1.500000 F200.0(Penetrate)
G01 X49.848928 Y72.809510 Z-1.500000 F300.000000
G01 X48.128948 Y72.809510 Z-1.500000
G01 X48.128948 Y74.529490 Z-1.500000
G01 X49.848928 Y74.529490 Z-1.500000
G00 Z3.000000

(End cutting path id: path19575)


(Start cutting path id: path19575)
(Change tool to Cylindrical cutter)

G00 Z3.000000
G00 X49.848928 Y74.529490

G01 Z-3.000000 F200.0(Penetrate)
G01 X49.848928 Y72.809510 Z-3.000000 F300.000000
G01 X48.128948 Y72.809510 Z-3.000000
G01 X48.128948 Y74.529490 Z-3.000000
G01 X49.848928 Y74.529490 Z-3.000000
G00 Z3.000000

(End cutting path id: path19575)


(Start cutting path id: path19575)
(Change tool to Cylindrical cutter)

G00 Z3.000000
G00 X46.228968 Y74.529490

G01 Z-1.500000 F200.0(Penetrate)
G01 X46.228968 Y72.809510 Z-1.500000 F300.000000
G01 X44.508998 Y72.809510 Z-1.500000
G01 X44.508998 Y74.529490 Z-1.500000
G01 X46.228968 Y74.529490 Z-1.500000
G00 Z3.000000

(End cutting path id: path19575)


(Start cutting path id: path19575)
(Change tool to Cylindrical cutter)

G00 Z3.000000
G00 X46.228968 Y74.529490

G01 Z-3.000000 F200.0(Penetrate)
G01 X46.228968 Y72.809510 Z-3.000000 F300.000000
G01 X44.508998 Y72.809510 Z-3.000000
G01 X44.508998 Y74.529490 Z-3.000000
G01 X46.228968 Y74.529490 Z-3.000000
G00 Z3.000000

(End cutting path id: path19575)


(Start cutting path id: path19575)
(Change tool to Cylindrical cutter)

G00 Z3.000000
G00 X42.609018 Y74.529490

G01 Z-1.500000 F200.0(Penetrate)
G01 X42.609018 Y72.809510 Z-1.500000 F300.000000
G01 X40.889038 Y72.809510 Z-1.500000
G01 X40.889038 Y74.529490 Z-1.500000
G01 X42.609018 Y74.529490 Z-1.500000
G00 Z3.000000

(End cutting path id: path19575)


(Start cutting path id: path19575)
(Change tool to Cylindrical cutter)

G00 Z3.000000
G00 X42.609018 Y74.529490

G01 Z-3.000000 F200.0(Penetrate)
G01 X42.609018 Y72.809510 Z-3.000000 F300.000000
G01 X40.889038 Y72.809510 Z-3.000000
G01 X40.889038 Y74.529490 Z-3.000000
G01 X42.609018 Y74.529490 Z-3.000000
G00 Z3.000000

(End cutting path id: path19575)


(Start cutting path id: path19575)
(Change tool to Cylindrical cutter)

G00 Z3.000000
G00 X22.983108 Y63.664850

G01 Z-1.500000 F200.0(Penetrate)
G01 X22.983108 Y61.944880 Z-1.500000 F300.000000
G01 X21.263128 Y61.944880 Z-1.500000
G01 X21.263128 Y63.664850 Z-1.500000
G01 X22.983108 Y63.664850 Z-1.500000
G00 Z3.000000

(End cutting path id: path19575)


(Start cutting path id: path19575)
(Change tool to Cylindrical cutter)

G00 Z3.000000
G00 X22.983108 Y63.664850

G01 Z-3.000000 F200.0(Penetrate)
G01 X22.983108 Y61.944880 Z-3.000000 F300.000000
G01 X21.263128 Y61.944880 Z-3.000000
G01 X21.263128 Y63.664850 Z-3.000000
G01 X22.983108 Y63.664850 Z-3.000000
G00 Z3.000000

(End cutting path id: path19575)


(Start cutting path id: path19575)
(Change tool to Cylindrical cutter)

G00 Z3.000000
G00 X19.363158 Y63.664850

G01 Z-1.500000 F200.0(Penetrate)
G01 X19.363158 Y61.944880 Z-1.500000 F300.000000
G01 X17.643178 Y61.944880 Z-1.500000
G01 X17.643178 Y63.664850 Z-1.500000
G01 X19.363158 Y63.664850 Z-1.500000
G00 Z3.000000

(End cutting path id: path19575)


(Start cutting path id: path19575)
(Change tool to Cylindrical cutter)

G00 Z3.000000
G00 X19.363158 Y63.664850

G01 Z-3.000000 F200.0(Penetrate)
G01 X19.363158 Y61.944880 Z-3.000000 F300.000000
G01 X17.643178 Y61.944880 Z-3.000000
G01 X17.643178 Y63.664850 Z-3.000000
G01 X19.363158 Y63.664850 Z-3.000000
G00 Z3.000000

(End cutting path id: path19575)


(Start cutting path id: path19575)
(Change tool to Cylindrical cutter)

G00 Z3.000000
G00 X15.743198 Y63.664850

G01 Z-1.500000 F200.0(Penetrate)
G01 X15.743198 Y61.944880 Z-1.500000 F300.000000
G01 X14.023228 Y61.944880 Z-1.500000
G01 X14.023228 Y63.664850 Z-1.500000
G01 X15.743198 Y63.664850 Z-1.500000
G00 Z3.000000

(End cutting path id: path19575)


(Start cutting path id: path19575)
(Change tool to Cylindrical cutter)

G00 Z3.000000
G00 X15.743198 Y63.664850

G01 Z-3.000000 F200.0(Penetrate)
G01 X15.743198 Y61.944880 Z-3.000000 F300.000000
G01 X14.023228 Y61.944880 Z-3.000000
G01 X14.023228 Y63.664850 Z-3.000000
G01 X15.743198 Y63.664850 Z-3.000000
G00 Z3.000000

(End cutting path id: path19575)


(Start cutting path id: path19575)
(Change tool to Cylindrical cutter)

G00 Z3.000000
G00 X15.743198 Y67.284810

G01 Z-1.500000 F200.0(Penetrate)
G01 X15.743198 Y65.564830 Z-1.500000 F300.000000
G01 X14.023228 Y65.564830 Z-1.500000
G01 X14.023228 Y67.284810 Z-1.500000
G01 X15.743198 Y67.284810 Z-1.500000
G00 Z3.000000

(End cutting path id: path19575)


(Start cutting path id: path19575)
(Change tool to Cylindrical cutter)

G00 Z3.000000
G00 X15.743198 Y67.284810

G01 Z-3.000000 F200.0(Penetrate)
G01 X15.743198 Y65.564830 Z-3.000000 F300.000000
G01 X14.023228 Y65.564830 Z-3.000000
G01 X14.023228 Y67.284810 Z-3.000000
G01 X15.743198 Y67.284810 Z-3.000000
G00 Z3.000000

(End cutting path id: path19575)


(Start cutting path id: path19575)
(Change tool to Cylindrical cutter)

G00 Z3.000000
G00 X19.363158 Y67.284810

G01 Z-1.500000 F200.0(Penetrate)
G01 X19.363158 Y65.564830 Z-1.500000 F300.000000
G01 X17.643178 Y65.564830 Z-1.500000
G01 X17.643178 Y67.284810 Z-1.500000
G01 X19.363158 Y67.284810 Z-1.500000
G00 Z3.000000

(End cutting path id: path19575)


(Start cutting path id: path19575)
(Change tool to Cylindrical cutter)

G00 Z3.000000
G00 X19.363158 Y67.284810

G01 Z-3.000000 F200.0(Penetrate)
G01 X19.363158 Y65.564830 Z-3.000000 F300.000000
G01 X17.643178 Y65.564830 Z-3.000000
G01 X17.643178 Y67.284810 Z-3.000000
G01 X19.363158 Y67.284810 Z-3.000000
G00 Z3.000000

(End cutting path id: path19575)


(Start cutting path id: path19575)
(Change tool to Cylindrical cutter)

G00 Z3.000000
G00 X22.983108 Y67.284810

G01 Z-1.500000 F200.0(Penetrate)
G01 X22.983108 Y65.564830 Z-1.500000 F300.000000
G01 X21.263128 Y65.564830 Z-1.500000
G01 X21.263128 Y67.284810 Z-1.500000
G01 X22.983108 Y67.284810 Z-1.500000
G00 Z3.000000

(End cutting path id: path19575)


(Start cutting path id: path19575)
(Change tool to Cylindrical cutter)

G00 Z3.000000
G00 X22.983108 Y67.284810

G01 Z-3.000000 F200.0(Penetrate)
G01 X22.983108 Y65.564830 Z-3.000000 F300.000000
G01 X21.263128 Y65.564830 Z-3.000000
G01 X21.263128 Y67.284810 Z-3.000000
G01 X22.983108 Y67.284810 Z-3.000000
G00 Z3.000000

(End cutting path id: path19575)


(Start cutting path id: path19575)
(Change tool to Cylindrical cutter)

G00 Z3.000000
G00 X26.603058 Y67.284810

G01 Z-1.500000 F200.0(Penetrate)
G01 X26.603058 Y65.564830 Z-1.500000 F300.000000
G01 X24.883088 Y65.564830 Z-1.500000
G01 X24.883088 Y67.284810 Z-1.500000
G01 X26.603058 Y67.284810 Z-1.500000
G00 Z3.000000

(End cutting path id: path19575)


(Start cutting path id: path19575)
(Change tool to Cylindrical cutter)

G00 Z3.000000
G00 X26.603058 Y67.284810

G01 Z-3.000000 F200.0(Penetrate)
G01 X26.603058 Y65.564830 Z-3.000000 F300.000000
G01 X24.883088 Y65.564830 Z-3.000000
G01 X24.883088 Y67.284810 Z-3.000000
G01 X26.603058 Y67.284810 Z-3.000000
G00 Z3.000000

(End cutting path id: path19575)


(Start cutting path id: path19575)
(Change tool to Cylindrical cutter)

G00 Z3.000000
G00 X26.603058 Y63.664850

G01 Z-1.500000 F200.0(Penetrate)
G01 X26.603058 Y61.944880 Z-1.500000 F300.000000
G01 X24.883088 Y61.944880 Z-1.500000
G01 X24.883088 Y63.664850 Z-1.500000
G01 X26.603058 Y63.664850 Z-1.500000
G00 Z3.000000

(End cutting path id: path19575)


(Start cutting path id: path19575)
(Change tool to Cylindrical cutter)

G00 Z3.000000
G00 X26.603058 Y63.664850

G01 Z-3.000000 F200.0(Penetrate)
G01 X26.603058 Y61.944880 Z-3.000000 F300.000000
G01 X24.883088 Y61.944880 Z-3.000000
G01 X24.883088 Y63.664850 Z-3.000000
G01 X26.603058 Y63.664850 Z-3.000000
G00 Z3.000000

(End cutting path id: path19575)


(Start cutting path id: path19575)
(Change tool to Cylindrical cutter)

G00 Z3.000000
G00 X30.223018 Y63.664850

G01 Z-1.500000 F200.0(Penetrate)
G01 X30.223018 Y61.944880 Z-1.500000 F300.000000
G01 X28.503038 Y61.944880 Z-1.500000
G01 X28.503038 Y63.664850 Z-1.500000
G01 X30.223018 Y63.664850 Z-1.500000
G00 Z3.000000

(End cutting path id: path19575)


(Start cutting path id: path19575)
(Change tool to Cylindrical cutter)

G00 Z3.000000
G00 X30.223018 Y63.664850

G01 Z-3.000000 F200.0(Penetrate)
G01 X30.223018 Y61.944880 Z-3.000000 F300.000000
G01 X28.503038 Y61.944880 Z-3.000000
G01 X28.503038 Y63.664850 Z-3.000000
G01 X30.223018 Y63.664850 Z-3.000000
G00 Z3.000000

(End cutting path id: path19575)


(Start cutting path id: path19575)
(Change tool to Cylindrical cutter)

G00 Z3.000000
G00 X30.223018 Y67.284810

G01 Z-1.500000 F200.0(Penetrate)
G01 X30.223018 Y65.564830 Z-1.500000 F300.000000
G01 X28.503038 Y65.564830 Z-1.500000
G01 X28.503038 Y67.284810 Z-1.500000
G01 X30.223018 Y67.284810 Z-1.500000
G00 Z3.000000

(End cutting path id: path19575)


(Start cutting path id: path19575)
(Change tool to Cylindrical cutter)

G00 Z3.000000
G00 X30.223018 Y67.284810

G01 Z-3.000000 F200.0(Penetrate)
G01 X30.223018 Y65.564830 Z-3.000000 F300.000000
G01 X28.503038 Y65.564830 Z-3.000000
G01 X28.503038 Y67.284810 Z-3.000000
G01 X30.223018 Y67.284810 Z-3.000000
G00 Z3.000000

(End cutting path id: path19575)


(Start cutting path id: path19575)
(Change tool to Cylindrical cutter)

G00 Z3.000000
G00 X33.842968 Y67.284810

G01 Z-1.500000 F200.0(Penetrate)
G01 X33.842968 Y65.564830 Z-1.500000 F300.000000
G01 X32.122998 Y65.564830 Z-1.500000
G01 X32.122998 Y67.284810 Z-1.500000
G01 X33.842968 Y67.284810 Z-1.500000
G00 Z3.000000

(End cutting path id: path19575)


(Start cutting path id: path19575)
(Change tool to Cylindrical cutter)

G00 Z3.000000
G00 X33.842968 Y67.284810

G01 Z-3.000000 F200.0(Penetrate)
G01 X33.842968 Y65.564830 Z-3.000000 F300.000000
G01 X32.122998 Y65.564830 Z-3.000000
G01 X32.122998 Y67.284810 Z-3.000000
G01 X33.842968 Y67.284810 Z-3.000000
G00 Z3.000000

(End cutting path id: path19575)


(Start cutting path id: path19575)
(Change tool to Cylindrical cutter)

G00 Z3.000000
G00 X33.842968 Y63.664850

G01 Z-1.500000 F200.0(Penetrate)
G01 X33.842968 Y61.944880 Z-1.500000 F300.000000
G01 X32.122998 Y61.944880 Z-1.500000
G01 X32.122998 Y63.664850 Z-1.500000
G01 X33.842968 Y63.664850 Z-1.500000
G00 Z3.000000

(End cutting path id: path19575)


(Start cutting path id: path19575)
(Change tool to Cylindrical cutter)

G00 Z3.000000
G00 X33.842968 Y63.664850

G01 Z-3.000000 F200.0(Penetrate)
G01 X33.842968 Y61.944880 Z-3.000000 F300.000000
G01 X32.122998 Y61.944880 Z-3.000000
G01 X32.122998 Y63.664850 Z-3.000000
G01 X33.842968 Y63.664850 Z-3.000000
G00 Z3.000000

(End cutting path id: path19575)


(Start cutting path id: path19575)
(Change tool to Cylindrical cutter)

G00 Z3.000000
G00 X33.842968 Y70.904760

G01 Z-1.500000 F200.0(Penetrate)
G01 X33.842968 Y69.184790 Z-1.500000 F300.000000
G01 X32.122998 Y69.184790 Z-1.500000
G01 X32.122998 Y70.904760 Z-1.500000
G01 X33.842968 Y70.904760 Z-1.500000
G00 Z3.000000

(End cutting path id: path19575)


(Start cutting path id: path19575)
(Change tool to Cylindrical cutter)

G00 Z3.000000
G00 X33.842968 Y70.904760

G01 Z-3.000000 F200.0(Penetrate)
G01 X33.842968 Y69.184790 Z-3.000000 F300.000000
G01 X32.122998 Y69.184790 Z-3.000000
G01 X32.122998 Y70.904760 Z-3.000000
G01 X33.842968 Y70.904760 Z-3.000000
G00 Z3.000000

(End cutting path id: path19575)


(Start cutting path id: path19575)
(Change tool to Cylindrical cutter)

G00 Z3.000000
G00 X30.223018 Y70.904760

G01 Z-1.500000 F200.0(Penetrate)
G01 X30.223018 Y69.184790 Z-1.500000 F300.000000
G01 X28.503038 Y69.184790 Z-1.500000
G01 X28.503038 Y70.904760 Z-1.500000
G01 X30.223018 Y70.904760 Z-1.500000
G00 Z3.000000

(End cutting path id: path19575)


(Start cutting path id: path19575)
(Change tool to Cylindrical cutter)

G00 Z3.000000
G00 X30.223018 Y70.904760

G01 Z-3.000000 F200.0(Penetrate)
G01 X30.223018 Y69.184790 Z-3.000000 F300.000000
G01 X28.503038 Y69.184790 Z-3.000000
G01 X28.503038 Y70.904760 Z-3.000000
G01 X30.223018 Y70.904760 Z-3.000000
G00 Z3.000000

(End cutting path id: path19575)


(Start cutting path id: path19575)
(Change tool to Cylindrical cutter)

G00 Z3.000000
G00 X26.603058 Y70.904760

G01 Z-1.500000 F200.0(Penetrate)
G01 X26.603058 Y69.184790 Z-1.500000 F300.000000
G01 X24.883088 Y69.184790 Z-1.500000
G01 X24.883088 Y70.904760 Z-1.500000
G01 X26.603058 Y70.904760 Z-1.500000
G00 Z3.000000

(End cutting path id: path19575)


(Start cutting path id: path19575)
(Change tool to Cylindrical cutter)

G00 Z3.000000
G00 X26.603058 Y70.904760

G01 Z-3.000000 F200.0(Penetrate)
G01 X26.603058 Y69.184790 Z-3.000000 F300.000000
G01 X24.883088 Y69.184790 Z-3.000000
G01 X24.883088 Y70.904760 Z-3.000000
G01 X26.603058 Y70.904760 Z-3.000000
G00 Z3.000000

(End cutting path id: path19575)


(Start cutting path id: path19575)
(Change tool to Cylindrical cutter)

G00 Z3.000000
G00 X22.983108 Y70.904760

G01 Z-1.500000 F200.0(Penetrate)
G01 X22.983108 Y69.184790 Z-1.500000 F300.000000
G01 X21.263128 Y69.184790 Z-1.500000
G01 X21.263128 Y70.904760 Z-1.500000
G01 X22.983108 Y70.904760 Z-1.500000
G00 Z3.000000

(End cutting path id: path19575)


(Start cutting path id: path19575)
(Change tool to Cylindrical cutter)

G00 Z3.000000
G00 X22.983108 Y70.904760

G01 Z-3.000000 F200.0(Penetrate)
G01 X22.983108 Y69.184790 Z-3.000000 F300.000000
G01 X21.263128 Y69.184790 Z-3.000000
G01 X21.263128 Y70.904760 Z-3.000000
G01 X22.983108 Y70.904760 Z-3.000000
G00 Z3.000000

(End cutting path id: path19575)


(Start cutting path id: path19575)
(Change tool to Cylindrical cutter)

G00 Z3.000000
G00 X19.363158 Y70.904760

G01 Z-1.500000 F200.0(Penetrate)
G01 X19.363158 Y69.184790 Z-1.500000 F300.000000
G01 X17.643178 Y69.184790 Z-1.500000
G01 X17.643178 Y70.904760 Z-1.500000
G01 X19.363158 Y70.904760 Z-1.500000
G00 Z3.000000

(End cutting path id: path19575)


(Start cutting path id: path19575)
(Change tool to Cylindrical cutter)

G00 Z3.000000
G00 X19.363158 Y70.904760

G01 Z-3.000000 F200.0(Penetrate)
G01 X19.363158 Y69.184790 Z-3.000000 F300.000000
G01 X17.643178 Y69.184790 Z-3.000000
G01 X17.643178 Y70.904760 Z-3.000000
G01 X19.363158 Y70.904760 Z-3.000000
G00 Z3.000000

(End cutting path id: path19575)


(Start cutting path id: path19575)
(Change tool to Cylindrical cutter)

G00 Z3.000000
G00 X15.743198 Y70.904760

G01 Z-1.500000 F200.0(Penetrate)
G01 X15.743198 Y69.184790 Z-1.500000 F300.000000
G01 X14.023228 Y69.184790 Z-1.500000
G01 X14.023228 Y70.904760 Z-1.500000
G01 X15.743198 Y70.904760 Z-1.500000
G00 Z3.000000

(End cutting path id: path19575)


(Start cutting path id: path19575)
(Change tool to Cylindrical cutter)

G00 Z3.000000
G00 X15.743198 Y70.904760

G01 Z-3.000000 F200.0(Penetrate)
G01 X15.743198 Y69.184790 Z-3.000000 F300.000000
G01 X14.023228 Y69.184790 Z-3.000000
G01 X14.023228 Y70.904760 Z-3.000000
G01 X15.743198 Y70.904760 Z-3.000000
G00 Z3.000000

(End cutting path id: path19575)


(Start cutting path id: path19575)
(Change tool to Cylindrical cutter)

G00 Z3.000000
G00 X15.743198 Y74.524720

G01 Z-1.500000 F200.0(Penetrate)
G01 X15.743198 Y72.804740 Z-1.500000 F300.000000
G01 X14.023228 Y72.804740 Z-1.500000
G01 X14.023228 Y74.524720 Z-1.500000
G01 X15.743198 Y74.524720 Z-1.500000
G00 Z3.000000

(End cutting path id: path19575)


(Start cutting path id: path19575)
(Change tool to Cylindrical cutter)

G00 Z3.000000
G00 X15.743198 Y74.524720

G01 Z-3.000000 F200.0(Penetrate)
G01 X15.743198 Y72.804740 Z-3.000000 F300.000000
G01 X14.023228 Y72.804740 Z-3.000000
G01 X14.023228 Y74.524720 Z-3.000000
G01 X15.743198 Y74.524720 Z-3.000000
G00 Z3.000000

(End cutting path id: path19575)


(Start cutting path id: path19575)
(Change tool to Cylindrical cutter)

G00 Z3.000000
G00 X19.363158 Y74.524720

G01 Z-1.500000 F200.0(Penetrate)
G01 X19.363158 Y72.804740 Z-1.500000 F300.000000
G01 X17.643178 Y72.804740 Z-1.500000
G01 X17.643178 Y74.524720 Z-1.500000
G01 X19.363158 Y74.524720 Z-1.500000
G00 Z3.000000

(End cutting path id: path19575)


(Start cutting path id: path19575)
(Change tool to Cylindrical cutter)

G00 Z3.000000
G00 X19.363158 Y74.524720

G01 Z-3.000000 F200.0(Penetrate)
G01 X19.363158 Y72.804740 Z-3.000000 F300.000000
G01 X17.643178 Y72.804740 Z-3.000000
G01 X17.643178 Y74.524720 Z-3.000000
G01 X19.363158 Y74.524720 Z-3.000000
G00 Z3.000000

(End cutting path id: path19575)


(Start cutting path id: path19575)
(Change tool to Cylindrical cutter)

G00 Z3.000000
G00 X22.983108 Y74.524720

G01 Z-1.500000 F200.0(Penetrate)
G01 X22.983108 Y72.804740 Z-1.500000 F300.000000
G01 X21.263128 Y72.804740 Z-1.500000
G01 X21.263128 Y74.524720 Z-1.500000
G01 X22.983108 Y74.524720 Z-1.500000
G00 Z3.000000

(End cutting path id: path19575)


(Start cutting path id: path19575)
(Change tool to Cylindrical cutter)

G00 Z3.000000
G00 X22.983108 Y74.524720

G01 Z-3.000000 F200.0(Penetrate)
G01 X22.983108 Y72.804740 Z-3.000000 F300.000000
G01 X21.263128 Y72.804740 Z-3.000000
G01 X21.263128 Y74.524720 Z-3.000000
G01 X22.983108 Y74.524720 Z-3.000000
G00 Z3.000000

(End cutting path id: path19575)


(Start cutting path id: path19575)
(Change tool to Cylindrical cutter)

G00 Z3.000000
G00 X26.603058 Y74.524720

G01 Z-1.500000 F200.0(Penetrate)
G01 X26.603058 Y72.804740 Z-1.500000 F300.000000
G01 X24.883088 Y72.804740 Z-1.500000
G01 X24.883088 Y74.524720 Z-1.500000
G01 X26.603058 Y74.524720 Z-1.500000
G00 Z3.000000

(End cutting path id: path19575)


(Start cutting path id: path19575)
(Change tool to Cylindrical cutter)

G00 Z3.000000
G00 X26.603058 Y74.524720

G01 Z-3.000000 F200.0(Penetrate)
G01 X26.603058 Y72.804740 Z-3.000000 F300.000000
G01 X24.883088 Y72.804740 Z-3.000000
G01 X24.883088 Y74.524720 Z-3.000000
G01 X26.603058 Y74.524720 Z-3.000000
G00 Z3.000000

(End cutting path id: path19575)


(Start cutting path id: path19575)
(Change tool to Cylindrical cutter)

G00 Z3.000000
G00 X30.223018 Y74.524720

G01 Z-1.500000 F200.0(Penetrate)
G01 X30.223018 Y72.804740 Z-1.500000 F300.000000
G01 X28.503038 Y72.804740 Z-1.500000
G01 X28.503038 Y74.524720 Z-1.500000
G01 X30.223018 Y74.524720 Z-1.500000
G00 Z3.000000

(End cutting path id: path19575)


(Start cutting path id: path19575)
(Change tool to Cylindrical cutter)

G00 Z3.000000
G00 X30.223018 Y74.524720

G01 Z-3.000000 F200.0(Penetrate)
G01 X30.223018 Y72.804740 Z-3.000000 F300.000000
G01 X28.503038 Y72.804740 Z-3.000000
G01 X28.503038 Y74.524720 Z-3.000000
G01 X30.223018 Y74.524720 Z-3.000000
G00 Z3.000000

(End cutting path id: path19575)


(Start cutting path id: path19575)
(Change tool to Cylindrical cutter)

G00 Z3.000000
G00 X33.842968 Y74.524720

G01 Z-1.500000 F200.0(Penetrate)
G01 X33.842968 Y72.804740 Z-1.500000 F300.000000
G01 X32.122998 Y72.804740 Z-1.500000
G01 X32.122998 Y74.524720 Z-1.500000
G01 X33.842968 Y74.524720 Z-1.500000
G00 Z3.000000

(End cutting path id: path19575)


(Start cutting path id: path19575)
(Change tool to Cylindrical cutter)

G00 Z3.000000
G00 X33.842968 Y74.524720

G01 Z-3.000000 F200.0(Penetrate)
G01 X33.842968 Y72.804740 Z-3.000000 F300.000000
G01 X32.122998 Y72.804740 Z-3.000000
G01 X32.122998 Y74.524720 Z-3.000000
G01 X33.842968 Y74.524720 Z-3.000000
G00 Z3.000000

(End cutting path id: path19575)


(Start cutting path id: path19575)
(Change tool to Cylindrical cutter)

G00 Z3.000000
G00 X25.345028 Y135.377400

G01 Z-1.500000 F200.0(Penetrate)
G01 X12.167018 Y135.377670 Z-1.500000 F300.000000
G01 X12.163018 Y46.598350 Z-1.500000
G01 X39.971028 Y46.597350 Z-1.500000
G01 X39.970878 Y43.100650 Z-1.500000
G01 X55.444762 Y43.096650 Z-1.500000
G01 X55.449762 Y149.375340 Z-1.500000
G01 X39.974928 Y149.374550 Z-1.500000
G00 Z3.000000

(End cutting path id: path19575)


(Start cutting path id: path19575)
(Change tool to Cylindrical cutter)

G00 Z3.000000
G00 X25.345028 Y135.377400

G01 Z-3.000000 F200.0(Penetrate)
G01 X12.167018 Y135.377670 Z-3.000000 F300.000000
G01 X12.163018 Y46.598350 Z-3.000000
G01 X39.971028 Y46.597350 Z-3.000000
G01 X39.970878 Y43.100650 Z-3.000000
G01 X55.444762 Y43.096650 Z-3.000000
G01 X55.449762 Y149.375340 Z-3.000000
G01 X39.974928 Y149.374550 Z-3.000000
G00 Z3.000000

(End cutting path id: path19575)


(Start cutting path id: path19575)
(Change tool to Cylindrical cutter)

G00 Z3.000000
G00 X69.545292 Y160.722130

G01 Z-1.500000 F200.0(Penetrate)
G01 X78.817651 Y160.765930 Z-1.500000 F300.000000
G00 Z3.000000

(End cutting path id: path19575)


(Start cutting path id: path19575)
(Change tool to Cylindrical cutter)

G00 Z3.000000
G00 X69.545292 Y160.722130

G01 Z-3.000000 F200.0(Penetrate)
G01 X78.817651 Y160.765930 Z-3.000000 F300.000000
G00 Z3.000000

(End cutting path id: path19575)


(Start cutting path id: path19575)
(Change tool to Cylindrical cutter)

G00 Z3.000000
G00 X69.545292 Y117.625880

G01 Z-1.500000 F200.0(Penetrate)
G01 X69.545292 Y103.442930 Z-1.500000 F300.000000
G01 X69.545292 Y43.096590 Z-1.500000
G00 Z3.000000

(End cutting path id: path19575)


(Start cutting path id: path19575)
(Change tool to Cylindrical cutter)

G00 Z3.000000
G00 X69.545292 Y117.625880

G01 Z-3.000000 F200.0(Penetrate)
G01 X69.545292 Y103.442930 Z-3.000000 F300.000000
G01 X69.545292 Y43.096590 Z-3.000000
G00 Z3.000000

(End cutting path id: path19575)


(Start cutting path id: path19575)
(Change tool to Cylindrical cutter)

G00 Z3.000000
G00 X69.545292 Y235.067914

G01 Z-1.500000 F200.0(Penetrate)
G01 X69.545292 Y160.722130 Z-1.500000 F300.000000
G00 Z3.000000

(End cutting path id: path19575)


(Start cutting path id: path19575)
(Change tool to Cylindrical cutter)

G00 Z3.000000
G00 X69.545292 Y235.067914

G01 Z-3.000000 F200.0(Penetrate)
G01 X69.545292 Y160.722130 Z-3.000000 F300.000000
G00 Z3.000000

(End cutting path id: path19575)


(Start cutting path id: path19575)
(Change tool to Cylindrical cutter)

G00 Z3.000000
G00 X80.189902 Y67.596410

G01 Z-1.500000 F200.0(Penetrate)
G01 X80.189112 Y85.512830 Z-1.500000 F300.000000
G01 X87.549792 Y85.512830 Z-1.500000
G00 Z3.000000

(End cutting path id: path19575)


(Start cutting path id: path19575)
(Change tool to Cylindrical cutter)

G00 Z3.000000
G00 X80.189902 Y67.596410

G01 Z-3.000000 F200.0(Penetrate)
G01 X80.189112 Y85.512830 Z-3.000000 F300.000000
G01 X87.549792 Y85.512830 Z-3.000000
G00 Z3.000000

(End cutting path id: path19575)


(Start cutting path id: path19575)
(Change tool to Cylindrical cutter)

G00 Z3.000000
G00 X87.545092 Y196.434690

G01 Z-1.500000 F200.0(Penetrate)
G01 X77.184462 Y196.434690 Z-1.500000 F300.000000
G01 X77.185252 Y178.518270 Z-1.500000
G01 X87.545122 Y178.518270 Z-1.500000
G00 Z3.000000

(End cutting path id: path19575)


(Start cutting path id: path19575)
(Change tool to Cylindrical cutter)

G00 Z3.000000
G00 X87.545092 Y196.434690

G01 Z-3.000000 F200.0(Penetrate)
G01 X77.184462 Y196.434690 Z-3.000000 F300.000000
G01 X77.185252 Y178.518270 Z-3.000000
G01 X87.545122 Y178.518270 Z-3.000000
G00 Z3.000000

(End cutting path id: path19575)


(Start cutting path id: path19575)
(Change tool to Cylindrical cutter)

G00 Z3.000000
G00 X87.545092 Y67.596410

G01 Z-1.500000 F200.0(Penetrate)
G01 X80.185192 Y67.596410 Z-1.500000 F300.000000
G00 Z3.000000

(End cutting path id: path19575)


(Start cutting path id: path19575)
(Change tool to Cylindrical cutter)

G00 Z3.000000
G00 X87.545092 Y67.596410

G01 Z-3.000000 F200.0(Penetrate)
G01 X80.185192 Y67.596410 Z-3.000000 F300.000000
G00 Z3.000000

(End cutting path id: path19575)


(Start cutting path id: path19575)
(Change tool to Cylindrical cutter)

G00 Z3.000000
G00 X69.545322 Y117.625880

G01 Z-1.500000 F200.0(Penetrate)
G01 X78.595212 Y117.625880 Z-1.500000 F300.000000
G00 Z3.000000

(End cutting path id: path19575)


(Start cutting path id: path19575)
(Change tool to Cylindrical cutter)

G00 Z3.000000
G00 X69.545322 Y117.625880

G01 Z-3.000000 F200.0(Penetrate)
G01 X78.595212 Y117.625880 Z-3.000000 F300.000000
G00 Z3.000000

(End cutting path id: path19575)


(Footer)
(-----> no comment found <-----)
M5
G00 X0.0000 Y0.0000
(-----> no comment found <-----)
M2
(Using default footer. To add your own footer create file "footer" in the output dir.)
(end)
%
