%
(Header)
(Generated by gcodetools from Inkscape.)
(Using default header. To add your own header create file "header" in the output dir.)
M3
(Header end.)
G21 (All units in mm)

(Start cutting path id: path19591)
(Change tool to Cylindrical cutter)

G00 Z13.000000
G00 X42.934062 Y275.383531

G01 Z-1.500000 F100.0(Penetrate)
G01 X54.933912 Y275.383531 Z-1.500000 F200.000000
G01 X54.933912 Y265.383661 Z-1.500000
G01 X42.934062 Y265.383661 Z-1.500000
G01 X42.934062 Y275.383531 Z-1.500000
G00 Z13.000000

(End cutting path id: path19591)


(Start cutting path id: path19591)
(Change tool to Cylindrical cutter)

G00 Z13.000000
G00 X42.934062 Y275.383531

G01 Z-3.000000 F100.0(Penetrate)
G01 X54.933912 Y275.383531 Z-3.000000 F200.000000
G01 X54.933912 Y265.383661 Z-3.000000
G01 X42.934062 Y265.383661 Z-3.000000
G01 X42.934062 Y275.383531 Z-3.000000
G00 Z13.000000

(End cutting path id: path19591)


(Start cutting path id: path19589)
(Change tool to Cylindrical cutter)

G00 Z13.000000
G00 X42.934062 Y246.129701

G01 Z-1.500000 F100.0(Penetrate)
G01 X54.933912 Y246.129701 Z-1.500000 F200.000000
G01 X54.933912 Y236.129821 Z-1.500000
G01 X42.934062 Y236.129821 Z-1.500000
G01 X42.934062 Y246.129701 Z-1.500000
G00 Z13.000000

(End cutting path id: path19589)


(Start cutting path id: path19589)
(Change tool to Cylindrical cutter)

G00 Z13.000000
G00 X42.934062 Y246.129701

G01 Z-3.000000 F100.0(Penetrate)
G01 X54.933912 Y246.129701 Z-3.000000 F200.000000
G01 X54.933912 Y236.129821 Z-3.000000
G01 X42.934062 Y236.129821 Z-3.000000
G01 X42.934062 Y246.129701 Z-3.000000
G00 Z13.000000

(End cutting path id: path19589)


(Start cutting path id: path19587)
(Change tool to Cylindrical cutter)

G00 Z13.000000
G00 X42.934062 Y205.404427

G01 Z-1.500000 F100.0(Penetrate)
G01 X54.933912 Y205.404427 Z-1.500000 F200.000000
G01 X54.933912 Y195.404557 Z-1.500000
G01 X42.934062 Y195.404557 Z-1.500000
G01 X42.934062 Y205.404427 Z-1.500000
G00 Z13.000000

(End cutting path id: path19587)


(Start cutting path id: path19587)
(Change tool to Cylindrical cutter)

G00 Z13.000000
G00 X42.934062 Y205.404427

G01 Z-3.000000 F100.0(Penetrate)
G01 X54.933912 Y205.404427 Z-3.000000 F200.000000
G01 X54.933912 Y195.404557 Z-3.000000
G01 X42.934062 Y195.404557 Z-3.000000
G01 X42.934062 Y205.404427 Z-3.000000
G00 Z13.000000

(End cutting path id: path19587)


(Start cutting path id: path19553)
(Change tool to Cylindrical cutter)

G00 Z13.000000
G00 X39.934102 Y275.883531

G01 Z-1.500000 F100.0(Penetrate)
G01 X58.433872 Y275.883531 Z-1.500000 F200.000000
G01 X58.433872 Y260.533701 Z-1.500000
G01 X45.734032 Y260.533701 Z-1.500000
G01 X45.734032 Y246.629691 Z-1.500000
G01 X58.433872 Y246.629691 Z-1.500000
G01 X58.433872 Y232.725687 Z-1.500000
G01 X58.433872 Y229.228987 Z-1.500000
G01 X58.433872 Y213.754307 Z-1.500000
G01 X58.433872 Y194.904557 Z-1.500000
G01 X39.934102 Y194.904557 Z-1.500000
G00 Z13.000000

(End cutting path id: path19553)


(Start cutting path id: path19553)
(Change tool to Cylindrical cutter)

G00 Z13.000000
G00 X39.934102 Y275.883531

G01 Z-3.000000 F100.0(Penetrate)
G01 X58.433872 Y275.883531 Z-3.000000 F200.000000
G01 X58.433872 Y260.533701 Z-3.000000
G01 X45.734032 Y260.533701 Z-3.000000
G01 X45.734032 Y246.629691 Z-3.000000
G01 X58.433872 Y246.629691 Z-3.000000
G01 X58.433872 Y232.725687 Z-3.000000
G01 X58.433872 Y229.228987 Z-3.000000
G01 X58.433872 Y213.754307 Z-3.000000
G01 X58.433872 Y194.904557 Z-3.000000
G01 X39.934102 Y194.904557 Z-3.000000
G00 Z13.000000

(End cutting path id: path19553)


(Start cutting path id: path19439)
(Change tool to Cylindrical cutter)

G00 Z13.000000
G00 X39.934102 Y260.533701

G01 Z-1.500000 F100.0(Penetrate)
G01 X45.234032 Y260.533701 Z-1.500000 F200.000000
G00 Z13.000000

(End cutting path id: path19439)


(Start cutting path id: path19439)
(Change tool to Cylindrical cutter)

G00 Z13.000000
G00 X39.934102 Y260.533701

G01 Z-3.000000 F100.0(Penetrate)
G01 X45.234032 Y260.533701 Z-3.000000 F200.000000
G00 Z13.000000

(End cutting path id: path19439)


(Start cutting path id: path19417)
(Change tool to Cylindrical cutter)

G00 Z13.000000
G00 X39.934102 Y275.383531

G01 Z-1.500000 F100.0(Penetrate)
G01 X39.934102 Y260.533701 Z-1.500000 F200.000000
G01 X39.934102 Y232.725687 Z-1.500000
G01 X39.934102 Y229.228987 Z-1.500000
G01 X39.934102 Y213.754307 Z-1.500000
G01 X39.934102 Y195.404557 Z-1.500000
G00 Z13.000000

(End cutting path id: path19417)


(Start cutting path id: path19417)
(Change tool to Cylindrical cutter)

G00 Z13.000000
G00 X39.934102 Y275.383531

G01 Z-3.000000 F100.0(Penetrate)
G01 X39.934102 Y260.533701 Z-3.000000 F200.000000
G01 X39.934102 Y232.725687 Z-3.000000
G01 X39.934102 Y229.228987 Z-3.000000
G01 X39.934102 Y213.754307 Z-3.000000
G01 X39.934102 Y195.404557 Z-3.000000
G00 Z13.000000

(End cutting path id: path19417)


(Start cutting path id: path19583)
(Change tool to Cylindrical cutter)

G00 Z13.000000
G00 X78.817651 Y160.765920

G01 Z-1.500000 F100.0(Penetrate)
G01 X78.595182 Y117.625880 Z-1.500000 F200.000000
G00 Z13.000000

(End cutting path id: path19583)


(Start cutting path id: path19583)
(Change tool to Cylindrical cutter)

G00 Z13.000000
G00 X78.817651 Y160.765920

G01 Z-3.000000 F100.0(Penetrate)
G01 X78.595182 Y117.625880 Z-3.000000 F200.000000
G00 Z13.000000

(End cutting path id: path19583)


(Start cutting path id: path19575)
(Change tool to Cylindrical cutter)

G00 Z13.000000
G00 X39.475588 Y149.874420

G01 Z-1.500000 F100.0(Penetrate)
G01 X25.345028 Y149.874420 Z-1.500000 F200.000000
G01 X25.345028 Y135.877380 Z-1.500000
G00 Z13.000000

(End cutting path id: path19575)


(Start cutting path id: path19575)
(Change tool to Cylindrical cutter)

G00 Z13.000000
G00 X39.475588 Y149.874420

G01 Z-3.000000 F100.0(Penetrate)
G01 X25.345028 Y149.874420 Z-3.000000 F200.000000
G01 X25.345028 Y135.877380 Z-3.000000
G00 Z13.000000

(End cutting path id: path19575)


(Start cutting path id: path19573)
(Change tool to Cylindrical cutter)

G00 Z13.000000
G00 X37.828308 Y138.937490

G01 Z-1.500000 F100.0(Penetrate)
G01 X37.828308 Y137.217510 Z-1.500000 F200.000000
G01 X36.108328 Y137.217510 Z-1.500000
G01 X36.108328 Y138.937490 Z-1.500000
G01 X37.828308 Y138.937490 Z-1.500000
G00 Z13.000000

(End cutting path id: path19573)


(Start cutting path id: path19573)
(Change tool to Cylindrical cutter)

G00 Z13.000000
G00 X37.828308 Y138.937490

G01 Z-3.000000 F100.0(Penetrate)
G01 X37.828308 Y137.217510 Z-3.000000 F200.000000
G01 X36.108328 Y137.217510 Z-3.000000
G01 X36.108328 Y138.937490 Z-3.000000
G01 X37.828308 Y138.937490 Z-3.000000
G00 Z13.000000

(End cutting path id: path19573)


(Start cutting path id: path19571)
(Change tool to Cylindrical cutter)

G00 Z13.000000
G00 X34.208358 Y138.937490

G01 Z-1.500000 F100.0(Penetrate)
G01 X34.208358 Y137.217510 Z-1.500000 F200.000000
G01 X32.488378 Y137.217510 Z-1.500000
G01 X32.488378 Y138.937490 Z-1.500000
G01 X34.208358 Y138.937490 Z-1.500000
G00 Z13.000000

(End cutting path id: path19571)


(Start cutting path id: path19571)
(Change tool to Cylindrical cutter)

G00 Z13.000000
G00 X34.208358 Y138.937490

G01 Z-3.000000 F100.0(Penetrate)
G01 X34.208358 Y137.217510 Z-3.000000 F200.000000
G01 X32.488378 Y137.217510 Z-3.000000
G01 X32.488378 Y138.937490 Z-3.000000
G01 X34.208358 Y138.937490 Z-3.000000
G00 Z13.000000

(End cutting path id: path19571)


(Start cutting path id: path19569)
(Change tool to Cylindrical cutter)

G00 Z13.000000
G00 X30.588398 Y138.937490

G01 Z-1.500000 F100.0(Penetrate)
G01 X30.588398 Y137.217510 Z-1.500000 F200.000000
G01 X28.868418 Y137.217510 Z-1.500000
G01 X28.868418 Y138.937490 Z-1.500000
G01 X30.588398 Y138.937490 Z-1.500000
G00 Z13.000000

(End cutting path id: path19569)


(Start cutting path id: path19569)
(Change tool to Cylindrical cutter)

G00 Z13.000000
G00 X30.588398 Y138.937490

G01 Z-3.000000 F100.0(Penetrate)
G01 X30.588398 Y137.217510 Z-3.000000 F200.000000
G01 X28.868418 Y137.217510 Z-3.000000
G01 X28.868418 Y138.937490 Z-3.000000
G01 X30.588398 Y138.937490 Z-3.000000
G00 Z13.000000

(End cutting path id: path19569)


(Start cutting path id: path19567)
(Change tool to Cylindrical cutter)

G00 Z13.000000
G00 X37.828308 Y142.557450

G01 Z-1.500000 F100.0(Penetrate)
G01 X37.828308 Y140.837470 Z-1.500000 F200.000000
G01 X36.108328 Y140.837470 Z-1.500000
G01 X36.108328 Y142.557450 Z-1.500000
G01 X37.828308 Y142.557450 Z-1.500000
G00 Z13.000000

(End cutting path id: path19567)


(Start cutting path id: path19567)
(Change tool to Cylindrical cutter)

G00 Z13.000000
G00 X37.828308 Y142.557450

G01 Z-3.000000 F100.0(Penetrate)
G01 X37.828308 Y140.837470 Z-3.000000 F200.000000
G01 X36.108328 Y140.837470 Z-3.000000
G01 X36.108328 Y142.557450 Z-3.000000
G01 X37.828308 Y142.557450 Z-3.000000
G00 Z13.000000

(End cutting path id: path19567)


(Start cutting path id: path19565)
(Change tool to Cylindrical cutter)

G00 Z13.000000
G00 X34.208358 Y142.557450

G01 Z-1.500000 F100.0(Penetrate)
G01 X34.208358 Y140.837470 Z-1.500000 F200.000000
G01 X32.488378 Y140.837470 Z-1.500000
G01 X32.488378 Y142.557450 Z-1.500000
G01 X34.208358 Y142.557450 Z-1.500000
G00 Z13.000000

(End cutting path id: path19565)


(Start cutting path id: path19565)
(Change tool to Cylindrical cutter)

G00 Z13.000000
G00 X34.208358 Y142.557450

G01 Z-3.000000 F100.0(Penetrate)
G01 X34.208358 Y140.837470 Z-3.000000 F200.000000
G01 X32.488378 Y140.837470 Z-3.000000
G01 X32.488378 Y142.557450 Z-3.000000
G01 X34.208358 Y142.557450 Z-3.000000
G00 Z13.000000

(End cutting path id: path19565)


(Start cutting path id: path19563)
(Change tool to Cylindrical cutter)

G00 Z13.000000
G00 X30.588398 Y142.557450

G01 Z-1.500000 F100.0(Penetrate)
G01 X30.588398 Y140.837470 Z-1.500000 F200.000000
G01 X28.868418 Y140.837470 Z-1.500000
G01 X28.868418 Y142.557450 Z-1.500000
G01 X30.588398 Y142.557450 Z-1.500000
G00 Z13.000000

(End cutting path id: path19563)


(Start cutting path id: path19563)
(Change tool to Cylindrical cutter)

G00 Z13.000000
G00 X30.588398 Y142.557450

G01 Z-3.000000 F100.0(Penetrate)
G01 X30.588398 Y140.837470 Z-3.000000 F200.000000
G01 X28.868418 Y140.837470 Z-3.000000
G01 X28.868418 Y142.557450 Z-3.000000
G01 X30.588398 Y142.557450 Z-3.000000
G00 Z13.000000

(End cutting path id: path19563)


(Start cutting path id: path19561)
(Change tool to Cylindrical cutter)

G00 Z13.000000
G00 X37.828308 Y146.177400

G01 Z-1.500000 F100.0(Penetrate)
G01 X37.828308 Y144.457420 Z-1.500000 F200.000000
G01 X36.108328 Y144.457420 Z-1.500000
G01 X36.108328 Y146.177400 Z-1.500000
G01 X37.828308 Y146.177400 Z-1.500000
G00 Z13.000000

(End cutting path id: path19561)


(Start cutting path id: path19561)
(Change tool to Cylindrical cutter)

G00 Z13.000000
G00 X37.828308 Y146.177400

G01 Z-3.000000 F100.0(Penetrate)
G01 X37.828308 Y144.457420 Z-3.000000 F200.000000
G01 X36.108328 Y144.457420 Z-3.000000
G01 X36.108328 Y146.177400 Z-3.000000
G01 X37.828308 Y146.177400 Z-3.000000
G00 Z13.000000

(End cutting path id: path19561)


(Start cutting path id: path19559)
(Change tool to Cylindrical cutter)

G00 Z13.000000
G00 X34.208358 Y146.177400

G01 Z-1.500000 F100.0(Penetrate)
G01 X34.208358 Y144.457420 Z-1.500000 F200.000000
G01 X32.488378 Y144.457420 Z-1.500000
G01 X32.488378 Y146.177400 Z-1.500000
G01 X34.208358 Y146.177400 Z-1.500000
G00 Z13.000000

(End cutting path id: path19559)


(Start cutting path id: path19559)
(Change tool to Cylindrical cutter)

G00 Z13.000000
G00 X34.208358 Y146.177400

G01 Z-3.000000 F100.0(Penetrate)
G01 X34.208358 Y144.457420 Z-3.000000 F200.000000
G01 X32.488378 Y144.457420 Z-3.000000
G01 X32.488378 Y146.177400 Z-3.000000
G01 X34.208358 Y146.177400 Z-3.000000
G00 Z13.000000

(End cutting path id: path19559)


(Start cutting path id: path19557)
(Change tool to Cylindrical cutter)

G00 Z13.000000
G00 X30.588398 Y146.177400

G01 Z-1.500000 F100.0(Penetrate)
G01 X30.588398 Y144.457420 Z-1.500000 F200.000000
G01 X28.868418 Y144.457420 Z-1.500000
G01 X28.868418 Y146.177400 Z-1.500000
G01 X30.588398 Y146.177400 Z-1.500000
G00 Z13.000000

(End cutting path id: path19557)


(Start cutting path id: path19557)
(Change tool to Cylindrical cutter)

G00 Z13.000000
G00 X30.588398 Y146.177400

G01 Z-3.000000 F100.0(Penetrate)
G01 X30.588398 Y144.457420 Z-3.000000 F200.000000
G01 X28.868418 Y144.457420 Z-3.000000
G01 X28.868418 Y146.177400 Z-3.000000
G01 X30.588398 Y146.177400 Z-3.000000
G00 Z13.000000

(End cutting path id: path19557)


(Start cutting path id: path19551)
(Change tool to Cylindrical cutter)

G00 Z13.000000
G00 X88.045052 Y67.596410

G01 Z-1.500000 F100.0(Penetrate)
G01 X88.045052 Y42.596600 Z-1.500000 F200.000000
G01 X69.545292 Y42.596600 Z-1.500000
G00 Z13.000000

(End cutting path id: path19551)


(Start cutting path id: path19551)
(Change tool to Cylindrical cutter)

G00 Z13.000000
G00 X88.045052 Y67.596410

G01 Z-3.000000 F100.0(Penetrate)
G01 X88.045052 Y42.596600 Z-3.000000 F200.000000
G01 X69.545292 Y42.596600 Z-3.000000
G00 Z13.000000

(End cutting path id: path19551)


(Start cutting path id: path19549)
(Change tool to Cylindrical cutter)

G00 Z13.000000
G00 X40.926894 Y154.894182

G01 Z-1.500000 F100.0(Penetrate)
G01 X40.926624 Y161.394102 Z-1.500000 F200.000000
G01 X40.925834 Y179.310522 Z-1.500000
G01 X40.925574 Y185.810442 Z-1.500000
G00 Z13.000000

(End cutting path id: path19549)


(Start cutting path id: path19549)
(Change tool to Cylindrical cutter)

G00 Z13.000000
G00 X40.926894 Y154.894182

G01 Z-3.000000 F100.0(Penetrate)
G01 X40.926624 Y161.394102 Z-3.000000 F200.000000
G01 X40.925834 Y179.310522 Z-3.000000
G01 X40.925574 Y185.810442 Z-3.000000
G00 Z13.000000

(End cutting path id: path19549)


(Start cutting path id: path19427)
(Change tool to Cylindrical cutter)

G00 Z13.000000
G00 X41.426884 Y154.894202

G01 Z-1.500000 F100.0(Penetrate)
G01 X51.787524 Y154.894732 Z-1.500000 F200.000000
G01 X51.787254 Y161.394642 Z-1.500000
G01 X58.287164 Y161.394912 Z-1.500000
G01 X58.285164 Y179.311332 Z-1.500000
G01 X51.785244 Y179.311072 Z-1.500000
G01 X51.784984 Y185.810992 Z-1.500000
G01 X41.425114 Y185.810462 Z-1.500000
G00 Z13.000000

(End cutting path id: path19427)


(Start cutting path id: path19427)
(Change tool to Cylindrical cutter)

G00 Z13.000000
G00 X41.426884 Y154.894202

G01 Z-3.000000 F100.0(Penetrate)
G01 X51.787524 Y154.894732 Z-3.000000 F200.000000
G01 X51.787254 Y161.394642 Z-3.000000
G01 X58.287164 Y161.394912 Z-3.000000
G01 X58.285164 Y179.311332 Z-3.000000
G01 X51.785244 Y179.311072 Z-3.000000
G01 X51.784984 Y185.810992 Z-3.000000
G01 X41.425114 Y185.810462 Z-3.000000
G00 Z13.000000

(End cutting path id: path19427)


(Start cutting path id: path19547)
(Change tool to Cylindrical cutter)

G00 Z13.000000
G00 X10.941639 Y154.345011

G01 Z-1.500000 F100.0(Penetrate)
G01 X10.941639 Y160.844931 Z-1.500000 F200.000000
G01 X10.941639 Y178.761361 Z-1.500000
G01 X10.941639 Y185.261281 Z-1.500000
G00 Z13.000000

(End cutting path id: path19547)


(Start cutting path id: path19547)
(Change tool to Cylindrical cutter)

G00 Z13.000000
G00 X10.941639 Y154.345011

G01 Z-3.000000 F100.0(Penetrate)
G01 X10.941639 Y160.844931 Z-3.000000 F200.000000
G01 X10.941639 Y178.761361 Z-3.000000
G01 X10.941639 Y185.261281 Z-3.000000
G00 Z13.000000

(End cutting path id: path19547)


(Start cutting path id: path19429)
(Change tool to Cylindrical cutter)

G00 Z13.000000
G00 X11.441629 Y154.345011

G01 Z-1.500000 F100.0(Penetrate)
G01 X21.802259 Y154.345011 Z-1.500000 F200.000000
G01 X21.802259 Y160.844931 Z-1.500000
G01 X28.302169 Y160.844931 Z-1.500000
G01 X28.301369 Y178.761361 Z-1.500000
G01 X21.801449 Y178.761361 Z-1.500000
G01 X21.801449 Y185.261281 Z-1.500000
G01 X11.441589 Y185.261281 Z-1.500000
G00 Z13.000000

(End cutting path id: path19429)


(Start cutting path id: path19429)
(Change tool to Cylindrical cutter)

G00 Z13.000000
G00 X11.441629 Y154.345011

G01 Z-3.000000 F100.0(Penetrate)
G01 X21.802259 Y154.345011 Z-3.000000 F200.000000
G01 X21.802259 Y160.844931 Z-3.000000
G01 X28.302169 Y160.844931 Z-3.000000
G01 X28.301369 Y178.761361 Z-3.000000
G01 X21.801449 Y178.761361 Z-3.000000
G01 X21.801449 Y185.261281 Z-3.000000
G01 X11.441589 Y185.261281 Z-3.000000
G00 Z13.000000

(End cutting path id: path19429)


(Start cutting path id: path19545)
(Change tool to Cylindrical cutter)

G00 Z13.000000
G00 X88.045052 Y178.518270

G01 Z-1.500000 F100.0(Penetrate)
G01 X88.045052 Y160.722130 Z-1.500000 F200.000000
G01 X88.045052 Y131.622480 Z-1.500000
G01 X88.045052 Y117.625880 Z-1.500000
G01 X88.045052 Y103.442930 Z-1.500000
G01 X88.045052 Y85.512830 Z-1.500000
G00 Z13.000000

(End cutting path id: path19545)


(Start cutting path id: path19545)
(Change tool to Cylindrical cutter)

G00 Z13.000000
G00 X88.045052 Y178.518270

G01 Z-3.000000 F100.0(Penetrate)
G01 X88.045052 Y160.722130 Z-3.000000 F200.000000
G01 X88.045052 Y131.622480 Z-3.000000
G01 X88.045052 Y117.625880 Z-3.000000
G01 X88.045052 Y103.442930 Z-3.000000
G01 X88.045052 Y85.512830 Z-3.000000
G00 Z13.000000

(End cutting path id: path19545)


(Start cutting path id: path19543)
(Change tool to Cylindrical cutter)

G00 Z13.000000
G00 X69.545292 Y235.567914

G01 Z-1.500000 F100.0(Penetrate)
G01 X88.045052 Y235.567914 Z-1.500000 F200.000000
G01 X88.045052 Y196.434690 Z-1.500000
G00 Z13.000000

(End cutting path id: path19543)


(Start cutting path id: path19543)
(Change tool to Cylindrical cutter)

G00 Z13.000000
G00 X69.545292 Y235.567914

G01 Z-3.000000 F100.0(Penetrate)
G01 X88.045052 Y235.567914 Z-3.000000 F200.000000
G01 X88.045052 Y196.434690 Z-3.000000
G00 Z13.000000

(End cutting path id: path19543)


(Start cutting path id: path19541)
(Change tool to Cylindrical cutter)

G00 Z13.000000
G00 X42.609018 Y63.669630

G01 Z-1.500000 F100.0(Penetrate)
G01 X42.609018 Y61.949650 Z-1.500000 F200.000000
G01 X40.889038 Y61.949650 Z-1.500000
G01 X40.889038 Y63.669630 Z-1.500000
G01 X42.609018 Y63.669630 Z-1.500000
G00 Z13.000000

(End cutting path id: path19541)


(Start cutting path id: path19541)
(Change tool to Cylindrical cutter)

G00 Z13.000000
G00 X42.609018 Y63.669630

G01 Z-3.000000 F100.0(Penetrate)
G01 X42.609018 Y61.949650 Z-3.000000 F200.000000
G01 X40.889038 Y61.949650 Z-3.000000
G01 X40.889038 Y63.669630 Z-3.000000
G01 X42.609018 Y63.669630 Z-3.000000
G00 Z13.000000

(End cutting path id: path19541)


(Start cutting path id: path19539)
(Change tool to Cylindrical cutter)

G00 Z13.000000
G00 X46.228968 Y63.669630

G01 Z-1.500000 F100.0(Penetrate)
G01 X46.228968 Y61.949650 Z-1.500000 F200.000000
G01 X44.508998 Y61.949650 Z-1.500000
G01 X44.508998 Y63.669630 Z-1.500000
G01 X46.228968 Y63.669630 Z-1.500000
G00 Z13.000000

(End cutting path id: path19539)


(Start cutting path id: path19539)
(Change tool to Cylindrical cutter)

G00 Z13.000000
G00 X46.228968 Y63.669630

G01 Z-3.000000 F100.0(Penetrate)
G01 X46.228968 Y61.949650 Z-3.000000 F200.000000
G01 X44.508998 Y61.949650 Z-3.000000
G01 X44.508998 Y63.669630 Z-3.000000
G01 X46.228968 Y63.669630 Z-3.000000
G00 Z13.000000

(End cutting path id: path19539)


(Start cutting path id: path19537)
(Change tool to Cylindrical cutter)

G00 Z13.000000
G00 X49.848928 Y63.669630

G01 Z-1.500000 F100.0(Penetrate)
G01 X49.848928 Y61.949650 Z-1.500000 F200.000000
G01 X48.128948 Y61.949650 Z-1.500000
G01 X48.128948 Y63.669630 Z-1.500000
G01 X49.848928 Y63.669630 Z-1.500000
G00 Z13.000000

(End cutting path id: path19537)


(Start cutting path id: path19537)
(Change tool to Cylindrical cutter)

G00 Z13.000000
G00 X49.848928 Y63.669630

G01 Z-3.000000 F100.0(Penetrate)
G01 X49.848928 Y61.949650 Z-3.000000 F200.000000
G01 X48.128948 Y61.949650 Z-3.000000
G01 X48.128948 Y63.669630 Z-3.000000
G01 X49.848928 Y63.669630 Z-3.000000
G00 Z13.000000

(End cutting path id: path19537)


(Start cutting path id: path19535)
(Change tool to Cylindrical cutter)

G00 Z13.000000
G00 X53.468882 Y63.669630

G01 Z-1.500000 F100.0(Penetrate)
G01 X53.468882 Y61.949650 Z-1.500000 F200.000000
G01 X51.748898 Y61.949650 Z-1.500000
G01 X51.748898 Y63.669630 Z-1.500000
G01 X53.468882 Y63.669630 Z-1.500000
G00 Z13.000000

(End cutting path id: path19535)


(Start cutting path id: path19535)
(Change tool to Cylindrical cutter)

G00 Z13.000000
G00 X53.468882 Y63.669630

G01 Z-3.000000 F100.0(Penetrate)
G01 X53.468882 Y61.949650 Z-3.000000 F200.000000
G01 X51.748898 Y61.949650 Z-3.000000
G01 X51.748898 Y63.669630 Z-3.000000
G01 X53.468882 Y63.669630 Z-3.000000
G00 Z13.000000

(End cutting path id: path19535)


(Start cutting path id: path19533)
(Change tool to Cylindrical cutter)

G00 Z13.000000
G00 X53.468882 Y67.289580

G01 Z-1.500000 F100.0(Penetrate)
G01 X53.468882 Y65.569610 Z-1.500000 F200.000000
G01 X51.748898 Y65.569610 Z-1.500000
G01 X51.748898 Y67.289580 Z-1.500000
G01 X53.468882 Y67.289580 Z-1.500000
G00 Z13.000000

(End cutting path id: path19533)


(Start cutting path id: path19533)
(Change tool to Cylindrical cutter)

G00 Z13.000000
G00 X53.468882 Y67.289580

G01 Z-3.000000 F100.0(Penetrate)
G01 X53.468882 Y65.569610 Z-3.000000 F200.000000
G01 X51.748898 Y65.569610 Z-3.000000
G01 X51.748898 Y67.289580 Z-3.000000
G01 X53.468882 Y67.289580 Z-3.000000
G00 Z13.000000

(End cutting path id: path19533)


(Start cutting path id: path19531)
(Change tool to Cylindrical cutter)

G00 Z13.000000
G00 X49.848928 Y67.289580

G01 Z-1.500000 F100.0(Penetrate)
G01 X49.848928 Y65.569610 Z-1.500000 F200.000000
G01 X48.128948 Y65.569610 Z-1.500000
G01 X48.128948 Y67.289580 Z-1.500000
G01 X49.848928 Y67.289580 Z-1.500000
G00 Z13.000000

(End cutting path id: path19531)


(Start cutting path id: path19531)
(Change tool to Cylindrical cutter)

G00 Z13.000000
G00 X49.848928 Y67.289580

G01 Z-3.000000 F100.0(Penetrate)
G01 X49.848928 Y65.569610 Z-3.000000 F200.000000
G01 X48.128948 Y65.569610 Z-3.000000
G01 X48.128948 Y67.289580 Z-3.000000
G01 X49.848928 Y67.289580 Z-3.000000
G00 Z13.000000

(End cutting path id: path19531)


(Start cutting path id: path19529)
(Change tool to Cylindrical cutter)

G00 Z13.000000
G00 X46.228968 Y67.289580

G01 Z-1.500000 F100.0(Penetrate)
G01 X46.228968 Y65.569610 Z-1.500000 F200.000000
G01 X44.508998 Y65.569610 Z-1.500000
G01 X44.508998 Y67.289580 Z-1.500000
G01 X46.228968 Y67.289580 Z-1.500000
G00 Z13.000000

(End cutting path id: path19529)


(Start cutting path id: path19529)
(Change tool to Cylindrical cutter)

G00 Z13.000000
G00 X46.228968 Y67.289580

G01 Z-3.000000 F100.0(Penetrate)
G01 X46.228968 Y65.569610 Z-3.000000 F200.000000
G01 X44.508998 Y65.569610 Z-3.000000
G01 X44.508998 Y67.289580 Z-3.000000
G01 X46.228968 Y67.289580 Z-3.000000
G00 Z13.000000

(End cutting path id: path19529)


(Start cutting path id: path19527)
(Change tool to Cylindrical cutter)

G00 Z13.000000
G00 X42.609018 Y67.289580

G01 Z-1.500000 F100.0(Penetrate)
G01 X42.609018 Y65.569610 Z-1.500000 F200.000000
G01 X40.889038 Y65.569610 Z-1.500000
G01 X40.889038 Y67.289580 Z-1.500000
G01 X42.609018 Y67.289580 Z-1.500000
G00 Z13.000000

(End cutting path id: path19527)


(Start cutting path id: path19527)
(Change tool to Cylindrical cutter)

G00 Z13.000000
G00 X42.609018 Y67.289580

G01 Z-3.000000 F100.0(Penetrate)
G01 X42.609018 Y65.569610 Z-3.000000 F200.000000
G01 X40.889038 Y65.569610 Z-3.000000
G01 X40.889038 Y67.289580 Z-3.000000
G01 X42.609018 Y67.289580 Z-3.000000
G00 Z13.000000

(End cutting path id: path19527)


(Start cutting path id: path19525)
(Change tool to Cylindrical cutter)

G00 Z13.000000
G00 X53.468882 Y70.909540

G01 Z-1.500000 F100.0(Penetrate)
G01 X53.468882 Y69.189560 Z-1.500000 F200.000000
G01 X51.748898 Y69.189560 Z-1.500000
G01 X51.748898 Y70.909540 Z-1.500000
G01 X53.468882 Y70.909540 Z-1.500000
G00 Z13.000000

(End cutting path id: path19525)


(Start cutting path id: path19525)
(Change tool to Cylindrical cutter)

G00 Z13.000000
G00 X53.468882 Y70.909540

G01 Z-3.000000 F100.0(Penetrate)
G01 X53.468882 Y69.189560 Z-3.000000 F200.000000
G01 X51.748898 Y69.189560 Z-3.000000
G01 X51.748898 Y70.909540 Z-3.000000
G01 X53.468882 Y70.909540 Z-3.000000
G00 Z13.000000

(End cutting path id: path19525)


(Start cutting path id: path19523)
(Change tool to Cylindrical cutter)

G00 Z13.000000
G00 X49.848928 Y70.909540

G01 Z-1.500000 F100.0(Penetrate)
G01 X49.848928 Y69.189560 Z-1.500000 F200.000000
G01 X48.128948 Y69.189560 Z-1.500000
G01 X48.128948 Y70.909540 Z-1.500000
G01 X49.848928 Y70.909540 Z-1.500000
G00 Z13.000000

(End cutting path id: path19523)


(Start cutting path id: path19523)
(Change tool to Cylindrical cutter)

G00 Z13.000000
G00 X49.848928 Y70.909540

G01 Z-3.000000 F100.0(Penetrate)
G01 X49.848928 Y69.189560 Z-3.000000 F200.000000
G01 X48.128948 Y69.189560 Z-3.000000
G01 X48.128948 Y70.909540 Z-3.000000
G01 X49.848928 Y70.909540 Z-3.000000
G00 Z13.000000

(End cutting path id: path19523)


(Start cutting path id: path19521)
(Change tool to Cylindrical cutter)

G00 Z13.000000
G00 X46.228968 Y70.909540

G01 Z-1.500000 F100.0(Penetrate)
G01 X46.228968 Y69.189560 Z-1.500000 F200.000000
G01 X44.508998 Y69.189560 Z-1.500000
G01 X44.508998 Y70.909540 Z-1.500000
G01 X46.228968 Y70.909540 Z-1.500000
G00 Z13.000000

(End cutting path id: path19521)


(Start cutting path id: path19521)
(Change tool to Cylindrical cutter)

G00 Z13.000000
G00 X46.228968 Y70.909540

G01 Z-3.000000 F100.0(Penetrate)
G01 X46.228968 Y69.189560 Z-3.000000 F200.000000
G01 X44.508998 Y69.189560 Z-3.000000
G01 X44.508998 Y70.909540 Z-3.000000
G01 X46.228968 Y70.909540 Z-3.000000
G00 Z13.000000

(End cutting path id: path19521)


(Start cutting path id: path19519)
(Change tool to Cylindrical cutter)

G00 Z13.000000
G00 X42.609018 Y70.909540

G01 Z-1.500000 F100.0(Penetrate)
G01 X42.609018 Y69.189560 Z-1.500000 F200.000000
G01 X40.889038 Y69.189560 Z-1.500000
G01 X40.889038 Y70.909540 Z-1.500000
G01 X42.609018 Y70.909540 Z-1.500000
G00 Z13.000000

(End cutting path id: path19519)


(Start cutting path id: path19519)
(Change tool to Cylindrical cutter)

G00 Z13.000000
G00 X42.609018 Y70.909540

G01 Z-3.000000 F100.0(Penetrate)
G01 X42.609018 Y69.189560 Z-3.000000 F200.000000
G01 X40.889038 Y69.189560 Z-3.000000
G01 X40.889038 Y70.909540 Z-3.000000
G01 X42.609018 Y70.909540 Z-3.000000
G00 Z13.000000

(End cutting path id: path19519)


(Start cutting path id: path19517)
(Change tool to Cylindrical cutter)

G00 Z13.000000
G00 X53.468882 Y74.529490

G01 Z-1.500000 F100.0(Penetrate)
G01 X53.468882 Y72.809510 Z-1.500000 F200.000000
G01 X51.748898 Y72.809510 Z-1.500000
G01 X51.748898 Y74.529490 Z-1.500000
G01 X53.468882 Y74.529490 Z-1.500000
G00 Z13.000000

(End cutting path id: path19517)


(Start cutting path id: path19517)
(Change tool to Cylindrical cutter)

G00 Z13.000000
G00 X53.468882 Y74.529490

G01 Z-3.000000 F100.0(Penetrate)
G01 X53.468882 Y72.809510 Z-3.000000 F200.000000
G01 X51.748898 Y72.809510 Z-3.000000
G01 X51.748898 Y74.529490 Z-3.000000
G01 X53.468882 Y74.529490 Z-3.000000
G00 Z13.000000

(End cutting path id: path19517)


(Start cutting path id: path19515)
(Change tool to Cylindrical cutter)

G00 Z13.000000
G00 X49.848928 Y74.529490

G01 Z-1.500000 F100.0(Penetrate)
G01 X49.848928 Y72.809510 Z-1.500000 F200.000000
G01 X48.128948 Y72.809510 Z-1.500000
G01 X48.128948 Y74.529490 Z-1.500000
G01 X49.848928 Y74.529490 Z-1.500000
G00 Z13.000000

(End cutting path id: path19515)


(Start cutting path id: path19515)
(Change tool to Cylindrical cutter)

G00 Z13.000000
G00 X49.848928 Y74.529490

G01 Z-3.000000 F100.0(Penetrate)
G01 X49.848928 Y72.809510 Z-3.000000 F200.000000
G01 X48.128948 Y72.809510 Z-3.000000
G01 X48.128948 Y74.529490 Z-3.000000
G01 X49.848928 Y74.529490 Z-3.000000
G00 Z13.000000

(End cutting path id: path19515)


(Start cutting path id: path19513)
(Change tool to Cylindrical cutter)

G00 Z13.000000
G00 X46.228968 Y74.529490

G01 Z-1.500000 F100.0(Penetrate)
G01 X46.228968 Y72.809510 Z-1.500000 F200.000000
G01 X44.508998 Y72.809510 Z-1.500000
G01 X44.508998 Y74.529490 Z-1.500000
G01 X46.228968 Y74.529490 Z-1.500000
G00 Z13.000000

(End cutting path id: path19513)


(Start cutting path id: path19513)
(Change tool to Cylindrical cutter)

G00 Z13.000000
G00 X46.228968 Y74.529490

G01 Z-3.000000 F100.0(Penetrate)
G01 X46.228968 Y72.809510 Z-3.000000 F200.000000
G01 X44.508998 Y72.809510 Z-3.000000
G01 X44.508998 Y74.529490 Z-3.000000
G01 X46.228968 Y74.529490 Z-3.000000
G00 Z13.000000

(End cutting path id: path19513)


(Start cutting path id: path19511)
(Change tool to Cylindrical cutter)

G00 Z13.000000
G00 X42.609018 Y74.529490

G01 Z-1.500000 F100.0(Penetrate)
G01 X42.609018 Y72.809510 Z-1.500000 F200.000000
G01 X40.889038 Y72.809510 Z-1.500000
G01 X40.889038 Y74.529490 Z-1.500000
G01 X42.609018 Y74.529490 Z-1.500000
G00 Z13.000000

(End cutting path id: path19511)


(Start cutting path id: path19511)
(Change tool to Cylindrical cutter)

G00 Z13.000000
G00 X42.609018 Y74.529490

G01 Z-3.000000 F100.0(Penetrate)
G01 X42.609018 Y72.809510 Z-3.000000 F200.000000
G01 X40.889038 Y72.809510 Z-3.000000
G01 X40.889038 Y74.529490 Z-3.000000
G01 X42.609018 Y74.529490 Z-3.000000
G00 Z13.000000

(End cutting path id: path19511)


(Start cutting path id: path19509)
(Change tool to Cylindrical cutter)

G00 Z13.000000
G00 X22.983108 Y63.664850

G01 Z-1.500000 F100.0(Penetrate)
G01 X22.983108 Y61.944880 Z-1.500000 F200.000000
G01 X21.263128 Y61.944880 Z-1.500000
G01 X21.263128 Y63.664850 Z-1.500000
G01 X22.983108 Y63.664850 Z-1.500000
G00 Z13.000000

(End cutting path id: path19509)


(Start cutting path id: path19509)
(Change tool to Cylindrical cutter)

G00 Z13.000000
G00 X22.983108 Y63.664850

G01 Z-3.000000 F100.0(Penetrate)
G01 X22.983108 Y61.944880 Z-3.000000 F200.000000
G01 X21.263128 Y61.944880 Z-3.000000
G01 X21.263128 Y63.664850 Z-3.000000
G01 X22.983108 Y63.664850 Z-3.000000
G00 Z13.000000

(End cutting path id: path19509)


(Start cutting path id: path19507)
(Change tool to Cylindrical cutter)

G00 Z13.000000
G00 X19.363158 Y63.664850

G01 Z-1.500000 F100.0(Penetrate)
G01 X19.363158 Y61.944880 Z-1.500000 F200.000000
G01 X17.643178 Y61.944880 Z-1.500000
G01 X17.643178 Y63.664850 Z-1.500000
G01 X19.363158 Y63.664850 Z-1.500000
G00 Z13.000000

(End cutting path id: path19507)


(Start cutting path id: path19507)
(Change tool to Cylindrical cutter)

G00 Z13.000000
G00 X19.363158 Y63.664850

G01 Z-3.000000 F100.0(Penetrate)
G01 X19.363158 Y61.944880 Z-3.000000 F200.000000
G01 X17.643178 Y61.944880 Z-3.000000
G01 X17.643178 Y63.664850 Z-3.000000
G01 X19.363158 Y63.664850 Z-3.000000
G00 Z13.000000

(End cutting path id: path19507)


(Start cutting path id: path19505)
(Change tool to Cylindrical cutter)

G00 Z13.000000
G00 X15.743198 Y63.664850

G01 Z-1.500000 F100.0(Penetrate)
G01 X15.743198 Y61.944880 Z-1.500000 F200.000000
G01 X14.023228 Y61.944880 Z-1.500000
G01 X14.023228 Y63.664850 Z-1.500000
G01 X15.743198 Y63.664850 Z-1.500000
G00 Z13.000000

(End cutting path id: path19505)


(Start cutting path id: path19505)
(Change tool to Cylindrical cutter)

G00 Z13.000000
G00 X15.743198 Y63.664850

G01 Z-3.000000 F100.0(Penetrate)
G01 X15.743198 Y61.944880 Z-3.000000 F200.000000
G01 X14.023228 Y61.944880 Z-3.000000
G01 X14.023228 Y63.664850 Z-3.000000
G01 X15.743198 Y63.664850 Z-3.000000
G00 Z13.000000

(End cutting path id: path19505)


(Start cutting path id: path19503)
(Change tool to Cylindrical cutter)

G00 Z13.000000
G00 X15.743198 Y67.284810

G01 Z-1.500000 F100.0(Penetrate)
G01 X15.743198 Y65.564830 Z-1.500000 F200.000000
G01 X14.023228 Y65.564830 Z-1.500000
G01 X14.023228 Y67.284810 Z-1.500000
G01 X15.743198 Y67.284810 Z-1.500000
G00 Z13.000000

(End cutting path id: path19503)


(Start cutting path id: path19503)
(Change tool to Cylindrical cutter)

G00 Z13.000000
G00 X15.743198 Y67.284810

G01 Z-3.000000 F100.0(Penetrate)
G01 X15.743198 Y65.564830 Z-3.000000 F200.000000
G01 X14.023228 Y65.564830 Z-3.000000
G01 X14.023228 Y67.284810 Z-3.000000
G01 X15.743198 Y67.284810 Z-3.000000
G00 Z13.000000

(End cutting path id: path19503)


(Start cutting path id: path19501)
(Change tool to Cylindrical cutter)

G00 Z13.000000
G00 X19.363158 Y67.284810

G01 Z-1.500000 F100.0(Penetrate)
G01 X19.363158 Y65.564830 Z-1.500000 F200.000000
G01 X17.643178 Y65.564830 Z-1.500000
G01 X17.643178 Y67.284810 Z-1.500000
G01 X19.363158 Y67.284810 Z-1.500000
G00 Z13.000000

(End cutting path id: path19501)


(Start cutting path id: path19501)
(Change tool to Cylindrical cutter)

G00 Z13.000000
G00 X19.363158 Y67.284810

G01 Z-3.000000 F100.0(Penetrate)
G01 X19.363158 Y65.564830 Z-3.000000 F200.000000
G01 X17.643178 Y65.564830 Z-3.000000
G01 X17.643178 Y67.284810 Z-3.000000
G01 X19.363158 Y67.284810 Z-3.000000
G00 Z13.000000

(End cutting path id: path19501)


(Start cutting path id: path19499)
(Change tool to Cylindrical cutter)

G00 Z13.000000
G00 X22.983108 Y67.284810

G01 Z-1.500000 F100.0(Penetrate)
G01 X22.983108 Y65.564830 Z-1.500000 F200.000000
G01 X21.263128 Y65.564830 Z-1.500000
G01 X21.263128 Y67.284810 Z-1.500000
G01 X22.983108 Y67.284810 Z-1.500000
G00 Z13.000000

(End cutting path id: path19499)


(Start cutting path id: path19499)
(Change tool to Cylindrical cutter)

G00 Z13.000000
G00 X22.983108 Y67.284810

G01 Z-3.000000 F100.0(Penetrate)
G01 X22.983108 Y65.564830 Z-3.000000 F200.000000
G01 X21.263128 Y65.564830 Z-3.000000
G01 X21.263128 Y67.284810 Z-3.000000
G01 X22.983108 Y67.284810 Z-3.000000
G00 Z13.000000

(End cutting path id: path19499)


(Start cutting path id: path19497)
(Change tool to Cylindrical cutter)

G00 Z13.000000
G00 X26.603058 Y67.284810

G01 Z-1.500000 F100.0(Penetrate)
G01 X26.603058 Y65.564830 Z-1.500000 F200.000000
G01 X24.883088 Y65.564830 Z-1.500000
G01 X24.883088 Y67.284810 Z-1.500000
G01 X26.603058 Y67.284810 Z-1.500000
G00 Z13.000000

(End cutting path id: path19497)


(Start cutting path id: path19497)
(Change tool to Cylindrical cutter)

G00 Z13.000000
G00 X26.603058 Y67.284810

G01 Z-3.000000 F100.0(Penetrate)
G01 X26.603058 Y65.564830 Z-3.000000 F200.000000
G01 X24.883088 Y65.564830 Z-3.000000
G01 X24.883088 Y67.284810 Z-3.000000
G01 X26.603058 Y67.284810 Z-3.000000
G00 Z13.000000

(End cutting path id: path19497)


(Start cutting path id: path19495)
(Change tool to Cylindrical cutter)

G00 Z13.000000
G00 X26.603058 Y63.664850

G01 Z-1.500000 F100.0(Penetrate)
G01 X26.603058 Y61.944880 Z-1.500000 F200.000000
G01 X24.883088 Y61.944880 Z-1.500000
G01 X24.883088 Y63.664850 Z-1.500000
G01 X26.603058 Y63.664850 Z-1.500000
G00 Z13.000000

(End cutting path id: path19495)


(Start cutting path id: path19495)
(Change tool to Cylindrical cutter)

G00 Z13.000000
G00 X26.603058 Y63.664850

G01 Z-3.000000 F100.0(Penetrate)
G01 X26.603058 Y61.944880 Z-3.000000 F200.000000
G01 X24.883088 Y61.944880 Z-3.000000
G01 X24.883088 Y63.664850 Z-3.000000
G01 X26.603058 Y63.664850 Z-3.000000
G00 Z13.000000

(End cutting path id: path19495)


(Start cutting path id: path19493)
(Change tool to Cylindrical cutter)

G00 Z13.000000
G00 X30.223018 Y63.664850

G01 Z-1.500000 F100.0(Penetrate)
G01 X30.223018 Y61.944880 Z-1.500000 F200.000000
G01 X28.503038 Y61.944880 Z-1.500000
G01 X28.503038 Y63.664850 Z-1.500000
G01 X30.223018 Y63.664850 Z-1.500000
G00 Z13.000000

(End cutting path id: path19493)


(Start cutting path id: path19493)
(Change tool to Cylindrical cutter)

G00 Z13.000000
G00 X30.223018 Y63.664850

G01 Z-3.000000 F100.0(Penetrate)
G01 X30.223018 Y61.944880 Z-3.000000 F200.000000
G01 X28.503038 Y61.944880 Z-3.000000
G01 X28.503038 Y63.664850 Z-3.000000
G01 X30.223018 Y63.664850 Z-3.000000
G00 Z13.000000

(End cutting path id: path19493)


(Start cutting path id: path19491)
(Change tool to Cylindrical cutter)

G00 Z13.000000
G00 X30.223018 Y67.284810

G01 Z-1.500000 F100.0(Penetrate)
G01 X30.223018 Y65.564830 Z-1.500000 F200.000000
G01 X28.503038 Y65.564830 Z-1.500000
G01 X28.503038 Y67.284810 Z-1.500000
G01 X30.223018 Y67.284810 Z-1.500000
G00 Z13.000000

(End cutting path id: path19491)


(Start cutting path id: path19491)
(Change tool to Cylindrical cutter)

G00 Z13.000000
G00 X30.223018 Y67.284810

G01 Z-3.000000 F100.0(Penetrate)
G01 X30.223018 Y65.564830 Z-3.000000 F200.000000
G01 X28.503038 Y65.564830 Z-3.000000
G01 X28.503038 Y67.284810 Z-3.000000
G01 X30.223018 Y67.284810 Z-3.000000
G00 Z13.000000

(End cutting path id: path19491)


(Start cutting path id: path19489)
(Change tool to Cylindrical cutter)

G00 Z13.000000
G00 X33.842968 Y67.284810

G01 Z-1.500000 F100.0(Penetrate)
G01 X33.842968 Y65.564830 Z-1.500000 F200.000000
G01 X32.122998 Y65.564830 Z-1.500000
G01 X32.122998 Y67.284810 Z-1.500000
G01 X33.842968 Y67.284810 Z-1.500000
G00 Z13.000000

(End cutting path id: path19489)


(Start cutting path id: path19489)
(Change tool to Cylindrical cutter)

G00 Z13.000000
G00 X33.842968 Y67.284810

G01 Z-3.000000 F100.0(Penetrate)
G01 X33.842968 Y65.564830 Z-3.000000 F200.000000
G01 X32.122998 Y65.564830 Z-3.000000
G01 X32.122998 Y67.284810 Z-3.000000
G01 X33.842968 Y67.284810 Z-3.000000
G00 Z13.000000

(End cutting path id: path19489)


(Start cutting path id: path19487)
(Change tool to Cylindrical cutter)

G00 Z13.000000
G00 X33.842968 Y63.664850

G01 Z-1.500000 F100.0(Penetrate)
G01 X33.842968 Y61.944880 Z-1.500000 F200.000000
G01 X32.122998 Y61.944880 Z-1.500000
G01 X32.122998 Y63.664850 Z-1.500000
G01 X33.842968 Y63.664850 Z-1.500000
G00 Z13.000000

(End cutting path id: path19487)


(Start cutting path id: path19487)
(Change tool to Cylindrical cutter)

G00 Z13.000000
G00 X33.842968 Y63.664850

G01 Z-3.000000 F100.0(Penetrate)
G01 X33.842968 Y61.944880 Z-3.000000 F200.000000
G01 X32.122998 Y61.944880 Z-3.000000
G01 X32.122998 Y63.664850 Z-3.000000
G01 X33.842968 Y63.664850 Z-3.000000
G00 Z13.000000

(End cutting path id: path19487)


(Start cutting path id: path19485)
(Change tool to Cylindrical cutter)

G00 Z13.000000
G00 X33.842968 Y70.904760

G01 Z-1.500000 F100.0(Penetrate)
G01 X33.842968 Y69.184790 Z-1.500000 F200.000000
G01 X32.122998 Y69.184790 Z-1.500000
G01 X32.122998 Y70.904760 Z-1.500000
G01 X33.842968 Y70.904760 Z-1.500000
G00 Z13.000000

(End cutting path id: path19485)


(Start cutting path id: path19485)
(Change tool to Cylindrical cutter)

G00 Z13.000000
G00 X33.842968 Y70.904760

G01 Z-3.000000 F100.0(Penetrate)
G01 X33.842968 Y69.184790 Z-3.000000 F200.000000
G01 X32.122998 Y69.184790 Z-3.000000
G01 X32.122998 Y70.904760 Z-3.000000
G01 X33.842968 Y70.904760 Z-3.000000
G00 Z13.000000

(End cutting path id: path19485)


(Start cutting path id: path19483)
(Change tool to Cylindrical cutter)

G00 Z13.000000
G00 X30.223018 Y70.904760

G01 Z-1.500000 F100.0(Penetrate)
G01 X30.223018 Y69.184790 Z-1.500000 F200.000000
G01 X28.503038 Y69.184790 Z-1.500000
G01 X28.503038 Y70.904760 Z-1.500000
G01 X30.223018 Y70.904760 Z-1.500000
G00 Z13.000000

(End cutting path id: path19483)


(Start cutting path id: path19483)
(Change tool to Cylindrical cutter)

G00 Z13.000000
G00 X30.223018 Y70.904760

G01 Z-3.000000 F100.0(Penetrate)
G01 X30.223018 Y69.184790 Z-3.000000 F200.000000
G01 X28.503038 Y69.184790 Z-3.000000
G01 X28.503038 Y70.904760 Z-3.000000
G01 X30.223018 Y70.904760 Z-3.000000
G00 Z13.000000

(End cutting path id: path19483)


(Start cutting path id: path19481)
(Change tool to Cylindrical cutter)

G00 Z13.000000
G00 X26.603058 Y70.904760

G01 Z-1.500000 F100.0(Penetrate)
G01 X26.603058 Y69.184790 Z-1.500000 F200.000000
G01 X24.883088 Y69.184790 Z-1.500000
G01 X24.883088 Y70.904760 Z-1.500000
G01 X26.603058 Y70.904760 Z-1.500000
G00 Z13.000000

(End cutting path id: path19481)


(Start cutting path id: path19481)
(Change tool to Cylindrical cutter)

G00 Z13.000000
G00 X26.603058 Y70.904760

G01 Z-3.000000 F100.0(Penetrate)
G01 X26.603058 Y69.184790 Z-3.000000 F200.000000
G01 X24.883088 Y69.184790 Z-3.000000
G01 X24.883088 Y70.904760 Z-3.000000
G01 X26.603058 Y70.904760 Z-3.000000
G00 Z13.000000

(End cutting path id: path19481)


(Start cutting path id: path19479)
(Change tool to Cylindrical cutter)

G00 Z13.000000
G00 X22.983108 Y70.904760

G01 Z-1.500000 F100.0(Penetrate)
G01 X22.983108 Y69.184790 Z-1.500000 F200.000000
G01 X21.263128 Y69.184790 Z-1.500000
G01 X21.263128 Y70.904760 Z-1.500000
G01 X22.983108 Y70.904760 Z-1.500000
G00 Z13.000000

(End cutting path id: path19479)


(Start cutting path id: path19479)
(Change tool to Cylindrical cutter)

G00 Z13.000000
G00 X22.983108 Y70.904760

G01 Z-3.000000 F100.0(Penetrate)
G01 X22.983108 Y69.184790 Z-3.000000 F200.000000
G01 X21.263128 Y69.184790 Z-3.000000
G01 X21.263128 Y70.904760 Z-3.000000
G01 X22.983108 Y70.904760 Z-3.000000
G00 Z13.000000

(End cutting path id: path19479)


(Start cutting path id: path19477)
(Change tool to Cylindrical cutter)

G00 Z13.000000
G00 X19.363158 Y70.904760

G01 Z-1.500000 F100.0(Penetrate)
G01 X19.363158 Y69.184790 Z-1.500000 F200.000000
G01 X17.643178 Y69.184790 Z-1.500000
G01 X17.643178 Y70.904760 Z-1.500000
G01 X19.363158 Y70.904760 Z-1.500000
G00 Z13.000000

(End cutting path id: path19477)


(Start cutting path id: path19477)
(Change tool to Cylindrical cutter)

G00 Z13.000000
G00 X19.363158 Y70.904760

G01 Z-3.000000 F100.0(Penetrate)
G01 X19.363158 Y69.184790 Z-3.000000 F200.000000
G01 X17.643178 Y69.184790 Z-3.000000
G01 X17.643178 Y70.904760 Z-3.000000
G01 X19.363158 Y70.904760 Z-3.000000
G00 Z13.000000

(End cutting path id: path19477)


(Start cutting path id: path19475)
(Change tool to Cylindrical cutter)

G00 Z13.000000
G00 X15.743198 Y70.904760

G01 Z-1.500000 F100.0(Penetrate)
G01 X15.743198 Y69.184790 Z-1.500000 F200.000000
G01 X14.023228 Y69.184790 Z-1.500000
G01 X14.023228 Y70.904760 Z-1.500000
G01 X15.743198 Y70.904760 Z-1.500000
G00 Z13.000000

(End cutting path id: path19475)


(Start cutting path id: path19475)
(Change tool to Cylindrical cutter)

G00 Z13.000000
G00 X15.743198 Y70.904760

G01 Z-3.000000 F100.0(Penetrate)
G01 X15.743198 Y69.184790 Z-3.000000 F200.000000
G01 X14.023228 Y69.184790 Z-3.000000
G01 X14.023228 Y70.904760 Z-3.000000
G01 X15.743198 Y70.904760 Z-3.000000
G00 Z13.000000

(End cutting path id: path19475)


(Start cutting path id: path19473)
(Change tool to Cylindrical cutter)

G00 Z13.000000
G00 X15.743198 Y74.524720

G01 Z-1.500000 F100.0(Penetrate)
G01 X15.743198 Y72.804740 Z-1.500000 F200.000000
G01 X14.023228 Y72.804740 Z-1.500000
G01 X14.023228 Y74.524720 Z-1.500000
G01 X15.743198 Y74.524720 Z-1.500000
G00 Z13.000000

(End cutting path id: path19473)


(Start cutting path id: path19473)
(Change tool to Cylindrical cutter)

G00 Z13.000000
G00 X15.743198 Y74.524720

G01 Z-3.000000 F100.0(Penetrate)
G01 X15.743198 Y72.804740 Z-3.000000 F200.000000
G01 X14.023228 Y72.804740 Z-3.000000
G01 X14.023228 Y74.524720 Z-3.000000
G01 X15.743198 Y74.524720 Z-3.000000
G00 Z13.000000

(End cutting path id: path19473)


(Start cutting path id: path19471)
(Change tool to Cylindrical cutter)

G00 Z13.000000
G00 X19.363158 Y74.524720

G01 Z-1.500000 F100.0(Penetrate)
G01 X19.363158 Y72.804740 Z-1.500000 F200.000000
G01 X17.643178 Y72.804740 Z-1.500000
G01 X17.643178 Y74.524720 Z-1.500000
G01 X19.363158 Y74.524720 Z-1.500000
G00 Z13.000000

(End cutting path id: path19471)


(Start cutting path id: path19471)
(Change tool to Cylindrical cutter)

G00 Z13.000000
G00 X19.363158 Y74.524720

G01 Z-3.000000 F100.0(Penetrate)
G01 X19.363158 Y72.804740 Z-3.000000 F200.000000
G01 X17.643178 Y72.804740 Z-3.000000
G01 X17.643178 Y74.524720 Z-3.000000
G01 X19.363158 Y74.524720 Z-3.000000
G00 Z13.000000

(End cutting path id: path19471)


(Start cutting path id: path19469)
(Change tool to Cylindrical cutter)

G00 Z13.000000
G00 X22.983108 Y74.524720

G01 Z-1.500000 F100.0(Penetrate)
G01 X22.983108 Y72.804740 Z-1.500000 F200.000000
G01 X21.263128 Y72.804740 Z-1.500000
G01 X21.263128 Y74.524720 Z-1.500000
G01 X22.983108 Y74.524720 Z-1.500000
G00 Z13.000000

(End cutting path id: path19469)


(Start cutting path id: path19469)
(Change tool to Cylindrical cutter)

G00 Z13.000000
G00 X22.983108 Y74.524720

G01 Z-3.000000 F100.0(Penetrate)
G01 X22.983108 Y72.804740 Z-3.000000 F200.000000
G01 X21.263128 Y72.804740 Z-3.000000
G01 X21.263128 Y74.524720 Z-3.000000
G01 X22.983108 Y74.524720 Z-3.000000
G00 Z13.000000

(End cutting path id: path19469)


(Start cutting path id: path19467)
(Change tool to Cylindrical cutter)

G00 Z13.000000
G00 X26.603058 Y74.524720

G01 Z-1.500000 F100.0(Penetrate)
G01 X26.603058 Y72.804740 Z-1.500000 F200.000000
G01 X24.883088 Y72.804740 Z-1.500000
G01 X24.883088 Y74.524720 Z-1.500000
G01 X26.603058 Y74.524720 Z-1.500000
G00 Z13.000000

(End cutting path id: path19467)


(Start cutting path id: path19467)
(Change tool to Cylindrical cutter)

G00 Z13.000000
G00 X26.603058 Y74.524720

G01 Z-3.000000 F100.0(Penetrate)
G01 X26.603058 Y72.804740 Z-3.000000 F200.000000
G01 X24.883088 Y72.804740 Z-3.000000
G01 X24.883088 Y74.524720 Z-3.000000
G01 X26.603058 Y74.524720 Z-3.000000
G00 Z13.000000

(End cutting path id: path19467)


(Start cutting path id: path19465)
(Change tool to Cylindrical cutter)

G00 Z13.000000
G00 X30.223018 Y74.524720

G01 Z-1.500000 F100.0(Penetrate)
G01 X30.223018 Y72.804740 Z-1.500000 F200.000000
G01 X28.503038 Y72.804740 Z-1.500000
G01 X28.503038 Y74.524720 Z-1.500000
G01 X30.223018 Y74.524720 Z-1.500000
G00 Z13.000000

(End cutting path id: path19465)


(Start cutting path id: path19465)
(Change tool to Cylindrical cutter)

G00 Z13.000000
G00 X30.223018 Y74.524720

G01 Z-3.000000 F100.0(Penetrate)
G01 X30.223018 Y72.804740 Z-3.000000 F200.000000
G01 X28.503038 Y72.804740 Z-3.000000
G01 X28.503038 Y74.524720 Z-3.000000
G01 X30.223018 Y74.524720 Z-3.000000
G00 Z13.000000

(End cutting path id: path19465)


(Start cutting path id: path19463)
(Change tool to Cylindrical cutter)

G00 Z13.000000
G00 X33.842968 Y74.524720

G01 Z-1.500000 F100.0(Penetrate)
G01 X33.842968 Y72.804740 Z-1.500000 F200.000000
G01 X32.122998 Y72.804740 Z-1.500000
G01 X32.122998 Y74.524720 Z-1.500000
G01 X33.842968 Y74.524720 Z-1.500000
G00 Z13.000000

(End cutting path id: path19463)


(Start cutting path id: path19463)
(Change tool to Cylindrical cutter)

G00 Z13.000000
G00 X33.842968 Y74.524720

G01 Z-3.000000 F100.0(Penetrate)
G01 X33.842968 Y72.804740 Z-3.000000 F200.000000
G01 X32.122998 Y72.804740 Z-3.000000
G01 X32.122998 Y74.524720 Z-3.000000
G01 X33.842968 Y74.524720 Z-3.000000
G00 Z13.000000

(End cutting path id: path19463)


(Start cutting path id: path19445)
(Change tool to Cylindrical cutter)

G00 Z13.000000
G00 X25.345028 Y135.377400

G01 Z-1.500000 F100.0(Penetrate)
G01 X12.167018 Y135.377670 Z-1.500000 F200.000000
G01 X12.163018 Y46.598350 Z-1.500000
G01 X39.971028 Y46.597350 Z-1.500000
G01 X39.970878 Y43.100650 Z-1.500000
G01 X55.444762 Y43.096650 Z-1.500000
G01 X55.449762 Y149.375340 Z-1.500000
G01 X39.974928 Y149.374550 Z-1.500000
G00 Z13.000000

(End cutting path id: path19445)


(Start cutting path id: path19445)
(Change tool to Cylindrical cutter)

G00 Z13.000000
G00 X25.345028 Y135.377400

G01 Z-3.000000 F100.0(Penetrate)
G01 X12.167018 Y135.377670 Z-3.000000 F200.000000
G01 X12.163018 Y46.598350 Z-3.000000
G01 X39.971028 Y46.597350 Z-3.000000
G01 X39.970878 Y43.100650 Z-3.000000
G01 X55.444762 Y43.096650 Z-3.000000
G01 X55.449762 Y149.375340 Z-3.000000
G01 X39.974928 Y149.374550 Z-3.000000
G00 Z13.000000

(End cutting path id: path19445)


(Start cutting path id: path19433)
(Change tool to Cylindrical cutter)

G00 Z13.000000
G00 X69.545292 Y160.722130

G01 Z-1.500000 F100.0(Penetrate)
G01 X78.817651 Y160.765930 Z-1.500000 F200.000000
G00 Z13.000000

(End cutting path id: path19433)


(Start cutting path id: path19433)
(Change tool to Cylindrical cutter)

G00 Z13.000000
G00 X69.545292 Y160.722130

G01 Z-3.000000 F100.0(Penetrate)
G01 X78.817651 Y160.765930 Z-3.000000 F200.000000
G00 Z13.000000

(End cutting path id: path19433)


(Start cutting path id: path19419)
(Change tool to Cylindrical cutter)

G00 Z13.000000
G00 X69.545292 Y117.625880

G01 Z-1.500000 F100.0(Penetrate)
G01 X69.545292 Y103.442930 Z-1.500000 F200.000000
G01 X69.545292 Y43.096590 Z-1.500000
G00 Z13.000000

(End cutting path id: path19419)


(Start cutting path id: path19419)
(Change tool to Cylindrical cutter)

G00 Z13.000000
G00 X69.545292 Y117.625880

G01 Z-3.000000 F100.0(Penetrate)
G01 X69.545292 Y103.442930 Z-3.000000 F200.000000
G01 X69.545292 Y43.096590 Z-3.000000
G00 Z13.000000

(End cutting path id: path19419)


(Start cutting path id: path19415)
(Change tool to Cylindrical cutter)

G00 Z13.000000
G00 X69.545292 Y235.067914

G01 Z-1.500000 F100.0(Penetrate)
G01 X69.545292 Y160.722130 Z-1.500000 F200.000000
G00 Z13.000000

(End cutting path id: path19415)


(Start cutting path id: path19415)
(Change tool to Cylindrical cutter)

G00 Z13.000000
G00 X69.545292 Y235.067914

G01 Z-3.000000 F100.0(Penetrate)
G01 X69.545292 Y160.722130 Z-3.000000 F200.000000
G00 Z13.000000

(End cutting path id: path19415)


(Start cutting path id: path19411)
(Change tool to Cylindrical cutter)

G00 Z13.000000
G00 X80.189902 Y67.596410

G01 Z-1.500000 F100.0(Penetrate)
G01 X80.189112 Y85.512830 Z-1.500000 F200.000000
G01 X87.549792 Y85.512830 Z-1.500000
G00 Z13.000000

(End cutting path id: path19411)


(Start cutting path id: path19411)
(Change tool to Cylindrical cutter)

G00 Z13.000000
G00 X80.189902 Y67.596410

G01 Z-3.000000 F100.0(Penetrate)
G01 X80.189112 Y85.512830 Z-3.000000 F200.000000
G01 X87.549792 Y85.512830 Z-3.000000
G00 Z13.000000

(End cutting path id: path19411)


(Start cutting path id: path19409)
(Change tool to Cylindrical cutter)

G00 Z13.000000
G00 X87.545062 Y196.434690

G01 Z-1.500000 F100.0(Penetrate)
G01 X77.184432 Y196.434690 Z-1.500000 F200.000000
G01 X77.185222 Y178.518270 Z-1.500000
G01 X87.545092 Y178.518270 Z-1.500000
G00 Z13.000000

(End cutting path id: path19409)


(Start cutting path id: path19409)
(Change tool to Cylindrical cutter)

G00 Z13.000000
G00 X87.545062 Y196.434690

G01 Z-3.000000 F100.0(Penetrate)
G01 X77.184432 Y196.434690 Z-3.000000 F200.000000
G01 X77.185222 Y178.518270 Z-3.000000
G01 X87.545092 Y178.518270 Z-3.000000
G00 Z13.000000

(End cutting path id: path19409)


(Start cutting path id: path19407)
(Change tool to Cylindrical cutter)

G00 Z13.000000
G00 X87.545062 Y67.596410

G01 Z-1.500000 F100.0(Penetrate)
G01 X80.185162 Y67.596410 Z-1.500000 F200.000000
G00 Z13.000000

(End cutting path id: path19407)


(Start cutting path id: path19407)
(Change tool to Cylindrical cutter)

G00 Z13.000000
G00 X87.545062 Y67.596410

G01 Z-3.000000 F100.0(Penetrate)
G01 X80.185162 Y67.596410 Z-3.000000 F200.000000
G00 Z13.000000

(End cutting path id: path19407)


(Start cutting path id: path19403)
(Change tool to Cylindrical cutter)

G00 Z13.000000
G00 X69.545292 Y117.625880

G01 Z-1.500000 F100.0(Penetrate)
G01 X78.595182 Y117.625880 Z-1.500000 F200.000000
G00 Z13.000000

(End cutting path id: path19403)


(Start cutting path id: path19403)
(Change tool to Cylindrical cutter)

G00 Z13.000000
G00 X69.545292 Y117.625880

G01 Z-3.000000 F100.0(Penetrate)
G01 X78.595182 Y117.625880 Z-3.000000 F200.000000
G00 Z13.000000

(End cutting path id: path19403)


(Footer)
M5
G00 X0.0000 Y0.0000
M2
(Using default footer. To add your own footer create file "footer" in the output dir.)
(end)
%