%
(Header)
(Generated by gcodetools from Inkscape.)
(Using default header. To add your own header create file "header" in the output dir.)
M3
(Header end.)
G21 (All units in mm)

(Start cutting path id: path15567)
(Change tool to Cylindrical cutter)

G00 Z2.000000
G00 X-34.218806 Y141.309360

G01 Z-2.800000 F100.0(Penetrate)
G01 X-39.028806 Y141.309360 Z-2.800000 F500.000000
G00 Z2.000000

(End cutting path id: path15567)


(Start cutting path id: path15565)
(Change tool to Cylindrical cutter)

G00 Z2.000000
G00 X-34.220266 Y107.129460

G01 Z-2.800000 F100.0(Penetrate)
G01 X-39.028806 Y107.129460 Z-2.800000 F500.000000
G00 Z2.000000

(End cutting path id: path15565)


(Start cutting path id: path15563)
(Change tool to Cylindrical cutter)

G00 Z2.000000
G00 X-21.028806 Y78.029440

G01 Z-2.800000 F100.0(Penetrate)
G01 X-39.028806 Y78.029440 Z-2.800000 F500.000000
G00 Z2.000000

(End cutting path id: path15563)


(Start cutting path id: path15561)
(Change tool to Cylindrical cutter)

G00 Z2.000000
G00 X-21.028226 Y280.375894

G01 Z-2.800000 F100.0(Penetrate)
G01 X-39.028226 Y280.375894 Z-2.800000 F500.000000
G00 Z2.000000

(End cutting path id: path15561)


(Start cutting path id: path15559)
(Change tool to Cylindrical cutter)

G00 Z2.000000
G00 X-21.028226 Y226.592589

G01 Z-2.800000 F100.0(Penetrate)
G01 X-39.028226 Y226.592589 Z-2.800000 F500.000000
G00 Z2.000000

(End cutting path id: path15559)


(Footer)
M5
G00 X0.0000 Y0.0000
M2
(Using default footer. To add your own footer create file "footer" in the output dir.)
(end)
%