%
(Header)
(Generated by gcodetools from Inkscape.)
(Using default header. To add your own header create file "header" in the output dir.)
M3
(Header end.)
G21 (All units in mm)

(Start cutting path id: path16077)
(Change tool to Cylindrical cutter)

G00 Z2.000000
G00 X-21.028226 Y204.242624

G01 Z-3.000000 F100.0(Penetrate)
G01 X-30.718246 Y204.242624 Z-3.000000 F500.000000
G01 X-30.718786 Y191.659310 Z-3.000000
G01 X-21.028806 Y191.659310 Z-3.000000
G00 Z2.000000

(End cutting path id: path16077)


(Start cutting path id: path16071)
(Change tool to Cylindrical cutter)

G00 Z2.000000
G00 X-21.028806 Y140.809360

G01 Z-3.000000 F100.0(Penetrate)
G01 X-30.718826 Y140.809360 Z-3.000000 F500.000000
G01 X-30.720026 Y107.129450 Z-3.000000
G01 X-30.720246 Y94.004460 Z-3.000000
G01 X-21.030246 Y94.004460 Z-3.000000
G00 Z2.000000

(End cutting path id: path16071)


(Start cutting path id: path16063)
(Change tool to Cylindrical cutter)

G00 Z2.000000
G00 X-21.028226 Y302.725884

G01 Z-3.000000 F100.0(Penetrate)
G01 X-39.528226 Y302.725884 Z-3.000000 F500.000000
G01 X-39.528226 Y280.375894 Z-3.000000
G01 X-39.528226 Y261.942094 Z-3.000000
G01 X-29.167476 Y261.942094 Z-3.000000
G01 X-29.168206 Y245.025445 Z-3.000000
G01 X-39.528226 Y245.025445 Z-3.000000
G01 X-39.528516 Y152.311020 Z-3.000000
G01 X-39.528806 Y57.600300 Z-3.000000
G01 X-29.168056 Y57.600300 Z-3.000000
G01 X-29.168786 Y40.683650 Z-3.000000
G01 X-39.528806 Y40.683650 Z-3.000000
G01 X-39.528806 Y14.532630 Z-3.000000
G01 X-21.028806 Y14.532630 Z-3.000000
G00 Z2.000000

(End cutting path id: path16063)


(Footer)
M5
G00 X0.0000 Y0.0000
M2
(Using default footer. To add your own footer create file "footer" in the output dir.)
(end)
%