%
(Header)
(Generated by gcodetools from Inkscape.)
(Using default header. To add your own header create file "header" in the output dir.)
M3
(Header end.)
G21 (All units in mm)

(Start cutting path id: path11129)
(Change tool to Default tool)

G00 Z2.000000
G00 X24.486872 Y22.563000

G01 Z-0.125000 F100.0(Penetrate)
G01 X24.486872 Y7.563000 Z-0.125000 F400.000000
G00 Z2.000000

(End cutting path id: path11129)


(Start cutting path id: path11127)
(Change tool to Default tool)

G00 Z2.000000
G00 X80.535003 Y20.063000

G01 Z-0.125000 F100.0(Penetrate)
G01 X80.535003 Y7.563000 Z-0.125000 F400.000000
G00 Z2.000000

(End cutting path id: path11127)


(Start cutting path id: path11133)
(Change tool to Default tool)

G00 Z2.000000
G00 X62.835007 Y22.563000

G01 Z-0.125000 F100.0(Penetrate)
G01 X62.835007 Y7.563000 Z-0.125000 F400.000000
G00 Z2.000000

(End cutting path id: path11133)


(Start cutting path id: path11139)
(Change tool to Default tool)

G00 Z2.000000
G00 X48.835007 Y22.563000

G01 Z-0.125000 F100.0(Penetrate)
G01 X62.835007 Y22.563000 Z-0.125000 F400.000000
G00 Z2.000000

(End cutting path id: path11139)


(Start cutting path id: path11137)
(Change tool to Default tool)

G00 Z2.000000
G00 X80.535003 Y22.563000

G01 Z-0.125000 F100.0(Penetrate)
G01 X95.235003 Y22.563000 Z-0.125000 F400.000000
G00 Z2.000000

(End cutting path id: path11137)


(Start cutting path id: path11161)
(Change tool to Default tool)

G00 Z2.000000
G00 X48.335007 Y22.563000

G01 Z-0.125000 F100.0(Penetrate)
G01 X48.335007 Y7.063000 Z-0.125000 F400.000000
G01 X62.835007 Y7.063000 Z-0.125000
G01 X80.535003 Y7.063000 Z-0.125000
G01 X95.735003 Y7.063000 Z-0.125000
G01 X95.735003 Y22.563000 Z-0.125000
G00 Z2.000000

(End cutting path id: path11161)


(Start cutting path id: path11159)
(Change tool to Default tool)

G00 Z2.000000
G00 X9.586872 Y7.063000

G01 Z-0.125000 F100.0(Penetrate)
G01 X9.586872 Y23.063000 Z-0.125000 F400.000000
G01 X24.486872 Y23.063000 Z-0.125000
G01 X34.986868 Y23.063000 Z-0.125000
G01 X34.986868 Y7.063000 Z-0.125000
G01 X24.486872 Y7.063000 Z-0.125000
G01 X9.586872 Y7.063000 Z-0.125000
G00 Z2.000000

(End cutting path id: path11159)


(Start cutting path id: path11157)
(Change tool to Default tool)

G00 Z2.000000
G00 X80.035003 Y22.563000

G01 Z-0.125000 F100.0(Penetrate)
G01 X80.035003 Y20.063000 Z-0.125000 F400.000000
G01 X63.335007 Y20.063000 Z-0.125000
G00 Z2.000000

(End cutting path id: path11157)


(Start cutting path id: path11155)
(Change tool to Default tool)

G00 Z2.000000
G00 X44.100338 Y1.253970

G01 Z-0.125000 F100.0(Penetrate)
G01 X38.526798 Y1.253500 Z-0.125000 F400.000000
G01 X38.526328 Y6.827040 Z-0.125000
G01 X44.099858 Y6.827520 Z-0.125000
G01 X44.100338 Y1.253970 Z-0.125000
G00 Z2.000000

(End cutting path id: path11155)


(Start cutting path id: path11153)
(Change tool to Default tool)

G00 Z2.000000
G00 X42.962728 Y11.264230

G01 Z-0.125000 F100.0(Penetrate)
G01 X42.962358 Y15.701020 Z-0.125000 F400.000000
G01 X38.525598 Y15.700640 Z-0.125000
G01 X38.525978 Y11.263860 Z-0.125000
G00 Z2.000000

(End cutting path id: path11153)


(Start cutting path id: path11151)
(Change tool to Default tool)

G00 Z2.000000
G00 X38.526328 Y6.827040

G01 Z-0.125000 F100.0(Penetrate)
G01 X38.525978 Y11.263860 Z-0.125000 F400.000000
G01 X42.962728 Y11.264230 Z-0.125000
G01 X42.963108 Y6.827400 Z-0.125000
G00 Z2.000000

(End cutting path id: path11151)


(Start cutting path id: path11149)
(Change tool to Default tool)

G00 Z2.000000
G00 X42.962358 Y15.701050

G01 Z-0.125000 F100.0(Penetrate)
G01 X42.961988 Y20.137780 Z-0.125000 F400.000000
G01 X38.525208 Y20.137420 Z-0.125000
G01 X38.525558 Y15.700640 Z-0.125000
G00 Z2.000000

(End cutting path id: path11149)


(Start cutting path id: path11147)
(Change tool to Default tool)

G00 Z2.000000
G00 X42.961988 Y20.137800

G01 Z-0.125000 F100.0(Penetrate)
G01 X42.961618 Y24.574590 Z-0.125000 F400.000000
G01 X38.524828 Y24.574210 Z-0.125000
G01 X38.525208 Y20.137420 Z-0.125000
G00 Z2.000000

(End cutting path id: path11147)


(Start cutting path id: path11145)
(Change tool to Default tool)

G00 Z2.000000
G00 X38.524828 Y24.574210

G01 Z-0.125000 F100.0(Penetrate)
G01 X38.524438 Y29.147760 Z-0.125000 F400.000000
G01 X43.097968 Y29.148150 Z-0.125000
G01 X43.098358 Y24.574600 Z-0.125000
G01 X42.961618 Y24.574590 Z-0.125000
G00 Z2.000000

(End cutting path id: path11145)


(Start cutting path id: path11143)
(Change tool to Default tool)

G00 Z2.000000
G00 X38.524438 Y29.147760

G01 Z-0.125000 F100.0(Penetrate)
G01 X38.524048 Y33.721690 Z-0.125000 F400.000000
G01 X43.097578 Y33.722080 Z-0.125000
G01 X43.097968 Y29.148150 Z-0.125000
G00 Z2.000000

(End cutting path id: path11143)


(Footer)
M5
G00 X0.0000 Y0.0000
M2
(Using default footer. To add your own footer create file "footer" in the output dir.)
(end)
%