%
(Header)
(Generated by gcodetools from Inkscape.)
(Using default header. To add your own header create file "header" in the output dir.)
M3
(Header end.)
G21 (All units in mm)

(Start cutting path id: path117)
(Change tool to Cylindrical cutter)

G00 Z2.000000
G00 X44.864405 Y92.112100

G01 Z-1.000000 F20.0(Penetrate)
G02 X45.357340 Y94.394933 Z-1.000000 I119.836241 J-24.681742 F100.000000
G02 X45.534131 Y95.076260 Z-1.000000 I10.840959 J-2.449420
G02 X45.878540 Y95.563829 Z-1.000000 I0.905364 J-0.274105
G02 X46.451905 Y95.752180 Z-1.000000 I0.573365 J-0.778524
G02 X46.952063 Y95.551606 Z-1.000000 I0.000000 J-0.723892
G02 X47.152637 Y95.082460 Z-1.000000 I-0.448383 J-0.469146
G02 X47.119434 Y94.757630 Z-1.000000 I-1.605516 J0.000000
G02 X46.569727 Y92.260930 Z-1.000000 I-96.383956 J19.912307
G03 X46.121364 Y90.194351 Z-1.000000 I51.537592 J-12.263468
G03 X45.875196 Y88.720060 Z-1.000000 I25.972533 J-5.094434
G03 X45.701573 Y87.242519 Z-1.000000 I44.198165 J-5.942621
G03 X45.676758 Y86.748080 Z-1.000000 I4.913496 J-0.494439
G02 X45.661249 Y86.452602 Z-1.000000 I-2.822520 J0.000000
G02 X45.627148 Y86.276790 Z-1.000000 I-1.028337 J0.108247
G02 X45.546815 Y86.123732 Z-1.000000 I-0.408183 J0.116627
G02 X45.310888 Y85.892320 Z-1.000000 I-1.198304 J0.985709
G02 X45.031597 Y85.734703 Z-1.000000 I-0.607930 J0.750972
G02 X44.727978 Y85.681480 Z-1.000000 I-0.303619 J0.839415
G02 X44.343639 Y85.798805 Z-1.000000 I0.000000 J0.688180
G02 X44.101660 Y86.103160 Z-1.000000 I0.359835 J0.534459
G02 X43.163359 Y85.720549 Z-1.000000 I-1.997204 J3.556039
G02 X42.210302 Y85.594670 Z-1.000000 I-0.953057 J3.544950
G02 X40.999629 Y85.811913 Z-1.000000 I0.000000 J3.482103
G02 X40.170117 Y86.351210 Z-1.000000 I0.783361 J2.112515
G02 X39.625714 Y87.186508 Z-1.000000 I1.838482 J1.793281
G02 X39.432177 Y88.186760 Z-1.000000 I2.488024 J1.000252
G02 X39.707381 Y89.706401 Z-1.000000 I4.333239 J-0.000000
G02 X40.542187 Y91.150920 Z-1.000000 I4.736044 J-1.773540
G02 X41.828299 Y92.142151 Z-1.000000 I2.818947 J-2.327581
G02 X43.469140 Y92.502770 Z-1.000000 I1.640841 J-3.552660
G02 X44.344018 Y92.382599 Z-1.000000 I-0.000000 J-3.244765
G02 X44.864404 Y92.112100 Z-1.000000 I-0.385885 J-1.378174
G01 X44.864405 Y92.112100 Z-1.000000
G00 Z2.000000

(End cutting path id: path117)


(Start cutting path id: path117)
(Change tool to Cylindrical cutter)

G00 Z2.000000
G00 X44.864405 Y92.112100

G01 Z-2.000000 F20.0(Penetrate)
G02 X45.357340 Y94.394933 Z-2.000000 I119.836241 J-24.681742 F100.000000
G02 X45.534131 Y95.076260 Z-2.000000 I10.840959 J-2.449420
G02 X45.878540 Y95.563829 Z-2.000000 I0.905364 J-0.274105
G02 X46.451905 Y95.752180 Z-2.000000 I0.573365 J-0.778524
G02 X46.952063 Y95.551606 Z-2.000000 I0.000000 J-0.723892
G02 X47.152637 Y95.082460 Z-2.000000 I-0.448383 J-0.469146
G02 X47.119434 Y94.757630 Z-2.000000 I-1.605516 J0.000000
G02 X46.569727 Y92.260930 Z-2.000000 I-96.383956 J19.912307
G03 X46.121364 Y90.194351 Z-2.000000 I51.537592 J-12.263468
G03 X45.875196 Y88.720060 Z-2.000000 I25.972533 J-5.094434
G03 X45.701573 Y87.242519 Z-2.000000 I44.198165 J-5.942621
G03 X45.676758 Y86.748080 Z-2.000000 I4.913496 J-0.494439
G02 X45.661249 Y86.452602 Z-2.000000 I-2.822520 J0.000000
G02 X45.627148 Y86.276790 Z-2.000000 I-1.028337 J0.108247
G02 X45.546815 Y86.123732 Z-2.000000 I-0.408183 J0.116627
G02 X45.310888 Y85.892320 Z-2.000000 I-1.198304 J0.985709
G02 X45.031597 Y85.734703 Z-2.000000 I-0.607930 J0.750972
G02 X44.727978 Y85.681480 Z-2.000000 I-0.303619 J0.839415
G02 X44.343639 Y85.798805 Z-2.000000 I0.000000 J0.688180
G02 X44.101660 Y86.103160 Z-2.000000 I0.359835 J0.534459
G02 X43.163359 Y85.720549 Z-2.000000 I-1.997204 J3.556039
G02 X42.210302 Y85.594670 Z-2.000000 I-0.953057 J3.544950
G02 X40.999629 Y85.811913 Z-2.000000 I0.000000 J3.482103
G02 X40.170117 Y86.351210 Z-2.000000 I0.783361 J2.112515
G02 X39.625714 Y87.186508 Z-2.000000 I1.838482 J1.793281
G02 X39.432177 Y88.186760 Z-2.000000 I2.488024 J1.000252
G02 X39.707381 Y89.706401 Z-2.000000 I4.333239 J-0.000000
G02 X40.542187 Y91.150920 Z-2.000000 I4.736044 J-1.773540
G02 X41.828299 Y92.142151 Z-2.000000 I2.818947 J-2.327581
G02 X43.469140 Y92.502770 Z-2.000000 I1.640841 J-3.552660
G02 X44.344018 Y92.382599 Z-2.000000 I-0.000000 J-3.244765
G02 X44.864404 Y92.112100 Z-2.000000 I-0.385885 J-1.378174
G01 X44.864405 Y92.112100 Z-2.000000
G00 Z2.000000

(End cutting path id: path117)


(Start cutting path id: path117)
(Change tool to Cylindrical cutter)

G00 Z2.000000
G00 X44.864405 Y92.112100

G01 Z-2.800000 F20.0(Penetrate)
G02 X45.357340 Y94.394933 Z-2.800000 I119.836241 J-24.681742 F100.000000
G02 X45.534131 Y95.076260 Z-2.800000 I10.840959 J-2.449420
G02 X45.878540 Y95.563829 Z-2.800000 I0.905364 J-0.274105
G02 X46.451905 Y95.752180 Z-2.800000 I0.573365 J-0.778524
G02 X46.952063 Y95.551606 Z-2.800000 I0.000000 J-0.723892
G02 X47.152637 Y95.082460 Z-2.800000 I-0.448383 J-0.469146
G02 X47.119434 Y94.757630 Z-2.800000 I-1.605516 J0.000000
G02 X46.569727 Y92.260930 Z-2.800000 I-96.383956 J19.912307
G03 X46.121364 Y90.194351 Z-2.800000 I51.537592 J-12.263468
G03 X45.875196 Y88.720060 Z-2.800000 I25.972533 J-5.094434
G03 X45.701573 Y87.242519 Z-2.800000 I44.198165 J-5.942621
G03 X45.676758 Y86.748080 Z-2.800000 I4.913496 J-0.494439
G02 X45.661249 Y86.452602 Z-2.800000 I-2.822520 J0.000000
G02 X45.627148 Y86.276790 Z-2.800000 I-1.028337 J0.108247
G02 X45.546815 Y86.123732 Z-2.800000 I-0.408183 J0.116627
G02 X45.310888 Y85.892320 Z-2.800000 I-1.198304 J0.985709
G02 X45.031597 Y85.734703 Z-2.800000 I-0.607930 J0.750972
G02 X44.727978 Y85.681480 Z-2.800000 I-0.303619 J0.839415
G02 X44.343639 Y85.798805 Z-2.800000 I0.000000 J0.688180
G02 X44.101660 Y86.103160 Z-2.800000 I0.359835 J0.534459
G02 X43.163359 Y85.720549 Z-2.800000 I-1.997204 J3.556039
G02 X42.210302 Y85.594670 Z-2.800000 I-0.953057 J3.544950
G02 X40.999629 Y85.811913 Z-2.800000 I0.000000 J3.482103
G02 X40.170117 Y86.351210 Z-2.800000 I0.783361 J2.112515
G02 X39.625714 Y87.186508 Z-2.800000 I1.838482 J1.793281
G02 X39.432177 Y88.186760 Z-2.800000 I2.488024 J1.000252
G02 X39.707381 Y89.706401 Z-2.800000 I4.333239 J-0.000000
G02 X40.542187 Y91.150920 Z-2.800000 I4.736044 J-1.773540
G02 X41.828299 Y92.142151 Z-2.800000 I2.818947 J-2.327581
G02 X43.469140 Y92.502770 Z-2.800000 I1.640841 J-3.552660
G02 X44.344018 Y92.382599 Z-2.800000 I-0.000000 J-3.244765
G02 X44.864404 Y92.112100 Z-2.800000 I-0.385885 J-1.378174
G01 X44.864405 Y92.112100 Z-2.800000
G00 Z2.000000

(End cutting path id: path117)


(Start cutting path id: path117)
(Change tool to Cylindrical cutter)

G00 Z2.000000
G00 X44.436524 Y90.152530

G01 Z-1.000000 F20.0(Penetrate)
G03 X43.996465 Y90.705747 Z-1.000000 I-1.056571 J-0.388821 F100.000000
G03 X43.252100 Y90.927670 Z-1.000000 I-0.744365 J-1.137400
G03 X42.221272 Y90.698108 Z-1.000000 I0.000000 J-2.429198
G03 X41.571583 Y90.140120 Z-1.000000 I0.677893 J-1.446525
G03 X41.172706 Y89.315877 Z-1.000000 I2.865660 J-1.895421
G03 X41.050684 Y88.552620 Z-1.000000 I2.326114 J-0.763257
G03 X41.158399 Y88.015301 Z-1.000000 I1.394018 J0.000000
G03 X41.459961 Y87.572840 Z-1.000000 I1.228041 J0.512981
G03 X41.916207 Y87.285039 Z-1.000000 I0.968877 J1.030404
G03 X42.464551 Y87.182170 Z-1.000000 I0.548344 J1.410040
G03 X43.217997 Y87.338821 Z-1.000000 I-0.000000 J1.890250
G03 X44.076856 Y87.882900 Z-1.000000 I-1.315064 J3.025822
G02 X44.093830 Y88.098464 Z-1.000000 I1.377258 J0.000000
G02 X44.436524 Y90.152530 Z-1.000000 I126.166566 J-19.993601
G01 X44.436524 Y90.152530 Z-1.000000
G00 Z2.000000

(End cutting path id: path117)


(Start cutting path id: path117)
(Change tool to Cylindrical cutter)

G00 Z2.000000
G00 X44.436524 Y90.152530

G01 Z-2.000000 F20.0(Penetrate)
G03 X43.996465 Y90.705747 Z-2.000000 I-1.056571 J-0.388821 F100.000000
G03 X43.252100 Y90.927670 Z-2.000000 I-0.744365 J-1.137400
G03 X42.221272 Y90.698108 Z-2.000000 I0.000000 J-2.429198
G03 X41.571583 Y90.140120 Z-2.000000 I0.677893 J-1.446525
G03 X41.172706 Y89.315877 Z-2.000000 I2.865660 J-1.895421
G03 X41.050684 Y88.552620 Z-2.000000 I2.326114 J-0.763257
G03 X41.158399 Y88.015301 Z-2.000000 I1.394018 J0.000000
G03 X41.459961 Y87.572840 Z-2.000000 I1.228041 J0.512981
G03 X41.916207 Y87.285039 Z-2.000000 I0.968877 J1.030404
G03 X42.464551 Y87.182170 Z-2.000000 I0.548344 J1.410040
G03 X43.217997 Y87.338821 Z-2.000000 I-0.000000 J1.890250
G03 X44.076856 Y87.882900 Z-2.000000 I-1.315064 J3.025822
G02 X44.093830 Y88.098464 Z-2.000000 I1.377258 J0.000000
G02 X44.436524 Y90.152530 Z-2.000000 I126.166566 J-19.993601
G01 X44.436524 Y90.152530 Z-2.000000
G00 Z2.000000

(End cutting path id: path117)


(Start cutting path id: path117)
(Change tool to Cylindrical cutter)

G00 Z2.000000
G00 X44.436524 Y90.152530

G01 Z-2.800000 F20.0(Penetrate)
G03 X43.996465 Y90.705747 Z-2.800000 I-1.056571 J-0.388821 F100.000000
G03 X43.252100 Y90.927670 Z-2.800000 I-0.744365 J-1.137400
G03 X42.221272 Y90.698108 Z-2.800000 I0.000000 J-2.429198
G03 X41.571583 Y90.140120 Z-2.800000 I0.677893 J-1.446525
G03 X41.172706 Y89.315877 Z-2.800000 I2.865660 J-1.895421
G03 X41.050684 Y88.552620 Z-2.800000 I2.326114 J-0.763257
G03 X41.158399 Y88.015301 Z-2.800000 I1.394018 J0.000000
G03 X41.459961 Y87.572840 Z-2.800000 I1.228041 J0.512981
G03 X41.916207 Y87.285039 Z-2.800000 I0.968877 J1.030404
G03 X42.464551 Y87.182170 Z-2.800000 I0.548344 J1.410040
G03 X43.217997 Y87.338821 Z-2.800000 I-0.000000 J1.890250
G03 X44.076856 Y87.882900 Z-2.800000 I-1.315064 J3.025822
G02 X44.093830 Y88.098464 Z-2.800000 I1.377258 J0.000000
G02 X44.436524 Y90.152530 Z-2.800000 I126.166566 J-19.993601
G01 X44.436524 Y90.152530 Z-2.800000
G00 Z2.000000

(End cutting path id: path117)


(Start cutting path id: path115)
(Change tool to Cylindrical cutter)

G00 Z2.000000
G00 X36.393604 Y86.090760

G01 Z-1.000000 F20.0(Penetrate)
G02 X35.152869 Y85.620441 Z-1.000000 I-4.166795 J9.120578 F100.000000
G02 X34.564258 Y85.532650 Z-1.000000 I-0.588611 J1.929319
G02 X32.726207 Y86.249481 Z-1.000000 I0.000000 J2.714918
G02 X32.009376 Y87.882900 Z-1.000000 I1.502591 J1.633419
G02 X32.374948 Y89.675633 Z-1.000000 I4.578490 J0.000000
G02 X33.373633 Y91.088900 Z-1.000000 I3.768864 J-1.603774
G02 X34.857984 Y92.040499 Z-1.000000 I3.430913 J-3.718225
G02 X36.393604 Y92.347740 Z-1.000000 I1.535620 J-3.683969
G02 X36.983652 Y92.270589 Z-1.000000 I0.000000 J-2.294903
G02 X37.745459 Y91.988070 Z-1.000000 I-1.100030 J-4.134571
G02 X38.353287 Y91.544209 Z-1.000000 I-0.846935 J-1.797914
G02 X38.495801 Y91.181920 Z-1.000000 I-0.389235 J-0.362289
G02 X38.445799 Y90.922283 Z-1.000000 I-0.699092 J0.000000
G02 X38.297364 Y90.685830 Z-1.000000 I-0.723654 J0.289463
G03 X38.127169 Y90.178076 Z-1.000000 I3.144684 J-1.336475
G03 X37.937696 Y89.247160 Z-1.000000 I10.432002 J-2.608004
G03 X37.818691 Y88.302803 Z-1.000000 I18.960947 J-2.869086
G03 X37.795069 Y87.833290 Z-1.000000 I4.654310 J-0.469513
G03 X37.808139 Y87.562561 Z-1.000000 I2.810359 J-0.000000
G03 X37.832279 Y87.448820 Z-1.000000 I0.514786 J0.049822
G01 X38.018314 Y86.841100 Z-1.000000
G02 X38.147977 Y86.355539 Z-1.000000 I-9.344229 J-2.755358
G02 X38.160941 Y86.245790 Z-1.000000 I-0.458079 J-0.109749
G02 X38.106413 Y86.033086 Z-1.000000 I-0.442124 J-0.000000
G02 X37.881888 Y85.737290 Z-1.000000 I-1.108592 J0.608370
G02 X37.573276 Y85.536954 Z-1.000000 I-0.652585 J0.667418
G02 X37.193558 Y85.464440 Z-1.000000 I-0.379718 J0.957930
G02 X36.963552 Y85.543770 Z-1.000000 I0.000000 J0.373099
G02 X36.393607 Y86.090760 Z-1.000000 I2.424688 J3.096870
G01 X36.393604 Y86.090760 Z-1.000000
G00 Z2.000000

(End cutting path id: path115)


(Start cutting path id: path115)
(Change tool to Cylindrical cutter)

G00 Z2.000000
G00 X36.393604 Y86.090760

G01 Z-2.000000 F20.0(Penetrate)
G02 X35.152869 Y85.620441 Z-2.000000 I-4.166795 J9.120578 F100.000000
G02 X34.564258 Y85.532650 Z-2.000000 I-0.588611 J1.929319
G02 X32.726207 Y86.249481 Z-2.000000 I0.000000 J2.714918
G02 X32.009376 Y87.882900 Z-2.000000 I1.502591 J1.633419
G02 X32.374948 Y89.675633 Z-2.000000 I4.578490 J0.000000
G02 X33.373633 Y91.088900 Z-2.000000 I3.768864 J-1.603774
G02 X34.857984 Y92.040499 Z-2.000000 I3.430913 J-3.718225
G02 X36.393604 Y92.347740 Z-2.000000 I1.535620 J-3.683969
G02 X36.983652 Y92.270589 Z-2.000000 I0.000000 J-2.294903
G02 X37.745459 Y91.988070 Z-2.000000 I-1.100030 J-4.134571
G02 X38.353287 Y91.544209 Z-2.000000 I-0.846935 J-1.797914
G02 X38.495801 Y91.181920 Z-2.000000 I-0.389235 J-0.362289
G02 X38.445799 Y90.922283 Z-2.000000 I-0.699092 J0.000000
G02 X38.297364 Y90.685830 Z-2.000000 I-0.723654 J0.289463
G03 X38.127169 Y90.178076 Z-2.000000 I3.144684 J-1.336475
G03 X37.937696 Y89.247160 Z-2.000000 I10.432002 J-2.608004
G03 X37.818691 Y88.302803 Z-2.000000 I18.960947 J-2.869086
G03 X37.795069 Y87.833290 Z-2.000000 I4.654310 J-0.469513
G03 X37.808139 Y87.562561 Z-2.000000 I2.810359 J-0.000000
G03 X37.832279 Y87.448820 Z-2.000000 I0.514786 J0.049822
G01 X38.018314 Y86.841100 Z-2.000000
G02 X38.147977 Y86.355539 Z-2.000000 I-9.344229 J-2.755358
G02 X38.160941 Y86.245790 Z-2.000000 I-0.458079 J-0.109749
G02 X38.106413 Y86.033086 Z-2.000000 I-0.442124 J-0.000000
G02 X37.881888 Y85.737290 Z-2.000000 I-1.108592 J0.608370
G02 X37.573276 Y85.536954 Z-2.000000 I-0.652585 J0.667418
G02 X37.193558 Y85.464440 Z-2.000000 I-0.379718 J0.957930
G02 X36.963552 Y85.543770 Z-2.000000 I0.000000 J0.373099
G02 X36.393607 Y86.090760 Z-2.000000 I2.424688 J3.096870
G01 X36.393604 Y86.090760 Z-2.000000
G00 Z2.000000

(End cutting path id: path115)


(Start cutting path id: path115)
(Change tool to Cylindrical cutter)

G00 Z2.000000
G00 X36.393604 Y86.090760

G01 Z-2.800000 F20.0(Penetrate)
G02 X35.152869 Y85.620441 Z-2.800000 I-4.166795 J9.120578 F100.000000
G02 X34.564258 Y85.532650 Z-2.800000 I-0.588611 J1.929319
G02 X32.726207 Y86.249481 Z-2.800000 I0.000000 J2.714918
G02 X32.009376 Y87.882900 Z-2.800000 I1.502591 J1.633419
G02 X32.374948 Y89.675633 Z-2.800000 I4.578490 J0.000000
G02 X33.373633 Y91.088900 Z-2.800000 I3.768864 J-1.603774
G02 X34.857984 Y92.040499 Z-2.800000 I3.430913 J-3.718225
G02 X36.393604 Y92.347740 Z-2.800000 I1.535620 J-3.683969
G02 X36.983652 Y92.270589 Z-2.800000 I0.000000 J-2.294903
G02 X37.745459 Y91.988070 Z-2.800000 I-1.100030 J-4.134571
G02 X38.353287 Y91.544209 Z-2.800000 I-0.846935 J-1.797914
G02 X38.495801 Y91.181920 Z-2.800000 I-0.389235 J-0.362289
G02 X38.445799 Y90.922283 Z-2.800000 I-0.699092 J0.000000
G02 X38.297364 Y90.685830 Z-2.800000 I-0.723654 J0.289463
G03 X38.127169 Y90.178076 Z-2.800000 I3.144684 J-1.336475
G03 X37.937696 Y89.247160 Z-2.800000 I10.432002 J-2.608004
G03 X37.818691 Y88.302803 Z-2.800000 I18.960947 J-2.869086
G03 X37.795069 Y87.833290 Z-2.800000 I4.654310 J-0.469513
G03 X37.808139 Y87.562561 Z-2.800000 I2.810359 J-0.000000
G03 X37.832279 Y87.448820 Z-2.800000 I0.514786 J0.049822
G01 X38.018314 Y86.841100 Z-2.800000
G02 X38.147977 Y86.355539 Z-2.800000 I-9.344229 J-2.755358
G02 X38.160941 Y86.245790 Z-2.800000 I-0.458079 J-0.109749
G02 X38.106413 Y86.033086 Z-2.800000 I-0.442124 J-0.000000
G02 X37.881888 Y85.737290 Z-2.800000 I-1.108592 J0.608370
G02 X37.573276 Y85.536954 Z-2.800000 I-0.652585 J0.667418
G02 X37.193558 Y85.464440 Z-2.800000 I-0.379718 J0.957930
G02 X36.963552 Y85.543770 Z-2.800000 I0.000000 J0.373099
G02 X36.393607 Y86.090760 Z-2.800000 I2.424688 J3.096870
G01 X36.393604 Y86.090760 Z-2.800000
G00 Z2.000000

(End cutting path id: path115)


(Start cutting path id: path115)
(Change tool to Cylindrical cutter)

G00 Z2.000000
G00 X36.610645 Y90.747840

G01 Z-1.000000 F20.0(Penetrate)
G03 X36.417084 Y90.839711 Z-1.000000 I-0.473276 J-0.747292 F100.000000
G03 X36.257178 Y90.865660 Z-1.000000 I-0.159906 J-0.479728
G03 X35.409165 Y90.681245 Z-1.000000 I-0.000000 J-2.041962
G03 X34.545655 Y90.084310 Z-1.000000 I1.240805 J-2.717945
G03 X33.972151 Y89.219512 Z-1.000000 I1.764416 J-1.792662
G03 X33.758106 Y88.099940 Z-1.000000 I2.820962 J-1.119572
G03 X34.058013 Y87.302237 Z-1.000000 I1.210834 J0.000000
G03 X34.719288 Y87.002330 Z-1.000000 I0.661275 J0.579082
G03 X35.458762 Y87.127641 Z-1.000000 I-0.000000 J2.244519
G03 X36.176563 Y87.510830 Z-1.000000 I-0.870334 J2.494231
G02 X36.365234 Y89.829323 Z-1.000000 I22.321776 J-0.649549
G02 X36.610645 Y90.747840 Z-1.000000 I3.697294 J-0.495806
G01 X36.610645 Y90.747840 Z-1.000000
G00 Z2.000000

(End cutting path id: path115)


(Start cutting path id: path115)
(Change tool to Cylindrical cutter)

G00 Z2.000000
G00 X36.610645 Y90.747840

G01 Z-2.000000 F20.0(Penetrate)
G03 X36.417084 Y90.839711 Z-2.000000 I-0.473276 J-0.747292 F100.000000
G03 X36.257178 Y90.865660 Z-2.000000 I-0.159906 J-0.479728
G03 X35.409165 Y90.681245 Z-2.000000 I-0.000000 J-2.041962
G03 X34.545655 Y90.084310 Z-2.000000 I1.240805 J-2.717945
G03 X33.972151 Y89.219512 Z-2.000000 I1.764416 J-1.792662
G03 X33.758106 Y88.099940 Z-2.000000 I2.820962 J-1.119572
G03 X34.058013 Y87.302237 Z-2.000000 I1.210834 J0.000000
G03 X34.719288 Y87.002330 Z-2.000000 I0.661275 J0.579082
G03 X35.458762 Y87.127641 Z-2.000000 I-0.000000 J2.244519
G03 X36.176563 Y87.510830 Z-2.000000 I-0.870334 J2.494231
G02 X36.365234 Y89.829323 Z-2.000000 I22.321776 J-0.649549
G02 X36.610645 Y90.747840 Z-2.000000 I3.697294 J-0.495806
G01 X36.610645 Y90.747840 Z-2.000000
G00 Z2.000000

(End cutting path id: path115)


(Start cutting path id: path115)
(Change tool to Cylindrical cutter)

G00 Z2.000000
G00 X36.610645 Y90.747840

G01 Z-2.800000 F20.0(Penetrate)
G03 X36.417084 Y90.839711 Z-2.800000 I-0.473276 J-0.747292 F100.000000
G03 X36.257178 Y90.865660 Z-2.800000 I-0.159906 J-0.479728
G03 X35.409165 Y90.681245 Z-2.800000 I-0.000000 J-2.041962
G03 X34.545655 Y90.084310 Z-2.800000 I1.240805 J-2.717945
G03 X33.972151 Y89.219512 Z-2.800000 I1.764416 J-1.792662
G03 X33.758106 Y88.099940 Z-2.800000 I2.820962 J-1.119572
G03 X34.058013 Y87.302237 Z-2.800000 I1.210834 J0.000000
G03 X34.719288 Y87.002330 Z-2.800000 I0.661275 J0.579082
G03 X35.458762 Y87.127641 Z-2.800000 I-0.000000 J2.244519
G03 X36.176563 Y87.510830 Z-2.800000 I-0.870334 J2.494231
G02 X36.365234 Y89.829323 Z-2.800000 I22.321776 J-0.649549
G02 X36.610645 Y90.747840 Z-2.800000 I3.697294 J-0.495806
G01 X36.610645 Y90.747840 Z-2.800000
G00 Z2.000000

(End cutting path id: path115)


(Start cutting path id: path113)
(Change tool to Cylindrical cutter)

G00 Z2.000000
G00 X30.576908 Y92.031480

G01 Z-1.000000 F20.0(Penetrate)
G02 X31.312194 Y92.476359 Z-1.000000 I4.093176 J-5.935032 F100.000000
G02 X31.519486 Y92.527580 Z-1.000000 I0.207292 J-0.393850
G02 X31.861840 Y92.373840 Z-1.000000 I-0.000000 J-0.458052
G02 X32.015580 Y91.969470 Z-1.000000 I-0.454919 J-0.404370
G02 X31.956511 Y91.682636 Z-1.000000 I-0.725958 J-0.000000
G02 X31.767533 Y91.392760 Z-1.000000 I-0.931103 J0.400474
G02 X31.508835 Y91.144686 Z-1.000000 I-1.906025 J1.728725
G02 X30.800150 Y90.586610 Z-1.000000 I-10.433987 J12.520823
G01 X30.297855 Y90.202140 Z-1.000000
G02 X29.663309 Y86.389902 Z-1.000000 I-100.774330 J14.814932
G02 X29.522709 Y86.034950 Z-1.000000 I-0.977271 J0.181784
G02 X29.255949 Y85.808601 Z-1.000000 I-0.503460 J0.322976
G02 X28.759965 Y85.706290 Z-1.000000 I-0.495984 J1.151065
G02 X28.348441 Y85.871475 Z-1.000000 I0.000000 J0.595208
G02 X28.183256 Y86.258190 Z-1.000000 I0.370080 J0.386715
G02 X28.185322 Y86.289048 Z-1.000000 I0.231485 J-0.000000
G02 X28.325883 Y87.318590 Z-1.000000 I258.984186 J-34.834155
G03 X28.447777 Y88.355611 Z-1.000000 I-26.049079 J3.587559
G03 X28.468509 Y88.782070 Z-1.000000 I-4.375881 J0.426459
G03 X28.438262 Y89.049473 Z-1.000000 I-1.197121 J0.000000
G01 X28.400299 Y89.079720 Z-1.000000
G01 X28.382890 Y89.076147 Z-1.000000
G03 X28.356889 Y89.061120 Z-1.000000 I0.049709 J-0.116014
G02 X27.925279 Y88.767676 Z-1.000000 I-1.483069 J1.717220
G02 X27.680962 Y88.707650 Z-1.000000 I-0.244317 J0.467199
G02 X27.317016 Y88.858402 Z-1.000000 I0.000000 J0.514697
G02 X27.166264 Y89.222350 Z-1.000000 I0.363950 J0.363948
G02 X27.232511 Y89.567899 Z-1.000000 I0.934332 J-0.000000
G02 X27.420512 Y89.861070 Z-1.000000 I0.850562 J-0.338573
G02 X27.700213 Y90.111562 Z-1.000000 I1.736475 J-1.657559
G02 X28.914995 Y91.002090 Z-1.000000 I23.443474 J-30.705748
G01 X29.547514 Y94.989440 Z-1.000000
G02 X29.649210 Y95.290145 Z-1.000000 I0.894806 J-0.135068
G02 X29.857573 Y95.553750 Z-1.000000 I0.888639 J-0.488261
G02 X30.147192 Y95.728713 Z-1.000000 I0.624742 J-0.706958
G02 X30.477690 Y95.789390 Z-1.000000 I0.330498 J-0.869749
G02 X30.897031 Y95.619620 Z-1.000000 I0.000000 J-0.602783
G02 X31.066801 Y95.218880 Z-1.000000 I-0.388087 J-0.400740
G02 X31.062548 Y95.113777 Z-1.000000 I-1.300748 J0.000000
G02 X31.048201 Y94.989440 Z-1.000000 I-1.835596 J0.148806
G01 X30.576908 Y92.031480 Z-1.000000
G00 Z2.000000

(End cutting path id: path113)


(Start cutting path id: path113)
(Change tool to Cylindrical cutter)

G00 Z2.000000
G00 X30.576908 Y92.031480

G01 Z-2.000000 F20.0(Penetrate)
G02 X31.312194 Y92.476359 Z-2.000000 I4.093176 J-5.935032 F100.000000
G02 X31.519486 Y92.527580 Z-2.000000 I0.207292 J-0.393850
G02 X31.861840 Y92.373840 Z-2.000000 I-0.000000 J-0.458052
G02 X32.015580 Y91.969470 Z-2.000000 I-0.454919 J-0.404370
G02 X31.956511 Y91.682636 Z-2.000000 I-0.725958 J-0.000000
G02 X31.767533 Y91.392760 Z-2.000000 I-0.931103 J0.400474
G02 X31.508835 Y91.144686 Z-2.000000 I-1.906025 J1.728725
G02 X30.800150 Y90.586610 Z-2.000000 I-10.433987 J12.520823
G01 X30.297855 Y90.202140 Z-2.000000
G02 X29.663309 Y86.389902 Z-2.000000 I-100.774330 J14.814932
G02 X29.522709 Y86.034950 Z-2.000000 I-0.977271 J0.181784
G02 X29.255949 Y85.808601 Z-2.000000 I-0.503460 J0.322976
G02 X28.759965 Y85.706290 Z-2.000000 I-0.495984 J1.151065
G02 X28.348441 Y85.871475 Z-2.000000 I0.000000 J0.595208
G02 X28.183256 Y86.258190 Z-2.000000 I0.370080 J0.386715
G02 X28.185322 Y86.289048 Z-2.000000 I0.231485 J-0.000000
G02 X28.325883 Y87.318590 Z-2.000000 I258.984186 J-34.834155
G03 X28.447777 Y88.355611 Z-2.000000 I-26.049079 J3.587559
G03 X28.468509 Y88.782070 Z-2.000000 I-4.375881 J0.426459
G03 X28.438262 Y89.049473 Z-2.000000 I-1.197121 J0.000000
G01 X28.400299 Y89.079720 Z-2.000000
G01 X28.382890 Y89.076147 Z-2.000000
G03 X28.356889 Y89.061120 Z-2.000000 I0.049709 J-0.116014
G02 X27.925279 Y88.767676 Z-2.000000 I-1.483069 J1.717220
G02 X27.680962 Y88.707650 Z-2.000000 I-0.244317 J0.467199
G02 X27.317016 Y88.858402 Z-2.000000 I0.000000 J0.514697
G02 X27.166264 Y89.222350 Z-2.000000 I0.363950 J0.363948
G02 X27.232511 Y89.567899 Z-2.000000 I0.934332 J-0.000000
G02 X27.420512 Y89.861070 Z-2.000000 I0.850562 J-0.338573
G02 X27.700213 Y90.111562 Z-2.000000 I1.736475 J-1.657559
G02 X28.914995 Y91.002090 Z-2.000000 I23.443474 J-30.705748
G01 X29.547514 Y94.989440 Z-2.000000
G02 X29.649210 Y95.290145 Z-2.000000 I0.894806 J-0.135068
G02 X29.857573 Y95.553750 Z-2.000000 I0.888639 J-0.488261
G02 X30.147192 Y95.728713 Z-2.000000 I0.624742 J-0.706958
G02 X30.477690 Y95.789390 Z-2.000000 I0.330498 J-0.869749
G02 X30.897031 Y95.619620 Z-2.000000 I0.000000 J-0.602783
G02 X31.066801 Y95.218880 Z-2.000000 I-0.388087 J-0.400740
G02 X31.062548 Y95.113777 Z-2.000000 I-1.300748 J0.000000
G02 X31.048201 Y94.989440 Z-2.000000 I-1.835596 J0.148806
G01 X30.576908 Y92.031480 Z-2.000000
G00 Z2.000000

(End cutting path id: path113)


(Start cutting path id: path113)
(Change tool to Cylindrical cutter)

G00 Z2.000000
G00 X30.576908 Y92.031480

G01 Z-2.800000 F20.0(Penetrate)
G02 X31.312194 Y92.476359 Z-2.800000 I4.093176 J-5.935032 F100.000000
G02 X31.519486 Y92.527580 Z-2.800000 I0.207292 J-0.393850
G02 X31.861840 Y92.373840 Z-2.800000 I-0.000000 J-0.458052
G02 X32.015580 Y91.969470 Z-2.800000 I-0.454919 J-0.404370
G02 X31.956511 Y91.682636 Z-2.800000 I-0.725958 J-0.000000
G02 X31.767533 Y91.392760 Z-2.800000 I-0.931103 J0.400474
G02 X31.508835 Y91.144686 Z-2.800000 I-1.906025 J1.728725
G02 X30.800150 Y90.586610 Z-2.800000 I-10.433987 J12.520823
G01 X30.297855 Y90.202140 Z-2.800000
G02 X29.663309 Y86.389902 Z-2.800000 I-100.774330 J14.814932
G02 X29.522709 Y86.034950 Z-2.800000 I-0.977271 J0.181784
G02 X29.255949 Y85.808601 Z-2.800000 I-0.503460 J0.322976
G02 X28.759965 Y85.706290 Z-2.800000 I-0.495984 J1.151065
G02 X28.348441 Y85.871475 Z-2.800000 I0.000000 J0.595208
G02 X28.183256 Y86.258190 Z-2.800000 I0.370080 J0.386715
G02 X28.185322 Y86.289048 Z-2.800000 I0.231485 J-0.000000
G02 X28.325883 Y87.318590 Z-2.800000 I258.984186 J-34.834155
G03 X28.447777 Y88.355611 Z-2.800000 I-26.049079 J3.587559
G03 X28.468509 Y88.782070 Z-2.800000 I-4.375881 J0.426459
G03 X28.438262 Y89.049473 Z-2.800000 I-1.197121 J0.000000
G01 X28.400299 Y89.079720 Z-2.800000
G01 X28.382890 Y89.076147 Z-2.800000
G03 X28.356889 Y89.061120 Z-2.800000 I0.049709 J-0.116014
G02 X27.925279 Y88.767676 Z-2.800000 I-1.483069 J1.717220
G02 X27.680962 Y88.707650 Z-2.800000 I-0.244317 J0.467199
G02 X27.317016 Y88.858402 Z-2.800000 I0.000000 J0.514697
G02 X27.166264 Y89.222350 Z-2.800000 I0.363950 J0.363948
G02 X27.232511 Y89.567899 Z-2.800000 I0.934332 J-0.000000
G02 X27.420512 Y89.861070 Z-2.800000 I0.850562 J-0.338573
G02 X27.700213 Y90.111562 Z-2.800000 I1.736475 J-1.657559
G02 X28.914995 Y91.002090 Z-2.800000 I23.443474 J-30.705748
G01 X29.547514 Y94.989440 Z-2.800000
G02 X29.649210 Y95.290145 Z-2.800000 I0.894806 J-0.135068
G02 X29.857573 Y95.553750 Z-2.800000 I0.888639 J-0.488261
G02 X30.147192 Y95.728713 Z-2.800000 I0.624742 J-0.706958
G02 X30.477690 Y95.789390 Z-2.800000 I0.330498 J-0.869749
G02 X30.897031 Y95.619620 Z-2.800000 I0.000000 J-0.602783
G02 X31.066801 Y95.218880 Z-2.800000 I-0.388087 J-0.400740
G02 X31.062548 Y95.113777 Z-2.800000 I-1.300748 J0.000000
G02 X31.048201 Y94.989440 Z-2.800000 I-1.835596 J0.148806
G01 X30.576908 Y92.031480 Z-2.800000
G00 Z2.000000

(End cutting path id: path113)


(Start cutting path id: path111)
(Change tool to Cylindrical cutter)

G00 Z2.000000
G00 X23.823835 Y88.695250

G01 Z-1.000000 F20.0(Penetrate)
G02 X23.118680 Y88.250211 Z-1.000000 I-21.393763 J33.116806 F100.000000
G02 X22.918464 Y88.137150 Z-1.000000 I-1.573113 J2.551963
G03 X22.713718 Y87.137571 Z-1.000000 I82.042580 J-17.325752
G03 X22.589802 Y86.481430 Z-1.000000 I35.225052 J-6.992206
G02 X22.472630 Y86.159671 Z-1.000000 I-0.965511 J0.169386
G02 X22.248737 Y85.892320 Z-1.000000 I-0.879784 J0.509351
G02 X21.953092 Y85.717946 Z-1.000000 I-0.628430 J0.727669
G02 X21.610016 Y85.656680 Z-1.000000 I-0.343076 J0.929936
G02 X21.086378 Y85.870981 Z-1.000000 I-0.000000 J0.746895
G02 X20.872077 Y86.382210 Z-1.000000 I0.502632 J0.511229
G02 X20.898018 Y86.670892 Z-1.000000 I1.619246 J0.000000
G02 X21.194538 Y88.161950 Z-1.000000 I43.832916 J-7.941838
G03 X21.419824 Y89.199540 Z-1.000000 I-52.140994 J11.864342
G03 X21.498395 Y89.631630 Z-1.000000 I-8.959231 J1.852325
G01 X22.223932 Y93.736800 Z-1.000000
G03 X22.250838 Y93.966687 Z-1.000000 I-6.434307 J0.869592
G03 X22.285942 Y94.363120 Z-1.000000 I-19.103222 J1.891351
G02 X22.354458 Y94.991894 Z-1.000000 I10.418043 J-0.817111
G02 X22.403764 Y95.206480 Z-1.000000 I1.254151 J-0.175212
G02 X22.510631 Y95.400103 Z-1.000000 I0.604052 J-0.207093
G02 X22.738628 Y95.621960 Z-1.000000 I1.028757 J-0.829146
G02 X23.016931 Y95.767506 Z-1.000000 I0.565080 J-0.741657
G02 X23.352544 Y95.820400 Z-1.000000 I0.335613 J-1.038289
G02 X23.653252 Y95.766682 Z-1.000000 I-0.000000 J-0.868523
G02 X23.873442 Y95.628160 Z-1.000000 I-0.218083 J-0.590924
G02 X24.022089 Y95.411705 Z-1.000000 I-0.421546 J-0.448758
G02 X24.078081 Y95.125870 Z-1.000000 I-0.701588 J-0.285835
G01 X23.997461 Y94.344520 Z-1.000000
G02 X23.880194 Y93.437520 Z-1.000000 I-13.541911 J1.289762
G02 X23.606787 Y91.957070 Z-1.000000 I-36.378244 J5.952809
G03 X23.451892 Y91.148694 Z-1.000000 I26.058034 J-5.412080
G03 X23.302929 Y90.226940 Z-1.000000 I33.733169 J-5.924464
G03 X24.250040 Y90.931064 Z-1.000000 I-9.106750 J13.238449
G03 X26.248486 Y92.589590 Z-1.000000 I-48.684436 J60.695736
G02 X26.589111 Y92.804200 Z-1.000000 I0.832066 J-0.943018
G02 X26.905810 Y92.868640 Z-1.000000 I0.316699 J-0.746009
G02 X27.199023 Y92.811871 Z-1.000000 I0.000000 J-0.785615
G02 X27.445312 Y92.651600 Z-1.000000 I-0.283841 J-0.705550
G02 X27.612514 Y92.416604 Z-1.000000 I-0.509572 J-0.539546
G02 X27.668554 Y92.155510 Z-1.000000 I-0.580205 J-0.261094
G02 X27.636825 Y91.928960 Z-1.000000 I-0.824673 J0.000000
G02 X27.544531 Y91.721420 Z-1.000000 I-0.781717 J0.223343
G02 X27.403166 Y91.542806 Z-1.000000 I-0.734752 J0.436275
G02 X26.657763 Y90.865660 Z-1.000000 I-11.598024 J12.018272
G02 X25.886609 Y90.218741 Z-1.000000 I-24.736537 J28.703896
G02 X25.305908 Y89.761850 Z-1.000000 I-12.913997 J15.815993
G01 X26.335302 Y88.093740 Z-1.000000
G02 X26.924297 Y86.963475 Z-1.000000 I-7.418584 J-4.584513
G02 X27.017431 Y86.512440 Z-1.000000 I-1.045581 J-0.451035
G02 X26.943206 Y86.211505 Z-1.000000 I-0.647161 J-0.000000
G02 X26.694970 Y85.898520 Z-1.000000 I-0.951691 J0.499875
G02 X26.346846 Y85.688342 Z-1.000000 I-0.785590 J0.907802
G02 X25.981836 Y85.619470 Z-1.000000 I-0.365010 J0.932812
G02 X25.581084 Y85.747310 Z-1.000000 I-0.000000 J0.692056
G02 X25.318310 Y86.090760 Z-1.000000 I0.423543 J0.596303
G03 X25.006461 Y86.759351 Z-1.000000 I-4.451923 J-1.669473
G03 X24.047070 Y88.341780 Z-1.000000 I-26.049406 J-14.711130
G02 X23.845722 Y88.653613 Z-1.000000 I15.443906 J10.192948
G02 X23.823828 Y88.695250 Z-1.000000 I0.251290 J0.158708
G01 X23.823835 Y88.695250 Z-1.000000
G00 Z2.000000

(End cutting path id: path111)


(Start cutting path id: path111)
(Change tool to Cylindrical cutter)

G00 Z2.000000
G00 X23.823835 Y88.695250

G01 Z-2.000000 F20.0(Penetrate)
G02 X23.118680 Y88.250211 Z-2.000000 I-21.393763 J33.116806 F100.000000
G02 X22.918464 Y88.137150 Z-2.000000 I-1.573113 J2.551963
G03 X22.713718 Y87.137571 Z-2.000000 I82.042580 J-17.325752
G03 X22.589802 Y86.481430 Z-2.000000 I35.225052 J-6.992206
G02 X22.472630 Y86.159671 Z-2.000000 I-0.965511 J0.169386
G02 X22.248737 Y85.892320 Z-2.000000 I-0.879784 J0.509351
G02 X21.953092 Y85.717946 Z-2.000000 I-0.628430 J0.727669
G02 X21.610016 Y85.656680 Z-2.000000 I-0.343076 J0.929936
G02 X21.086378 Y85.870981 Z-2.000000 I-0.000000 J0.746895
G02 X20.872077 Y86.382210 Z-2.000000 I0.502632 J0.511229
G02 X20.898018 Y86.670892 Z-2.000000 I1.619246 J0.000000
G02 X21.194538 Y88.161950 Z-2.000000 I43.832916 J-7.941838
G03 X21.419824 Y89.199540 Z-2.000000 I-52.140994 J11.864342
G03 X21.498395 Y89.631630 Z-2.000000 I-8.959231 J1.852325
G01 X22.223932 Y93.736800 Z-2.000000
G03 X22.250838 Y93.966687 Z-2.000000 I-6.434307 J0.869592
G03 X22.285942 Y94.363120 Z-2.000000 I-19.103222 J1.891351
G02 X22.354458 Y94.991894 Z-2.000000 I10.418043 J-0.817111
G02 X22.403764 Y95.206480 Z-2.000000 I1.254151 J-0.175212
G02 X22.510631 Y95.400103 Z-2.000000 I0.604052 J-0.207093
G02 X22.738628 Y95.621960 Z-2.000000 I1.028757 J-0.829146
G02 X23.016931 Y95.767506 Z-2.000000 I0.565080 J-0.741657
G02 X23.352544 Y95.820400 Z-2.000000 I0.335613 J-1.038289
G02 X23.653252 Y95.766682 Z-2.000000 I-0.000000 J-0.868523
G02 X23.873442 Y95.628160 Z-2.000000 I-0.218083 J-0.590924
G02 X24.022089 Y95.411705 Z-2.000000 I-0.421546 J-0.448758
G02 X24.078081 Y95.125870 Z-2.000000 I-0.701588 J-0.285835
G01 X23.997461 Y94.344520 Z-2.000000
G02 X23.880194 Y93.437520 Z-2.000000 I-13.541911 J1.289762
G02 X23.606787 Y91.957070 Z-2.000000 I-36.378244 J5.952809
G03 X23.451892 Y91.148694 Z-2.000000 I26.058034 J-5.412080
G03 X23.302929 Y90.226940 Z-2.000000 I33.733169 J-5.924464
G03 X24.250040 Y90.931064 Z-2.000000 I-9.106750 J13.238449
G03 X26.248486 Y92.589590 Z-2.000000 I-48.684436 J60.695736
G02 X26.589111 Y92.804200 Z-2.000000 I0.832066 J-0.943018
G02 X26.905810 Y92.868640 Z-2.000000 I0.316699 J-0.746009
G02 X27.199023 Y92.811871 Z-2.000000 I0.000000 J-0.785615
G02 X27.445312 Y92.651600 Z-2.000000 I-0.283841 J-0.705550
G02 X27.612514 Y92.416604 Z-2.000000 I-0.509572 J-0.539546
G02 X27.668554 Y92.155510 Z-2.000000 I-0.580205 J-0.261094
G02 X27.636825 Y91.928960 Z-2.000000 I-0.824673 J0.000000
G02 X27.544531 Y91.721420 Z-2.000000 I-0.781717 J0.223343
G02 X27.403166 Y91.542806 Z-2.000000 I-0.734752 J0.436275
G02 X26.657763 Y90.865660 Z-2.000000 I-11.598024 J12.018272
G02 X25.886609 Y90.218741 Z-2.000000 I-24.736537 J28.703896
G02 X25.305908 Y89.761850 Z-2.000000 I-12.913997 J15.815993
G01 X26.335302 Y88.093740 Z-2.000000
G02 X26.924297 Y86.963475 Z-2.000000 I-7.418584 J-4.584513
G02 X27.017431 Y86.512440 Z-2.000000 I-1.045581 J-0.451035
G02 X26.943206 Y86.211505 Z-2.000000 I-0.647161 J-0.000000
G02 X26.694970 Y85.898520 Z-2.000000 I-0.951691 J0.499875
G02 X26.346846 Y85.688342 Z-2.000000 I-0.785590 J0.907802
G02 X25.981836 Y85.619470 Z-2.000000 I-0.365010 J0.932812
G02 X25.581084 Y85.747310 Z-2.000000 I-0.000000 J0.692056
G02 X25.318310 Y86.090760 Z-2.000000 I0.423543 J0.596303
G03 X25.006461 Y86.759351 Z-2.000000 I-4.451923 J-1.669473
G03 X24.047070 Y88.341780 Z-2.000000 I-26.049406 J-14.711130
G02 X23.845722 Y88.653613 Z-2.000000 I15.443906 J10.192948
G02 X23.823828 Y88.695250 Z-2.000000 I0.251290 J0.158708
G01 X23.823835 Y88.695250 Z-2.000000
G00 Z2.000000

(End cutting path id: path111)


(Start cutting path id: path111)
(Change tool to Cylindrical cutter)

G00 Z2.000000
G00 X23.823835 Y88.695250

G01 Z-2.800000 F20.0(Penetrate)
G02 X23.118680 Y88.250211 Z-2.800000 I-21.393763 J33.116806 F100.000000
G02 X22.918464 Y88.137150 Z-2.800000 I-1.573113 J2.551963
G03 X22.713718 Y87.137571 Z-2.800000 I82.042580 J-17.325752
G03 X22.589802 Y86.481430 Z-2.800000 I35.225052 J-6.992206
G02 X22.472630 Y86.159671 Z-2.800000 I-0.965511 J0.169386
G02 X22.248737 Y85.892320 Z-2.800000 I-0.879784 J0.509351
G02 X21.953092 Y85.717946 Z-2.800000 I-0.628430 J0.727669
G02 X21.610016 Y85.656680 Z-2.800000 I-0.343076 J0.929936
G02 X21.086378 Y85.870981 Z-2.800000 I-0.000000 J0.746895
G02 X20.872077 Y86.382210 Z-2.800000 I0.502632 J0.511229
G02 X20.898018 Y86.670892 Z-2.800000 I1.619246 J0.000000
G02 X21.194538 Y88.161950 Z-2.800000 I43.832916 J-7.941838
G03 X21.419824 Y89.199540 Z-2.800000 I-52.140994 J11.864342
G03 X21.498395 Y89.631630 Z-2.800000 I-8.959231 J1.852325
G01 X22.223932 Y93.736800 Z-2.800000
G03 X22.250838 Y93.966687 Z-2.800000 I-6.434307 J0.869592
G03 X22.285942 Y94.363120 Z-2.800000 I-19.103222 J1.891351
G02 X22.354458 Y94.991894 Z-2.800000 I10.418043 J-0.817111
G02 X22.403764 Y95.206480 Z-2.800000 I1.254151 J-0.175212
G02 X22.510631 Y95.400103 Z-2.800000 I0.604052 J-0.207093
G02 X22.738628 Y95.621960 Z-2.800000 I1.028757 J-0.829146
G02 X23.016931 Y95.767506 Z-2.800000 I0.565080 J-0.741657
G02 X23.352544 Y95.820400 Z-2.800000 I0.335613 J-1.038289
G02 X23.653252 Y95.766682 Z-2.800000 I-0.000000 J-0.868523
G02 X23.873442 Y95.628160 Z-2.800000 I-0.218083 J-0.590924
G02 X24.022089 Y95.411705 Z-2.800000 I-0.421546 J-0.448758
G02 X24.078081 Y95.125870 Z-2.800000 I-0.701588 J-0.285835
G01 X23.997461 Y94.344520 Z-2.800000
G02 X23.880194 Y93.437520 Z-2.800000 I-13.541911 J1.289762
G02 X23.606787 Y91.957070 Z-2.800000 I-36.378244 J5.952809
G03 X23.451892 Y91.148694 Z-2.800000 I26.058034 J-5.412080
G03 X23.302929 Y90.226940 Z-2.800000 I33.733169 J-5.924464
G03 X24.250040 Y90.931064 Z-2.800000 I-9.106750 J13.238449
G03 X26.248486 Y92.589590 Z-2.800000 I-48.684436 J60.695736
G02 X26.589111 Y92.804200 Z-2.800000 I0.832066 J-0.943018
G02 X26.905810 Y92.868640 Z-2.800000 I0.316699 J-0.746009
G02 X27.199023 Y92.811871 Z-2.800000 I0.000000 J-0.785615
G02 X27.445312 Y92.651600 Z-2.800000 I-0.283841 J-0.705550
G02 X27.612514 Y92.416604 Z-2.800000 I-0.509572 J-0.539546
G02 X27.668554 Y92.155510 Z-2.800000 I-0.580205 J-0.261094
G02 X27.636825 Y91.928960 Z-2.800000 I-0.824673 J0.000000
G02 X27.544531 Y91.721420 Z-2.800000 I-0.781717 J0.223343
G02 X27.403166 Y91.542806 Z-2.800000 I-0.734752 J0.436275
G02 X26.657763 Y90.865660 Z-2.800000 I-11.598024 J12.018272
G02 X25.886609 Y90.218741 Z-2.800000 I-24.736537 J28.703896
G02 X25.305908 Y89.761850 Z-2.800000 I-12.913997 J15.815993
G01 X26.335302 Y88.093740 Z-2.800000
G02 X26.924297 Y86.963475 Z-2.800000 I-7.418584 J-4.584513
G02 X27.017431 Y86.512440 Z-2.800000 I-1.045581 J-0.451035
G02 X26.943206 Y86.211505 Z-2.800000 I-0.647161 J-0.000000
G02 X26.694970 Y85.898520 Z-2.800000 I-0.951691 J0.499875
G02 X26.346846 Y85.688342 Z-2.800000 I-0.785590 J0.907802
G02 X25.981836 Y85.619470 Z-2.800000 I-0.365010 J0.932812
G02 X25.581084 Y85.747310 Z-2.800000 I-0.000000 J0.692056
G02 X25.318310 Y86.090760 Z-2.800000 I0.423543 J0.596303
G03 X25.006461 Y86.759351 Z-2.800000 I-4.451923 J-1.669473
G03 X24.047070 Y88.341780 Z-2.800000 I-26.049406 J-14.711130
G02 X23.845722 Y88.653613 Z-2.800000 I15.443906 J10.192948
G02 X23.823828 Y88.695250 Z-2.800000 I0.251290 J0.158708
G01 X23.823835 Y88.695250 Z-2.800000
G00 Z2.000000

(End cutting path id: path111)


(Start cutting path id: path109)
(Change tool to Cylindrical cutter)

G00 Z2.000000
G00 X16.047562 Y86.506240

G01 Z-1.000000 F20.0(Penetrate)
G03 X15.717680 Y87.462116 Z-1.000000 I-14.294477 J-4.398310 F100.000000
G03 X14.528275 Y90.468790 Z-1.000000 I-142.781163 J-54.743931
G02 X14.244349 Y91.106125 Z-1.000000 I4.817895 J2.528235
G02 X14.199613 Y91.355550 Z-1.000000 I0.672972 J0.249425
G02 X14.272681 Y91.665075 Z-1.000000 I0.692127 J0.000000
G02 X14.522074 Y92.000480 Z-1.000000 I1.069210 J-0.534598
G02 X14.874209 Y92.236854 Z-1.000000 I0.846061 J-0.879928
G02 X15.222806 Y92.310530 Z-1.000000 I0.348597 J-0.787850
G02 X15.486921 Y92.268208 Z-1.000000 I0.000000 J-0.845279
G02 X15.694095 Y92.155510 Z-1.000000 I-0.205326 J-0.624228
G02 X15.848025 Y91.976416 Z-1.000000 I-0.360277 J-0.465353
G02 X16.363822 Y90.952480 Z-1.000000 I-12.119957 J-6.747182
G02 X16.808239 Y89.885418 Z-1.000000 I-17.174421 J-7.778993
G02 X17.306400 Y88.478210 Z-1.000000 I-29.384760 J-11.194182
G02 X19.042751 Y91.260434 Z-1.000000 I100.512290 J-60.795528
G02 X19.445804 Y91.802040 Z-1.000000 I4.185790 J-2.694210
G02 X19.940378 Y92.218384 Z-1.000000 I1.517507 J-1.300718
G02 X20.320170 Y92.322940 Z-1.000000 I0.379792 J-0.637507
G02 X20.621383 Y92.268319 Z-1.000000 I0.000000 J-0.857851
G02 X20.865873 Y92.118300 Z-1.000000 I-0.264469 J-0.705245
G02 X21.033225 Y91.889074 Z-1.000000 I-0.486947 J-0.531211
G02 X21.089115 Y91.634610 Z-1.000000 I-0.551338 J-0.254464
G02 X21.053877 Y91.414920 Z-1.000000 I-0.702447 J0.000000
G02 X20.921683 Y91.126110 Z-1.000000 I-1.359707 J0.447706
G02 X20.755683 Y90.856201 Z-1.000000 I-7.714139 J4.558368
G02 X18.081547 Y86.686070 Z-1.000000 I-1844.883274 J1180.106352
G03 X16.853745 Y84.738493 Z-1.000000 I44.086664 J-29.154151
G03 X16.190189 Y83.535880 Z-1.000000 I16.128409 J-9.683414
G02 X15.726460 Y82.695693 Z-1.000000 I-11.337180 J5.709324
G02 X15.551468 Y82.475480 Z-1.000000 I-0.934093 J0.562642
G02 X15.323048 Y82.335726 Z-1.000000 I-0.425305 J0.438589
G02 X14.968558 Y82.277040 Z-1.000000 I-0.354490 J1.041302
G02 X14.655329 Y82.332655 Z-1.000000 I0.000000 J0.909871
G02 X14.410453 Y82.481680 Z-1.000000 I0.254322 J0.693599
G02 X14.248098 Y82.709919 Z-1.000000 I0.492076 J0.521895
G02 X14.193412 Y82.965370 Z-1.000000 I0.569288 J0.255451
G02 X14.317453 Y83.469645 Z-1.000000 I1.087056 J0.000000
G02 X16.047562 Y86.506240 Z-1.000000 I43.616288 J-22.839342
G01 X16.047562 Y86.506240 Z-1.000000
G00 Z2.000000

(End cutting path id: path109)


(Start cutting path id: path109)
(Change tool to Cylindrical cutter)

G00 Z2.000000
G00 X16.047562 Y86.506240

G01 Z-2.000000 F20.0(Penetrate)
G03 X15.717680 Y87.462116 Z-2.000000 I-14.294477 J-4.398310 F100.000000
G03 X14.528275 Y90.468790 Z-2.000000 I-142.781163 J-54.743931
G02 X14.244349 Y91.106125 Z-2.000000 I4.817895 J2.528235
G02 X14.199613 Y91.355550 Z-2.000000 I0.672972 J0.249425
G02 X14.272681 Y91.665075 Z-2.000000 I0.692127 J0.000000
G02 X14.522074 Y92.000480 Z-2.000000 I1.069210 J-0.534598
G02 X14.874209 Y92.236854 Z-2.000000 I0.846061 J-0.879928
G02 X15.222806 Y92.310530 Z-2.000000 I0.348597 J-0.787850
G02 X15.486921 Y92.268208 Z-2.000000 I0.000000 J-0.845279
G02 X15.694095 Y92.155510 Z-2.000000 I-0.205326 J-0.624228
G02 X15.848025 Y91.976416 Z-2.000000 I-0.360277 J-0.465353
G02 X16.363822 Y90.952480 Z-2.000000 I-12.119957 J-6.747182
G02 X16.808239 Y89.885418 Z-2.000000 I-17.174421 J-7.778993
G02 X17.306400 Y88.478210 Z-2.000000 I-29.384760 J-11.194182
G02 X19.042751 Y91.260434 Z-2.000000 I100.512290 J-60.795528
G02 X19.445804 Y91.802040 Z-2.000000 I4.185790 J-2.694210
G02 X19.940378 Y92.218384 Z-2.000000 I1.517507 J-1.300718
G02 X20.320170 Y92.322940 Z-2.000000 I0.379792 J-0.637507
G02 X20.621383 Y92.268319 Z-2.000000 I0.000000 J-0.857851
G02 X20.865873 Y92.118300 Z-2.000000 I-0.264469 J-0.705245
G02 X21.033225 Y91.889074 Z-2.000000 I-0.486947 J-0.531211
G02 X21.089115 Y91.634610 Z-2.000000 I-0.551338 J-0.254464
G02 X21.053877 Y91.414920 Z-2.000000 I-0.702447 J0.000000
G02 X20.921683 Y91.126110 Z-2.000000 I-1.359707 J0.447706
G02 X20.755683 Y90.856201 Z-2.000000 I-7.714139 J4.558368
G02 X18.081547 Y86.686070 Z-2.000000 I-1844.883274 J1180.106352
G03 X16.853745 Y84.738493 Z-2.000000 I44.086664 J-29.154151
G03 X16.190189 Y83.535880 Z-2.000000 I16.128409 J-9.683414
G02 X15.726460 Y82.695693 Z-2.000000 I-11.337180 J5.709324
G02 X15.551468 Y82.475480 Z-2.000000 I-0.934093 J0.562642
G02 X15.323048 Y82.335726 Z-2.000000 I-0.425305 J0.438589
G02 X14.968558 Y82.277040 Z-2.000000 I-0.354490 J1.041302
G02 X14.655329 Y82.332655 Z-2.000000 I0.000000 J0.909871
G02 X14.410453 Y82.481680 Z-2.000000 I0.254322 J0.693599
G02 X14.248098 Y82.709919 Z-2.000000 I0.492076 J0.521895
G02 X14.193412 Y82.965370 Z-2.000000 I0.569288 J0.255451
G02 X14.317453 Y83.469645 Z-2.000000 I1.087056 J0.000000
G02 X16.047562 Y86.506240 Z-2.000000 I43.616288 J-22.839342
G01 X16.047562 Y86.506240 Z-2.000000
G00 Z2.000000

(End cutting path id: path109)


(Start cutting path id: path109)
(Change tool to Cylindrical cutter)

G00 Z2.000000
G00 X16.047562 Y86.506240

G01 Z-2.800000 F20.0(Penetrate)
G03 X15.717680 Y87.462116 Z-2.800000 I-14.294477 J-4.398310 F100.000000
G03 X14.528275 Y90.468790 Z-2.800000 I-142.781163 J-54.743931
G02 X14.244349 Y91.106125 Z-2.800000 I4.817895 J2.528235
G02 X14.199613 Y91.355550 Z-2.800000 I0.672972 J0.249425
G02 X14.272681 Y91.665075 Z-2.800000 I0.692127 J0.000000
G02 X14.522074 Y92.000480 Z-2.800000 I1.069210 J-0.534598
G02 X14.874209 Y92.236854 Z-2.800000 I0.846061 J-0.879928
G02 X15.222806 Y92.310530 Z-2.800000 I0.348597 J-0.787850
G02 X15.486921 Y92.268208 Z-2.800000 I0.000000 J-0.845279
G02 X15.694095 Y92.155510 Z-2.800000 I-0.205326 J-0.624228
G02 X15.848025 Y91.976416 Z-2.800000 I-0.360277 J-0.465353
G02 X16.363822 Y90.952480 Z-2.800000 I-12.119957 J-6.747182
G02 X16.808239 Y89.885418 Z-2.800000 I-17.174421 J-7.778993
G02 X17.306400 Y88.478210 Z-2.800000 I-29.384760 J-11.194182
G02 X19.042751 Y91.260434 Z-2.800000 I100.512290 J-60.795528
G02 X19.445804 Y91.802040 Z-2.800000 I4.185790 J-2.694210
G02 X19.940378 Y92.218384 Z-2.800000 I1.517507 J-1.300718
G02 X20.320170 Y92.322940 Z-2.800000 I0.379792 J-0.637507
G02 X20.621383 Y92.268319 Z-2.800000 I0.000000 J-0.857851
G02 X20.865873 Y92.118300 Z-2.800000 I-0.264469 J-0.705245
G02 X21.033225 Y91.889074 Z-2.800000 I-0.486947 J-0.531211
G02 X21.089115 Y91.634610 Z-2.800000 I-0.551338 J-0.254464
G02 X21.053877 Y91.414920 Z-2.800000 I-0.702447 J0.000000
G02 X20.921683 Y91.126110 Z-2.800000 I-1.359707 J0.447706
G02 X20.755683 Y90.856201 Z-2.800000 I-7.714139 J4.558368
G02 X18.081547 Y86.686070 Z-2.800000 I-1844.883274 J1180.106352
G03 X16.853745 Y84.738493 Z-2.800000 I44.086664 J-29.154151
G03 X16.190189 Y83.535880 Z-2.800000 I16.128409 J-9.683414
G02 X15.726460 Y82.695693 Z-2.800000 I-11.337180 J5.709324
G02 X15.551468 Y82.475480 Z-2.800000 I-0.934093 J0.562642
G02 X15.323048 Y82.335726 Z-2.800000 I-0.425305 J0.438589
G02 X14.968558 Y82.277040 Z-2.800000 I-0.354490 J1.041302
G02 X14.655329 Y82.332655 Z-2.800000 I0.000000 J0.909871
G02 X14.410453 Y82.481680 Z-2.800000 I0.254322 J0.693599
G02 X14.248098 Y82.709919 Z-2.800000 I0.492076 J0.521895
G02 X14.193412 Y82.965370 Z-2.800000 I0.569288 J0.255451
G02 X14.317453 Y83.469645 Z-2.800000 I1.087056 J0.000000
G02 X16.047562 Y86.506240 Z-2.800000 I43.616288 J-22.839342
G01 X16.047562 Y86.506240 Z-2.800000
G00 Z2.000000

(End cutting path id: path109)


(Start cutting path id: path107)
(Change tool to Cylindrical cutter)

G00 Z2.000000
G00 X10.044829 Y87.281380

G01 Z-1.000000 F20.0(Penetrate)
G01 X10.385894 Y87.293780 Z-1.000000 F100.000000
G02 X10.891586 Y87.280958 Z-1.000000 I0.149429 J-4.085167
G02 X11.378081 Y87.206980 Z-1.000000 I-0.337135 J-3.853696
G03 X11.783123 Y87.138644 Z-1.000000 I0.961861 J4.466626
G03 X12.085015 Y87.120180 Z-1.000000 I0.301892 J2.458733
G02 X12.397341 Y87.064564 Z-1.000000 I0.000000 J-0.904785
G02 X12.624517 Y86.921750 Z-1.000000 I-0.223457 J-0.607548
G02 X12.778573 Y86.704440 Z-1.000000 I-0.420958 J-0.461688
G02 X12.835357 Y86.425650 Z-1.000000 I-0.655985 J-0.278790
G02 X12.758938 Y86.068597 Z-1.000000 I-0.872341 J0.000000
G02 X12.537700 Y85.762130 Z-1.000000 I-0.852883 J0.382606
G02 X12.211409 Y85.555480 Z-1.000000 I-0.704495 J0.751441
G02 X11.830767 Y85.483070 Z-1.000000 I-0.380642 J0.964267
G02 X11.516518 Y85.501961 Z-1.000000 I-0.000000 J2.623161
G02 X11.111431 Y85.569870 Z-1.000000 I0.534925 J4.433073
G03 X10.700280 Y85.638803 Z-1.000000 I-1.009038 J-4.757791
G03 X10.410698 Y85.656670 Z-1.000000 I-0.289582 J-2.337786
G03 X8.996422 Y85.595077 Z-1.000000 I0.000000 J-16.267958
G03 X7.781402 Y85.427220 Z-1.000000 I1.061746 J-12.166675
G02 X7.613111 Y85.397848 Z-1.000000 I-0.404295 J1.819677
G02 X7.489947 Y85.390020 Z-1.000000 I-0.123164 J0.964965
G02 X7.180426 Y85.440801 Z-1.000000 I0.000000 J0.968692
G02 X6.956646 Y85.569850 Z-1.000000 I0.209944 J0.622606
G02 X6.804844 Y85.767943 Z-1.000000 I0.381323 J0.449424
G02 X6.752007 Y86.003930 Z-1.000000 I0.500576 J0.235987
G02 X6.869654 Y86.420877 Z-1.000000 I0.797666 J0.000000
G02 X7.272906 Y86.853490 Z-1.000000 I1.267270 J-0.777013
G03 X8.843514 Y88.209665 Z-1.000000 I-8.573883 J11.517112
G03 X11.099029 Y90.673420 Z-1.000000 I-26.285652 J26.328267
G02 X10.714365 Y90.654555 Z-1.000000 I-0.804395 J12.470485
G02 X10.361089 Y90.648620 Z-1.000000 I-0.353276 J10.511949
G02 X9.070420 Y90.696435 Z-1.000000 I-0.000000 J17.443420
G02 X8.438726 Y90.791250 Z-1.000000 I0.315702 J4.255028
G02 X7.969160 Y91.058774 Z-1.000000 I0.226368 J0.943188
G02 X7.818609 Y91.429970 Z-1.000000 I0.382332 J0.371196
G02 X7.891754 Y91.803650 Z-1.000000 I0.991095 J0.000000
G02 X8.103863 Y92.130700 Z-1.000000 I0.962046 J-0.391631
G02 X8.426827 Y92.353409 Z-1.000000 I0.733592 J-0.718299
G02 X8.785991 Y92.428360 Z-1.000000 I0.359164 J-0.823072
G02 X9.132172 Y92.413085 Z-1.000000 I-0.000000 J-3.930522
G02 X9.697564 Y92.347760 Z-1.000000 I-0.933924 J-10.562531
G03 X10.330553 Y92.295368 Z-1.000000 I2.047958 J20.893105
G03 X10.615337 Y92.285760 Z-1.000000 I0.284784 J4.215601
G03 X11.210225 Y92.297361 Z-1.000000 I0.000000 J15.258483
G03 X11.886577 Y92.335360 Z-1.000000 I-0.771106 J19.763320
G02 X12.854251 Y92.395297 Z-1.000000 I3.999997 J-56.737960
G02 X13.164019 Y92.403560 Z-1.000000 I0.309768 J-5.802211
G02 X13.681829 Y92.233040 Z-1.000000 I0.000000 J-0.871466
G02 X13.852349 Y91.895070 Z-1.000000 I-0.249669 J-0.337970
G02 X13.711653 Y91.360209 Z-1.000000 I-1.086995 J-0.000000
G02 X13.126812 Y90.611420 Z-1.000000 I-2.792821 J1.578542
G03 X12.734674 Y90.210143 Z-1.000000 I7.192957 J-7.421374
G03 X10.044829 Y87.281390 Z-1.000000 I381.015491 J-352.634440
G01 X10.044829 Y87.281380 Z-1.000000
G00 Z2.000000

(End cutting path id: path107)


(Start cutting path id: path107)
(Change tool to Cylindrical cutter)

G00 Z2.000000
G00 X10.044829 Y87.281380

G01 Z-2.000000 F20.0(Penetrate)
G01 X10.385894 Y87.293780 Z-2.000000 F100.000000
G02 X10.891586 Y87.280958 Z-2.000000 I0.149429 J-4.085167
G02 X11.378081 Y87.206980 Z-2.000000 I-0.337135 J-3.853696
G03 X11.783123 Y87.138644 Z-2.000000 I0.961861 J4.466626
G03 X12.085015 Y87.120180 Z-2.000000 I0.301892 J2.458733
G02 X12.397341 Y87.064564 Z-2.000000 I0.000000 J-0.904785
G02 X12.624517 Y86.921750 Z-2.000000 I-0.223457 J-0.607548
G02 X12.778573 Y86.704440 Z-2.000000 I-0.420958 J-0.461688
G02 X12.835357 Y86.425650 Z-2.000000 I-0.655985 J-0.278790
G02 X12.758938 Y86.068597 Z-2.000000 I-0.872341 J0.000000
G02 X12.537700 Y85.762130 Z-2.000000 I-0.852883 J0.382606
G02 X12.211409 Y85.555480 Z-2.000000 I-0.704495 J0.751441
G02 X11.830767 Y85.483070 Z-2.000000 I-0.380642 J0.964267
G02 X11.516518 Y85.501961 Z-2.000000 I-0.000000 J2.623161
G02 X11.111431 Y85.569870 Z-2.000000 I0.534925 J4.433073
G03 X10.700280 Y85.638803 Z-2.000000 I-1.009038 J-4.757791
G03 X10.410698 Y85.656670 Z-2.000000 I-0.289582 J-2.337786
G03 X8.996422 Y85.595077 Z-2.000000 I0.000000 J-16.267958
G03 X7.781402 Y85.427220 Z-2.000000 I1.061746 J-12.166675
G02 X7.613111 Y85.397848 Z-2.000000 I-0.404295 J1.819677
G02 X7.489947 Y85.390020 Z-2.000000 I-0.123164 J0.964965
G02 X7.180426 Y85.440801 Z-2.000000 I0.000000 J0.968692
G02 X6.956646 Y85.569850 Z-2.000000 I0.209944 J0.622606
G02 X6.804844 Y85.767943 Z-2.000000 I0.381323 J0.449424
G02 X6.752007 Y86.003930 Z-2.000000 I0.500576 J0.235987
G02 X6.869654 Y86.420877 Z-2.000000 I0.797666 J0.000000
G02 X7.272906 Y86.853490 Z-2.000000 I1.267270 J-0.777013
G03 X8.843514 Y88.209665 Z-2.000000 I-8.573883 J11.517112
G03 X11.099029 Y90.673420 Z-2.000000 I-26.285652 J26.328267
G02 X10.714365 Y90.654555 Z-2.000000 I-0.804395 J12.470485
G02 X10.361089 Y90.648620 Z-2.000000 I-0.353276 J10.511949
G02 X9.070420 Y90.696435 Z-2.000000 I-0.000000 J17.443420
G02 X8.438726 Y90.791250 Z-2.000000 I0.315702 J4.255028
G02 X7.969160 Y91.058774 Z-2.000000 I0.226368 J0.943188
G02 X7.818609 Y91.429970 Z-2.000000 I0.382332 J0.371196
G02 X7.891754 Y91.803650 Z-2.000000 I0.991095 J0.000000
G02 X8.103863 Y92.130700 Z-2.000000 I0.962046 J-0.391631
G02 X8.426827 Y92.353409 Z-2.000000 I0.733592 J-0.718299
G02 X8.785991 Y92.428360 Z-2.000000 I0.359164 J-0.823072
G02 X9.132172 Y92.413085 Z-2.000000 I-0.000000 J-3.930522
G02 X9.697564 Y92.347760 Z-2.000000 I-0.933924 J-10.562531
G03 X10.330553 Y92.295368 Z-2.000000 I2.047958 J20.893105
G03 X10.615337 Y92.285760 Z-2.000000 I0.284784 J4.215601
G03 X11.210225 Y92.297361 Z-2.000000 I0.000000 J15.258483
G03 X11.886577 Y92.335360 Z-2.000000 I-0.771106 J19.763320
G02 X12.854251 Y92.395297 Z-2.000000 I3.999997 J-56.737960
G02 X13.164019 Y92.403560 Z-2.000000 I0.309768 J-5.802211
G02 X13.681829 Y92.233040 Z-2.000000 I0.000000 J-0.871466
G02 X13.852349 Y91.895070 Z-2.000000 I-0.249669 J-0.337970
G02 X13.711653 Y91.360209 Z-2.000000 I-1.086995 J-0.000000
G02 X13.126812 Y90.611420 Z-2.000000 I-2.792821 J1.578542
G03 X12.734674 Y90.210143 Z-2.000000 I7.192957 J-7.421374
G03 X10.044829 Y87.281390 Z-2.000000 I381.015491 J-352.634440
G01 X10.044829 Y87.281380 Z-2.000000
G00 Z2.000000

(End cutting path id: path107)


(Start cutting path id: path107)
(Change tool to Cylindrical cutter)

G00 Z2.000000
G00 X10.044829 Y87.281380

G01 Z-2.800000 F20.0(Penetrate)
G01 X10.385894 Y87.293780 Z-2.800000 F100.000000
G02 X10.891586 Y87.280958 Z-2.800000 I0.149429 J-4.085167
G02 X11.378081 Y87.206980 Z-2.800000 I-0.337135 J-3.853696
G03 X11.783123 Y87.138644 Z-2.800000 I0.961861 J4.466626
G03 X12.085015 Y87.120180 Z-2.800000 I0.301892 J2.458733
G02 X12.397341 Y87.064564 Z-2.800000 I0.000000 J-0.904785
G02 X12.624517 Y86.921750 Z-2.800000 I-0.223457 J-0.607548
G02 X12.778573 Y86.704440 Z-2.800000 I-0.420958 J-0.461688
G02 X12.835357 Y86.425650 Z-2.800000 I-0.655985 J-0.278790
G02 X12.758938 Y86.068597 Z-2.800000 I-0.872341 J0.000000
G02 X12.537700 Y85.762130 Z-2.800000 I-0.852883 J0.382606
G02 X12.211409 Y85.555480 Z-2.800000 I-0.704495 J0.751441
G02 X11.830767 Y85.483070 Z-2.800000 I-0.380642 J0.964267
G02 X11.516518 Y85.501961 Z-2.800000 I-0.000000 J2.623161
G02 X11.111431 Y85.569870 Z-2.800000 I0.534925 J4.433073
G03 X10.700280 Y85.638803 Z-2.800000 I-1.009038 J-4.757791
G03 X10.410698 Y85.656670 Z-2.800000 I-0.289582 J-2.337786
G03 X8.996422 Y85.595077 Z-2.800000 I0.000000 J-16.267958
G03 X7.781402 Y85.427220 Z-2.800000 I1.061746 J-12.166675
G02 X7.613111 Y85.397848 Z-2.800000 I-0.404295 J1.819677
G02 X7.489947 Y85.390020 Z-2.800000 I-0.123164 J0.964965
G02 X7.180426 Y85.440801 Z-2.800000 I0.000000 J0.968692
G02 X6.956646 Y85.569850 Z-2.800000 I0.209944 J0.622606
G02 X6.804844 Y85.767943 Z-2.800000 I0.381323 J0.449424
G02 X6.752007 Y86.003930 Z-2.800000 I0.500576 J0.235987
G02 X6.869654 Y86.420877 Z-2.800000 I0.797666 J0.000000
G02 X7.272906 Y86.853490 Z-2.800000 I1.267270 J-0.777013
G03 X8.843514 Y88.209665 Z-2.800000 I-8.573883 J11.517112
G03 X11.099029 Y90.673420 Z-2.800000 I-26.285652 J26.328267
G02 X10.714365 Y90.654555 Z-2.800000 I-0.804395 J12.470485
G02 X10.361089 Y90.648620 Z-2.800000 I-0.353276 J10.511949
G02 X9.070420 Y90.696435 Z-2.800000 I-0.000000 J17.443420
G02 X8.438726 Y90.791250 Z-2.800000 I0.315702 J4.255028
G02 X7.969160 Y91.058774 Z-2.800000 I0.226368 J0.943188
G02 X7.818609 Y91.429970 Z-2.800000 I0.382332 J0.371196
G02 X7.891754 Y91.803650 Z-2.800000 I0.991095 J0.000000
G02 X8.103863 Y92.130700 Z-2.800000 I0.962046 J-0.391631
G02 X8.426827 Y92.353409 Z-2.800000 I0.733592 J-0.718299
G02 X8.785991 Y92.428360 Z-2.800000 I0.359164 J-0.823072
G02 X9.132172 Y92.413085 Z-2.800000 I-0.000000 J-3.930522
G02 X9.697564 Y92.347760 Z-2.800000 I-0.933924 J-10.562531
G03 X10.330553 Y92.295368 Z-2.800000 I2.047958 J20.893105
G03 X10.615337 Y92.285760 Z-2.800000 I0.284784 J4.215601
G03 X11.210225 Y92.297361 Z-2.800000 I0.000000 J15.258483
G03 X11.886577 Y92.335360 Z-2.800000 I-0.771106 J19.763320
G02 X12.854251 Y92.395297 Z-2.800000 I3.999997 J-56.737960
G02 X13.164019 Y92.403560 Z-2.800000 I0.309768 J-5.802211
G02 X13.681829 Y92.233040 Z-2.800000 I0.000000 J-0.871466
G02 X13.852349 Y91.895070 Z-2.800000 I-0.249669 J-0.337970
G02 X13.711653 Y91.360209 Z-2.800000 I-1.086995 J-0.000000
G02 X13.126812 Y90.611420 Z-2.800000 I-2.792821 J1.578542
G03 X12.734674 Y90.210143 Z-2.800000 I7.192957 J-7.421374
G03 X10.044829 Y87.281390 Z-2.800000 I381.015491 J-352.634440
G01 X10.044829 Y87.281380 Z-2.800000
G00 Z2.000000

(End cutting path id: path107)


(Start cutting path id: path105)
(Change tool to Cylindrical cutter)

G00 Z2.000000
G00 X6.894632 Y90.344760

G01 Z-1.000000 F20.0(Penetrate)
G02 X6.796898 Y90.012681 Z-1.000000 I-1.171928 J0.164486 F100.000000
G02 X6.590774 Y89.687440 Z-1.000000 I-1.329144 J0.614421
G02 X6.302832 Y89.474956 Z-1.000000 I-0.577502 J0.481246
G02 X5.877639 Y89.389780 Z-1.000000 I-0.425193 J1.018680
G02 X5.403218 Y89.572683 Z-1.000000 I-0.000000 J0.706736
G02 X5.220315 Y89.985100 Z-1.000000 I0.373514 J0.412417
G02 X5.224544 Y90.083968 Z-1.000000 I1.157905 J0.000000
G02 X5.238915 Y90.202140 Z-1.000000 I1.669471 J-0.143071
G01 X5.294725 Y90.828450 Z-1.000000
G03 X4.040469 Y90.352481 Z-1.000000 I0.483803 J-3.165469
G03 X3.068505 Y89.389780 Z-1.000000 I1.807401 J-2.796800
G01 X2.584813 Y86.283000 Z-1.000000
G02 X2.474636 Y85.965604 Z-1.000000 I-0.953890 J0.153300
G02 X2.256151 Y85.693880 Z-1.000000 I-0.908672 J0.506936
G02 X1.958963 Y85.516188 Z-1.000000 I-0.619866 J0.699351
G02 X1.598827 Y85.452040 Z-1.000000 I-0.360136 J0.978854
G02 X1.284718 Y85.519055 Z-1.000000 I0.000000 J0.769640
G02 X1.071727 Y85.687680 Z-1.000000 I0.224721 J0.502675
G02 X0.957125 Y85.934252 Z-1.000000 I0.469991 J0.368360
G02 X0.947704 Y86.283000 Z-1.000000 I0.962417 J0.200500
G01 X1.586425 Y90.344760 Z-1.000000
G01 X1.741454 Y91.231530 Z-1.000000
G02 X1.830381 Y91.658979 Z-1.000000 I4.380374 J-0.688319
G02 X1.902684 Y91.851650 Z-1.000000 I0.953418 J-0.247887
G02 X2.023937 Y92.017000 Z-1.000000 I0.635798 J-0.339106
G02 X2.212743 Y92.167910 Z-1.000000 I0.714994 J-0.700975
G02 X2.439515 Y92.262996 Z-1.000000 I0.442724 J-0.737899
G02 X2.715038 Y92.298130 Z-1.000000 I0.275523 J-1.062768
G02 X3.210790 Y92.094051 Z-1.000000 I0.000000 J-0.704182
G02 X3.428173 Y91.591200 Z-1.000000 I-0.517651 J-0.522194
G02 X4.716886 Y92.216131 Z-1.000000 I2.862109 J-4.260915
G02 X5.989257 Y92.415950 Z-1.000000 I1.272371 J-3.951076
G02 X6.693859 Y92.103560 Z-1.000000 I-0.000000 J-0.950815
G02 X7.006249 Y91.293540 Z-1.000000 I-0.893983 J-0.810020
G02 X6.995069 Y91.052645 Z-1.000000 I-2.600768 J-0.000000
G02 X6.956639 Y90.760240 Z-1.000000 I-3.872985 J0.360283
G01 X6.894632 Y90.344760 Z-1.000000
G00 Z2.000000

(End cutting path id: path105)


(Start cutting path id: path105)
(Change tool to Cylindrical cutter)

G00 Z2.000000
G00 X6.894632 Y90.344760

G01 Z-2.000000 F20.0(Penetrate)
G02 X6.796898 Y90.012681 Z-2.000000 I-1.171928 J0.164486 F100.000000
G02 X6.590774 Y89.687440 Z-2.000000 I-1.329144 J0.614421
G02 X6.302832 Y89.474956 Z-2.000000 I-0.577502 J0.481246
G02 X5.877639 Y89.389780 Z-2.000000 I-0.425193 J1.018680
G02 X5.403218 Y89.572683 Z-2.000000 I-0.000000 J0.706736
G02 X5.220315 Y89.985100 Z-2.000000 I0.373514 J0.412417
G02 X5.224544 Y90.083968 Z-2.000000 I1.157905 J0.000000
G02 X5.238915 Y90.202140 Z-2.000000 I1.669471 J-0.143071
G01 X5.294725 Y90.828450 Z-2.000000
G03 X4.040469 Y90.352481 Z-2.000000 I0.483803 J-3.165469
G03 X3.068505 Y89.389780 Z-2.000000 I1.807401 J-2.796800
G01 X2.584813 Y86.283000 Z-2.000000
G02 X2.474636 Y85.965604 Z-2.000000 I-0.953890 J0.153300
G02 X2.256151 Y85.693880 Z-2.000000 I-0.908672 J0.506936
G02 X1.958963 Y85.516188 Z-2.000000 I-0.619866 J0.699351
G02 X1.598827 Y85.452040 Z-2.000000 I-0.360136 J0.978854
G02 X1.284718 Y85.519055 Z-2.000000 I0.000000 J0.769640
G02 X1.071727 Y85.687680 Z-2.000000 I0.224721 J0.502675
G02 X0.957125 Y85.934252 Z-2.000000 I0.469991 J0.368360
G02 X0.947704 Y86.283000 Z-2.000000 I0.962417 J0.200500
G01 X1.586425 Y90.344760 Z-2.000000
G01 X1.741454 Y91.231530 Z-2.000000
G02 X1.830381 Y91.658979 Z-2.000000 I4.380374 J-0.688319
G02 X1.902684 Y91.851650 Z-2.000000 I0.953418 J-0.247887
G02 X2.023937 Y92.017000 Z-2.000000 I0.635798 J-0.339106
G02 X2.212743 Y92.167910 Z-2.000000 I0.714994 J-0.700975
G02 X2.439515 Y92.262996 Z-2.000000 I0.442724 J-0.737899
G02 X2.715038 Y92.298130 Z-2.000000 I0.275523 J-1.062768
G02 X3.210790 Y92.094051 Z-2.000000 I0.000000 J-0.704182
G02 X3.428173 Y91.591200 Z-2.000000 I-0.517651 J-0.522194
G02 X4.716886 Y92.216131 Z-2.000000 I2.862109 J-4.260915
G02 X5.989257 Y92.415950 Z-2.000000 I1.272371 J-3.951076
G02 X6.693859 Y92.103560 Z-2.000000 I-0.000000 J-0.950815
G02 X7.006249 Y91.293540 Z-2.000000 I-0.893983 J-0.810020
G02 X6.995069 Y91.052645 Z-2.000000 I-2.600768 J-0.000000
G02 X6.956639 Y90.760240 Z-2.000000 I-3.872985 J0.360283
G01 X6.894632 Y90.344760 Z-2.000000
G00 Z2.000000

(End cutting path id: path105)


(Start cutting path id: path105)
(Change tool to Cylindrical cutter)

G00 Z2.000000
G00 X6.894632 Y90.344760

G01 Z-2.800000 F20.0(Penetrate)
G02 X6.796898 Y90.012681 Z-2.800000 I-1.171928 J0.164486 F100.000000
G02 X6.590774 Y89.687440 Z-2.800000 I-1.329144 J0.614421
G02 X6.302832 Y89.474956 Z-2.800000 I-0.577502 J0.481246
G02 X5.877639 Y89.389780 Z-2.800000 I-0.425193 J1.018680
G02 X5.403218 Y89.572683 Z-2.800000 I-0.000000 J0.706736
G02 X5.220315 Y89.985100 Z-2.800000 I0.373514 J0.412417
G02 X5.224544 Y90.083968 Z-2.800000 I1.157905 J0.000000
G02 X5.238915 Y90.202140 Z-2.800000 I1.669471 J-0.143071
G01 X5.294725 Y90.828450 Z-2.800000
G03 X4.040469 Y90.352481 Z-2.800000 I0.483803 J-3.165469
G03 X3.068505 Y89.389780 Z-2.800000 I1.807401 J-2.796800
G01 X2.584813 Y86.283000 Z-2.800000
G02 X2.474636 Y85.965604 Z-2.800000 I-0.953890 J0.153300
G02 X2.256151 Y85.693880 Z-2.800000 I-0.908672 J0.506936
G02 X1.958963 Y85.516188 Z-2.800000 I-0.619866 J0.699351
G02 X1.598827 Y85.452040 Z-2.800000 I-0.360136 J0.978854
G02 X1.284718 Y85.519055 Z-2.800000 I0.000000 J0.769640
G02 X1.071727 Y85.687680 Z-2.800000 I0.224721 J0.502675
G02 X0.957125 Y85.934252 Z-2.800000 I0.469991 J0.368360
G02 X0.947704 Y86.283000 Z-2.800000 I0.962417 J0.200500
G01 X1.586425 Y90.344760 Z-2.800000
G01 X1.741454 Y91.231530 Z-2.800000
G02 X1.830381 Y91.658979 Z-2.800000 I4.380374 J-0.688319
G02 X1.902684 Y91.851650 Z-2.800000 I0.953418 J-0.247887
G02 X2.023937 Y92.017000 Z-2.800000 I0.635798 J-0.339106
G02 X2.212743 Y92.167910 Z-2.800000 I0.714994 J-0.700975
G02 X2.439515 Y92.262996 Z-2.800000 I0.442724 J-0.737899
G02 X2.715038 Y92.298130 Z-2.800000 I0.275523 J-1.062768
G02 X3.210790 Y92.094051 Z-2.800000 I0.000000 J-0.704182
G02 X3.428173 Y91.591200 Z-2.800000 I-0.517651 J-0.522194
G02 X4.716886 Y92.216131 Z-2.800000 I2.862109 J-4.260915
G02 X5.989257 Y92.415950 Z-2.800000 I1.272371 J-3.951076
G02 X6.693859 Y92.103560 Z-2.800000 I-0.000000 J-0.950815
G02 X7.006249 Y91.293540 Z-2.800000 I-0.893983 J-0.810020
G02 X6.995069 Y91.052645 Z-2.800000 I-2.600768 J-0.000000
G02 X6.956639 Y90.760240 Z-2.800000 I-3.872985 J0.360283
G01 X6.894632 Y90.344760 Z-2.800000
G00 Z2.000000

(End cutting path id: path105)


(Start cutting path id: path103)
(Change tool to Cylindrical cutter)

G00 Z2.000000
G00 X-4.149653 Y85.631870

G01 Z-1.000000 F20.0(Penetrate)
G01 X-4.546528 Y83.108000 Z-1.000000 F100.000000
G02 X-4.660559 Y82.774731 Z-1.000000 I-0.981679 J0.149746
G02 X-4.881391 Y82.506480 Z-1.000000 I-0.844248 J0.469988
G02 X-5.183820 Y82.327305 Z-1.000000 I-0.645712 J0.745070
G02 X-5.532514 Y82.264640 Z-1.000000 I-0.348694 J0.938815
G02 X-5.850151 Y82.321202 Z-1.000000 I0.000000 J0.920170
G02 X-6.072016 Y82.463070 Z-1.000000 I0.211623 J0.575372
G02 X-6.216879 Y82.678001 Z-1.000000 I0.436251 J0.450316
G02 X-6.270454 Y82.952970 Z-1.000000 I0.678838 J0.274969
G02 X-6.256854 Y83.125447 Z-1.000000 I1.100478 J0.000000
G02 X-5.879780 Y85.414830 Z-1.000000 I195.472719 J-31.019680
G03 X-5.356666 Y88.981317 Z-1.000000 I-106.600326 J17.457205
G03 X-5.148042 Y91.057900 Z-1.000000 I-35.910310 J4.656497
G02 X-5.004618 Y91.802583 Z-1.000000 I2.991007 J-0.189907
G02 X-4.751167 Y92.267130 Z-1.000000 I1.386555 J-0.455074
G02 X-4.350927 Y92.595702 Z-1.000000 I1.040876 J-0.859857
G02 X-3.957417 Y92.695010 Z-1.000000 I0.393510 J-0.729990
G02 X-3.640615 Y92.629530 Z-1.000000 I0.000000 J-0.799109
G02 X-3.411714 Y92.459360 Z-1.000000 I-0.246275 J-0.570308
G02 X-3.280372 Y92.210409 Z-1.000000 I-0.471756 J-0.408012
G02 X-3.262886 Y91.895060 Z-1.000000 I-0.759323 J-0.200263
G01 X-3.287686 Y91.833060 Z-1.000000
G02 X-2.357803 Y92.181915 Z-1.000000 I2.124177 J-4.248312
G02 X-1.545157 Y92.285750 Z-1.000000 I0.812646 J-3.128098
G02 X-0.090044 Y91.626263 Z-1.000000 I0.000000 J-1.935047
G02 X0.569443 Y89.873490 Z-1.000000 I-1.999501 J-1.752773
G02 X0.240982 Y87.874729 Z-1.000000 I-6.245686 J0.000000
G02 X-0.528165 Y86.624080 Z-1.000000 I-3.108953 J1.050163
G02 X-1.736256 Y85.785157 Z-1.000000 I-2.789091 J2.727113
G02 X-3.045841 Y85.507870 Z-1.000000 I-1.309585 J2.953844
G02 X-3.637173 Y85.540986 Z-1.000000 I-0.000000 J5.296113
G02 X-4.149649 Y85.631890 Z-1.000000 I0.456678 J4.064546
G01 X-4.149653 Y85.631870 Z-1.000000
G00 Z2.000000

(End cutting path id: path103)


(Start cutting path id: path103)
(Change tool to Cylindrical cutter)

G00 Z2.000000
G00 X-4.149653 Y85.631870

G01 Z-2.000000 F20.0(Penetrate)
G01 X-4.546528 Y83.108000 Z-2.000000 F100.000000
G02 X-4.660559 Y82.774731 Z-2.000000 I-0.981679 J0.149746
G02 X-4.881391 Y82.506480 Z-2.000000 I-0.844248 J0.469988
G02 X-5.183820 Y82.327305 Z-2.000000 I-0.645712 J0.745070
G02 X-5.532514 Y82.264640 Z-2.000000 I-0.348694 J0.938815
G02 X-5.850151 Y82.321202 Z-2.000000 I0.000000 J0.920170
G02 X-6.072016 Y82.463070 Z-2.000000 I0.211623 J0.575372
G02 X-6.216879 Y82.678001 Z-2.000000 I0.436251 J0.450316
G02 X-6.270454 Y82.952970 Z-2.000000 I0.678838 J0.274969
G02 X-6.256854 Y83.125447 Z-2.000000 I1.100478 J0.000000
G02 X-5.879780 Y85.414830 Z-2.000000 I195.472719 J-31.019680
G03 X-5.356666 Y88.981317 Z-2.000000 I-106.600326 J17.457205
G03 X-5.148042 Y91.057900 Z-2.000000 I-35.910310 J4.656497
G02 X-5.004618 Y91.802583 Z-2.000000 I2.991007 J-0.189907
G02 X-4.751167 Y92.267130 Z-2.000000 I1.386555 J-0.455074
G02 X-4.350927 Y92.595702 Z-2.000000 I1.040876 J-0.859857
G02 X-3.957417 Y92.695010 Z-2.000000 I0.393510 J-0.729990
G02 X-3.640615 Y92.629530 Z-2.000000 I0.000000 J-0.799109
G02 X-3.411714 Y92.459360 Z-2.000000 I-0.246275 J-0.570308
G02 X-3.280372 Y92.210409 Z-2.000000 I-0.471756 J-0.408012
G02 X-3.262886 Y91.895060 Z-2.000000 I-0.759323 J-0.200263
G01 X-3.287686 Y91.833060 Z-2.000000
G02 X-2.357803 Y92.181915 Z-2.000000 I2.124177 J-4.248312
G02 X-1.545157 Y92.285750 Z-2.000000 I0.812646 J-3.128098
G02 X-0.090044 Y91.626263 Z-2.000000 I0.000000 J-1.935047
G02 X0.569443 Y89.873490 Z-2.000000 I-1.999501 J-1.752773
G02 X0.240982 Y87.874729 Z-2.000000 I-6.245686 J0.000000
G02 X-0.528165 Y86.624080 Z-2.000000 I-3.108953 J1.050163
G02 X-1.736256 Y85.785157 Z-2.000000 I-2.789091 J2.727113
G02 X-3.045841 Y85.507870 Z-2.000000 I-1.309585 J2.953844
G02 X-3.637173 Y85.540986 Z-2.000000 I-0.000000 J5.296113
G02 X-4.149649 Y85.631890 Z-2.000000 I0.456678 J4.064546
G01 X-4.149653 Y85.631870 Z-2.000000
G00 Z2.000000

(End cutting path id: path103)


(Start cutting path id: path103)
(Change tool to Cylindrical cutter)

G00 Z2.000000
G00 X-4.149653 Y85.631870

G01 Z-2.800000 F20.0(Penetrate)
G01 X-4.546528 Y83.108000 Z-2.800000 F100.000000
G02 X-4.660559 Y82.774731 Z-2.800000 I-0.981679 J0.149746
G02 X-4.881391 Y82.506480 Z-2.800000 I-0.844248 J0.469988
G02 X-5.183820 Y82.327305 Z-2.800000 I-0.645712 J0.745070
G02 X-5.532514 Y82.264640 Z-2.800000 I-0.348694 J0.938815
G02 X-5.850151 Y82.321202 Z-2.800000 I0.000000 J0.920170
G02 X-6.072016 Y82.463070 Z-2.800000 I0.211623 J0.575372
G02 X-6.216879 Y82.678001 Z-2.800000 I0.436251 J0.450316
G02 X-6.270454 Y82.952970 Z-2.800000 I0.678838 J0.274969
G02 X-6.256854 Y83.125447 Z-2.800000 I1.100478 J0.000000
G02 X-5.879780 Y85.414830 Z-2.800000 I195.472719 J-31.019680
G03 X-5.356666 Y88.981317 Z-2.800000 I-106.600326 J17.457205
G03 X-5.148042 Y91.057900 Z-2.800000 I-35.910310 J4.656497
G02 X-5.004618 Y91.802583 Z-2.800000 I2.991007 J-0.189907
G02 X-4.751167 Y92.267130 Z-2.800000 I1.386555 J-0.455074
G02 X-4.350927 Y92.595702 Z-2.800000 I1.040876 J-0.859857
G02 X-3.957417 Y92.695010 Z-2.800000 I0.393510 J-0.729990
G02 X-3.640615 Y92.629530 Z-2.800000 I0.000000 J-0.799109
G02 X-3.411714 Y92.459360 Z-2.800000 I-0.246275 J-0.570308
G02 X-3.280372 Y92.210409 Z-2.800000 I-0.471756 J-0.408012
G02 X-3.262886 Y91.895060 Z-2.800000 I-0.759323 J-0.200263
G01 X-3.287686 Y91.833060 Z-2.800000
G02 X-2.357803 Y92.181915 Z-2.800000 I2.124177 J-4.248312
G02 X-1.545157 Y92.285750 Z-2.800000 I0.812646 J-3.128098
G02 X-0.090044 Y91.626263 Z-2.800000 I0.000000 J-1.935047
G02 X0.569443 Y89.873490 Z-2.800000 I-1.999501 J-1.752773
G02 X0.240982 Y87.874729 Z-2.800000 I-6.245686 J0.000000
G02 X-0.528165 Y86.624080 Z-2.800000 I-3.108953 J1.050163
G02 X-1.736256 Y85.785157 Z-2.800000 I-2.789091 J2.727113
G02 X-3.045841 Y85.507870 Z-2.800000 I-1.309585 J2.953844
G02 X-3.637173 Y85.540986 Z-2.800000 I-0.000000 J5.296113
G02 X-4.149649 Y85.631890 Z-2.800000 I0.456678 J4.064546
G01 X-4.149653 Y85.631870 Z-2.800000
G00 Z2.000000

(End cutting path id: path103)


(Start cutting path id: path103)
(Change tool to Cylindrical cutter)

G00 Z2.000000
G00 X-3.517134 Y89.898280

G01 Z-1.000000 F20.0(Penetrate)
G02 X-3.638336 Y88.919736 Z-1.000000 I-49.996975 J5.695825 F100.000000
G02 X-3.858198 Y87.349600 Z-1.000000 I-128.950961 J17.256199
G03 X-3.329657 Y87.215319 Z-1.000000 I1.065115 J3.085056
G03 X-2.779194 Y87.169760 Z-1.000000 I0.550463 J3.302666
G03 X-2.043497 Y87.375562 Z-1.000000 I-0.000000 J1.417882
G03 X-1.532759 Y87.926310 Z-1.000000 I-0.711206 J1.171729
G03 X-1.247462 Y88.708452 Z-1.000000 I-2.922242 J1.509033
G03 X-1.142085 Y89.650230 Z-1.000000 I-4.155767 J0.941778
G03 X-1.371236 Y90.407069 Z-1.000000 I-1.364414 J0.000000
G03 X-1.799409 Y90.636220 Z-1.000000 I-0.428173 J-0.285447
G03 X-2.534276 Y90.485049 Z-1.000000 I0.000000 J-1.861743
G03 X-3.517134 Y89.898280 Z-1.000000 I1.710664 J-3.981963
G01 X-3.517134 Y89.898280 Z-1.000000
G00 Z2.000000

(End cutting path id: path103)


(Start cutting path id: path103)
(Change tool to Cylindrical cutter)

G00 Z2.000000
G00 X-3.517134 Y89.898280

G01 Z-2.000000 F20.0(Penetrate)
G02 X-3.638336 Y88.919736 Z-2.000000 I-49.996975 J5.695825 F100.000000
G02 X-3.858198 Y87.349600 Z-2.000000 I-128.950961 J17.256199
G03 X-3.329657 Y87.215319 Z-2.000000 I1.065115 J3.085056
G03 X-2.779194 Y87.169760 Z-2.000000 I0.550463 J3.302666
G03 X-2.043497 Y87.375562 Z-2.000000 I-0.000000 J1.417882
G03 X-1.532759 Y87.926310 Z-2.000000 I-0.711206 J1.171729
G03 X-1.247462 Y88.708452 Z-2.000000 I-2.922242 J1.509033
G03 X-1.142085 Y89.650230 Z-2.000000 I-4.155767 J0.941778
G03 X-1.371236 Y90.407069 Z-2.000000 I-1.364414 J0.000000
G03 X-1.799409 Y90.636220 Z-2.000000 I-0.428173 J-0.285447
G03 X-2.534276 Y90.485049 Z-2.000000 I0.000000 J-1.861743
G03 X-3.517134 Y89.898280 Z-2.000000 I1.710664 J-3.981963
G01 X-3.517134 Y89.898280 Z-2.000000
G00 Z2.000000

(End cutting path id: path103)


(Start cutting path id: path103)
(Change tool to Cylindrical cutter)

G00 Z2.000000
G00 X-3.517134 Y89.898280

G01 Z-2.800000 F20.0(Penetrate)
G02 X-3.638336 Y88.919736 Z-2.800000 I-49.996975 J5.695825 F100.000000
G02 X-3.858198 Y87.349600 Z-2.800000 I-128.950961 J17.256199
G03 X-3.329657 Y87.215319 Z-2.800000 I1.065115 J3.085056
G03 X-2.779194 Y87.169760 Z-2.800000 I0.550463 J3.302666
G03 X-2.043497 Y87.375562 Z-2.800000 I-0.000000 J1.417882
G03 X-1.532759 Y87.926310 Z-2.800000 I-0.711206 J1.171729
G03 X-1.247462 Y88.708452 Z-2.800000 I-2.922242 J1.509033
G03 X-1.142085 Y89.650230 Z-2.800000 I-4.155767 J0.941778
G03 X-1.371236 Y90.407069 Z-2.800000 I-1.364414 J0.000000
G03 X-1.799409 Y90.636220 Z-2.800000 I-0.428173 J-0.285447
G03 X-2.534276 Y90.485049 Z-2.800000 I0.000000 J-1.861743
G03 X-3.517134 Y89.898280 Z-2.800000 I1.710664 J-3.981963
G01 X-3.517134 Y89.898280 Z-2.800000
G00 Z2.000000

(End cutting path id: path103)


(Start cutting path id: path101)
(Change tool to Cylindrical cutter)

G00 Z2.000000
G00 X-13.172359 Y90.927670

G01 Z-1.000000 F20.0(Penetrate)
G03 X-13.427281 Y90.955607 Z-1.000000 I-0.513932 J-3.512530 F100.000000
G03 X-13.680855 Y90.964870 Z-1.000000 I-0.253574 J-3.466165
G03 X-15.046190 Y90.779912 Z-1.000000 I-0.000000 J-5.131834
G03 X-15.231148 Y90.536990 Z-1.000000 I0.067046 J-0.242922
G03 X-15.138809 Y90.347418 Z-1.000000 I0.240764 J0.000000
G03 X-14.431196 Y89.910670 Z-1.000000 I2.308171 J2.948055
G02 X-13.147329 Y89.182138 Z-1.000000 I-6.822506 J-13.518592
G02 X-12.670064 Y88.794460 Z-1.000000 I-1.406481 J-2.219116
G02 X-12.341636 Y88.307847 Z-1.000000 I-1.089383 J-1.089393
G02 X-12.229780 Y87.758860 Z-1.000000 I-1.291283 J-0.548987
G02 X-12.442350 Y86.947374 Z-1.000000 I-1.655210 J-0.000000
G02 X-13.122749 Y86.171360 Z-1.000000 I-2.183642 J1.228299
G02 X-14.075101 Y85.704962 Z-1.000000 I-1.708818 J2.283767
G02 X-15.535005 Y85.507840 Z-1.000000 I-1.459904 J5.307544
G02 X-16.398561 Y85.589352 Z-1.000000 I-0.000000 J4.615122
G02 X-17.097700 Y85.805500 Z-1.000000 I0.614652 J3.226882
G02 X-17.628477 Y86.202241 Z-1.000000 I0.580181 J1.329611
G02 X-17.779829 Y86.617850 Z-1.000000 I0.494951 J0.415609
G02 X-17.541492 Y87.160863 Z-1.000000 I0.737752 J0.000000
G02 X-16.930269 Y87.399200 Z-1.000000 I0.611223 J-0.664581
G02 X-16.650491 Y87.367662 Z-1.000000 I0.000000 J-1.256733
G02 X-16.142720 Y87.219360 Z-1.000000 I-0.987616 J-4.324931
G03 X-15.586370 Y87.067527 Z-1.000000 I1.840113 J5.647365
G03 X-15.330366 Y87.039530 Z-1.000000 I0.256004 J1.156458
G03 X-14.212240 Y87.260857 Z-1.000000 I-0.000000 J2.935002
G03 X-13.990913 Y87.591430 Z-1.000000 I-0.136207 J0.330573
G03 X-14.096263 Y87.822525 Z-1.000000 I-0.306139 J-0.000000
G03 X-14.747456 Y88.248760 Z-1.000000 I-1.885535 J-2.170125
G02 X-16.009260 Y88.908052 Z-1.000000 I7.025375 J14.982808
G02 X-16.483784 Y89.253350 Z-1.000000 I1.408187 J2.433904
G02 X-16.800422 Y89.701975 Z-1.000000 I0.866194 J0.947412
G02 X-16.917866 Y90.282740 Z-1.000000 I1.377237 J0.580765
G02 X-16.720619 Y91.106627 Z-1.000000 I1.819279 J0.000000
G02 X-16.124116 Y91.845440 Z-1.000000 I2.037801 J-1.035071
G02 X-15.247991 Y92.258345 Z-1.000000 I1.274803 J-1.568993
G02 X-12.918111 Y92.490360 Z-1.000000 I2.329880 J-11.582224
G02 X-11.982844 Y92.222599 Z-1.000000 I-0.000000 J-1.767284
G02 X-11.715083 Y91.740020 Z-1.000000 I-0.300989 J-0.482579
G02 X-11.758477 Y91.358103 Z-1.000000 I-1.702355 J-0.000000
G02 X-11.913521 Y90.878050 Z-1.000000 I-2.857574 J0.657855
G02 X-12.186435 Y90.518928 Z-1.000000 I-0.835829 J0.351926
G02 X-12.508833 Y90.406760 Z-1.000000 I-0.322398 J0.407238
G02 X-12.982662 Y90.570531 Z-1.000000 I-0.000000 J0.767337
G02 X-13.172359 Y90.927660 Z-1.000000 I0.308288 J0.392700
G01 X-13.172359 Y90.927670 Z-1.000000
G00 Z2.000000

(End cutting path id: path101)


(Start cutting path id: path101)
(Change tool to Cylindrical cutter)

G00 Z2.000000
G00 X-13.172359 Y90.927670

G01 Z-2.000000 F20.0(Penetrate)
G03 X-13.427281 Y90.955607 Z-2.000000 I-0.513932 J-3.512530 F100.000000
G03 X-13.680855 Y90.964870 Z-2.000000 I-0.253574 J-3.466165
G03 X-15.046190 Y90.779912 Z-2.000000 I-0.000000 J-5.131834
G03 X-15.231148 Y90.536990 Z-2.000000 I0.067046 J-0.242922
G03 X-15.138809 Y90.347418 Z-2.000000 I0.240764 J0.000000
G03 X-14.431196 Y89.910670 Z-2.000000 I2.308171 J2.948055
G02 X-13.147329 Y89.182138 Z-2.000000 I-6.822506 J-13.518592
G02 X-12.670064 Y88.794460 Z-2.000000 I-1.406481 J-2.219116
G02 X-12.341636 Y88.307847 Z-2.000000 I-1.089383 J-1.089393
G02 X-12.229780 Y87.758860 Z-2.000000 I-1.291283 J-0.548987
G02 X-12.442350 Y86.947374 Z-2.000000 I-1.655210 J-0.000000
G02 X-13.122749 Y86.171360 Z-2.000000 I-2.183642 J1.228299
G02 X-14.075101 Y85.704962 Z-2.000000 I-1.708818 J2.283767
G02 X-15.535005 Y85.507840 Z-2.000000 I-1.459904 J5.307544
G02 X-16.398561 Y85.589352 Z-2.000000 I-0.000000 J4.615122
G02 X-17.097700 Y85.805500 Z-2.000000 I0.614652 J3.226882
G02 X-17.628477 Y86.202241 Z-2.000000 I0.580181 J1.329611
G02 X-17.779829 Y86.617850 Z-2.000000 I0.494951 J0.415609
G02 X-17.541492 Y87.160863 Z-2.000000 I0.737752 J0.000000
G02 X-16.930269 Y87.399200 Z-2.000000 I0.611223 J-0.664581
G02 X-16.650491 Y87.367662 Z-2.000000 I0.000000 J-1.256733
G02 X-16.142720 Y87.219360 Z-2.000000 I-0.987616 J-4.324931
G03 X-15.586370 Y87.067527 Z-2.000000 I1.840113 J5.647365
G03 X-15.330366 Y87.039530 Z-2.000000 I0.256004 J1.156458
G03 X-14.212240 Y87.260857 Z-2.000000 I-0.000000 J2.935002
G03 X-13.990913 Y87.591430 Z-2.000000 I-0.136207 J0.330573
G03 X-14.096263 Y87.822525 Z-2.000000 I-0.306139 J-0.000000
G03 X-14.747456 Y88.248760 Z-2.000000 I-1.885535 J-2.170125
G02 X-16.009260 Y88.908052 Z-2.000000 I7.025375 J14.982808
G02 X-16.483784 Y89.253350 Z-2.000000 I1.408187 J2.433904
G02 X-16.800422 Y89.701975 Z-2.000000 I0.866194 J0.947412
G02 X-16.917866 Y90.282740 Z-2.000000 I1.377237 J0.580765
G02 X-16.720619 Y91.106627 Z-2.000000 I1.819279 J0.000000
G02 X-16.124116 Y91.845440 Z-2.000000 I2.037801 J-1.035071
G02 X-15.247991 Y92.258345 Z-2.000000 I1.274803 J-1.568993
G02 X-12.918111 Y92.490360 Z-2.000000 I2.329880 J-11.582224
G02 X-11.982844 Y92.222599 Z-2.000000 I-0.000000 J-1.767284
G02 X-11.715083 Y91.740020 Z-2.000000 I-0.300989 J-0.482579
G02 X-11.758477 Y91.358103 Z-2.000000 I-1.702355 J-0.000000
G02 X-11.913521 Y90.878050 Z-2.000000 I-2.857574 J0.657855
G02 X-12.186435 Y90.518928 Z-2.000000 I-0.835829 J0.351926
G02 X-12.508833 Y90.406760 Z-2.000000 I-0.322398 J0.407238
G02 X-12.982662 Y90.570531 Z-2.000000 I-0.000000 J0.767337
G02 X-13.172359 Y90.927660 Z-2.000000 I0.308288 J0.392700
G01 X-13.172359 Y90.927670 Z-2.000000
G00 Z2.000000

(End cutting path id: path101)


(Start cutting path id: path101)
(Change tool to Cylindrical cutter)

G00 Z2.000000
G00 X-13.172359 Y90.927670

G01 Z-2.800000 F20.0(Penetrate)
G03 X-13.427281 Y90.955607 Z-2.800000 I-0.513932 J-3.512530 F100.000000
G03 X-13.680855 Y90.964870 Z-2.800000 I-0.253574 J-3.466165
G03 X-15.046190 Y90.779912 Z-2.800000 I-0.000000 J-5.131834
G03 X-15.231148 Y90.536990 Z-2.800000 I0.067046 J-0.242922
G03 X-15.138809 Y90.347418 Z-2.800000 I0.240764 J0.000000
G03 X-14.431196 Y89.910670 Z-2.800000 I2.308171 J2.948055
G02 X-13.147329 Y89.182138 Z-2.800000 I-6.822506 J-13.518592
G02 X-12.670064 Y88.794460 Z-2.800000 I-1.406481 J-2.219116
G02 X-12.341636 Y88.307847 Z-2.800000 I-1.089383 J-1.089393
G02 X-12.229780 Y87.758860 Z-2.800000 I-1.291283 J-0.548987
G02 X-12.442350 Y86.947374 Z-2.800000 I-1.655210 J-0.000000
G02 X-13.122749 Y86.171360 Z-2.800000 I-2.183642 J1.228299
G02 X-14.075101 Y85.704962 Z-2.800000 I-1.708818 J2.283767
G02 X-15.535005 Y85.507840 Z-2.800000 I-1.459904 J5.307544
G02 X-16.398561 Y85.589352 Z-2.800000 I-0.000000 J4.615122
G02 X-17.097700 Y85.805500 Z-2.800000 I0.614652 J3.226882
G02 X-17.628477 Y86.202241 Z-2.800000 I0.580181 J1.329611
G02 X-17.779829 Y86.617850 Z-2.800000 I0.494951 J0.415609
G02 X-17.541492 Y87.160863 Z-2.800000 I0.737752 J0.000000
G02 X-16.930269 Y87.399200 Z-2.800000 I0.611223 J-0.664581
G02 X-16.650491 Y87.367662 Z-2.800000 I0.000000 J-1.256733
G02 X-16.142720 Y87.219360 Z-2.800000 I-0.987616 J-4.324931
G03 X-15.586370 Y87.067527 Z-2.800000 I1.840113 J5.647365
G03 X-15.330366 Y87.039530 Z-2.800000 I0.256004 J1.156458
G03 X-14.212240 Y87.260857 Z-2.800000 I-0.000000 J2.935002
G03 X-13.990913 Y87.591430 Z-2.800000 I-0.136207 J0.330573
G03 X-14.096263 Y87.822525 Z-2.800000 I-0.306139 J-0.000000
G03 X-14.747456 Y88.248760 Z-2.800000 I-1.885535 J-2.170125
G02 X-16.009260 Y88.908052 Z-2.800000 I7.025375 J14.982808
G02 X-16.483784 Y89.253350 Z-2.800000 I1.408187 J2.433904
G02 X-16.800422 Y89.701975 Z-2.800000 I0.866194 J0.947412
G02 X-16.917866 Y90.282740 Z-2.800000 I1.377237 J0.580765
G02 X-16.720619 Y91.106627 Z-2.800000 I1.819279 J0.000000
G02 X-16.124116 Y91.845440 Z-2.800000 I2.037801 J-1.035071
G02 X-15.247991 Y92.258345 Z-2.800000 I1.274803 J-1.568993
G02 X-12.918111 Y92.490360 Z-2.800000 I2.329880 J-11.582224
G02 X-11.982844 Y92.222599 Z-2.800000 I-0.000000 J-1.767284
G02 X-11.715083 Y91.740020 Z-2.800000 I-0.300989 J-0.482579
G02 X-11.758477 Y91.358103 Z-2.800000 I-1.702355 J-0.000000
G02 X-11.913521 Y90.878050 Z-2.800000 I-2.857574 J0.657855
G02 X-12.186435 Y90.518928 Z-2.800000 I-0.835829 J0.351926
G02 X-12.508833 Y90.406760 Z-2.800000 I-0.322398 J0.407238
G02 X-12.982662 Y90.570531 Z-2.800000 I-0.000000 J0.767337
G02 X-13.172359 Y90.927660 Z-2.800000 I0.308288 J0.392700
G01 X-13.172359 Y90.927670 Z-2.800000
G00 Z2.000000

(End cutting path id: path101)


(Start cutting path id: path99)
(Change tool to Cylindrical cutter)

G00 Z2.000000
G00 X-19.323921 Y94.108870

G01 Z-1.000000 F20.0(Penetrate)
G02 X-19.235798 Y94.496838 Z-1.000000 I0.898091 J0.000000 F100.000000
G02 X-18.970454 Y94.846810 Z-1.000000 I0.987039 J-0.472783
G02 X-18.588483 Y95.081151 Z-1.000000 I0.874463 J-0.996884
G02 X-18.195307 Y95.156870 Z-1.000000 I0.393176 J-0.982936
G02 X-17.865626 Y95.096128 Z-1.000000 I-0.000000 J-0.925052
G02 X-17.593794 Y94.927430 Z-1.000000 I-0.300264 J-0.787190
G02 X-17.409450 Y94.675819 Z-1.000000 I-0.510840 J-0.567606
G02 X-17.345747 Y94.381730 Z-1.000000 I-0.646992 J-0.294089
G02 X-17.431521 Y94.004104 Z-1.000000 I-0.874150 J-0.000000
G02 X-17.699214 Y93.643790 Z-1.000000 I-1.059275 J0.507384
G02 X-18.077130 Y93.406706 Z-1.000000 I-0.846289 J0.929256
G02 X-18.486762 Y93.327530 Z-1.000000 I-0.409632 J1.020063
G02 X-18.821807 Y93.389260 Z-1.000000 I-0.000000 J0.940105
G02 X-19.088276 Y93.556970 Z-1.000000 I0.286163 J0.750223
G02 X-19.263203 Y93.812036 Z-1.000000 I0.549524 J0.564385
G02 X-19.323921 Y94.108870 Z-1.000000 I0.695209 J0.296834
G01 X-19.323921 Y94.108870 Z-1.000000
G00 Z2.000000

(End cutting path id: path99)


(Start cutting path id: path99)
(Change tool to Cylindrical cutter)

G00 Z2.000000
G00 X-19.323921 Y94.108870

G01 Z-2.000000 F20.0(Penetrate)
G02 X-19.235798 Y94.496838 Z-2.000000 I0.898091 J0.000000 F100.000000
G02 X-18.970454 Y94.846810 Z-2.000000 I0.987039 J-0.472783
G02 X-18.588483 Y95.081151 Z-2.000000 I0.874463 J-0.996884
G02 X-18.195307 Y95.156870 Z-2.000000 I0.393176 J-0.982936
G02 X-17.865626 Y95.096128 Z-2.000000 I-0.000000 J-0.925052
G02 X-17.593794 Y94.927430 Z-2.000000 I-0.300264 J-0.787190
G02 X-17.409450 Y94.675819 Z-2.000000 I-0.510840 J-0.567606
G02 X-17.345747 Y94.381730 Z-2.000000 I-0.646992 J-0.294089
G02 X-17.431521 Y94.004104 Z-2.000000 I-0.874150 J-0.000000
G02 X-17.699214 Y93.643790 Z-2.000000 I-1.059275 J0.507384
G02 X-18.077130 Y93.406706 Z-2.000000 I-0.846289 J0.929256
G02 X-18.486762 Y93.327530 Z-2.000000 I-0.409632 J1.020063
G02 X-18.821807 Y93.389260 Z-2.000000 I-0.000000 J0.940105
G02 X-19.088276 Y93.556970 Z-2.000000 I0.286163 J0.750223
G02 X-19.263203 Y93.812036 Z-2.000000 I0.549524 J0.564385
G02 X-19.323921 Y94.108870 Z-2.000000 I0.695209 J0.296834
G01 X-19.323921 Y94.108870 Z-2.000000
G00 Z2.000000

(End cutting path id: path99)


(Start cutting path id: path99)
(Change tool to Cylindrical cutter)

G00 Z2.000000
G00 X-19.323921 Y94.108870

G01 Z-2.800000 F20.0(Penetrate)
G02 X-19.235798 Y94.496838 Z-2.800000 I0.898091 J0.000000 F100.000000
G02 X-18.970454 Y94.846810 Z-2.800000 I0.987039 J-0.472783
G02 X-18.588483 Y95.081151 Z-2.800000 I0.874463 J-0.996884
G02 X-18.195307 Y95.156870 Z-2.800000 I0.393176 J-0.982936
G02 X-17.865626 Y95.096128 Z-2.800000 I-0.000000 J-0.925052
G02 X-17.593794 Y94.927430 Z-2.800000 I-0.300264 J-0.787190
G02 X-17.409450 Y94.675819 Z-2.800000 I-0.510840 J-0.567606
G02 X-17.345747 Y94.381730 Z-2.800000 I-0.646992 J-0.294089
G02 X-17.431521 Y94.004104 Z-2.800000 I-0.874150 J-0.000000
G02 X-17.699214 Y93.643790 Z-2.800000 I-1.059275 J0.507384
G02 X-18.077130 Y93.406706 Z-2.800000 I-0.846289 J0.929256
G02 X-18.486762 Y93.327530 Z-2.800000 I-0.409632 J1.020063
G02 X-18.821807 Y93.389260 Z-2.800000 I-0.000000 J0.940105
G02 X-19.088276 Y93.556970 Z-2.800000 I0.286163 J0.750223
G02 X-19.263203 Y93.812036 Z-2.800000 I0.549524 J0.564385
G02 X-19.323921 Y94.108870 Z-2.800000 I0.695209 J0.296834
G01 X-19.323921 Y94.108870 Z-2.800000
G00 Z2.000000

(End cutting path id: path99)


(Start cutting path id: path99)
(Change tool to Cylindrical cutter)

G00 Z2.000000
G00 X-19.968843 Y85.681480

G01 Z-1.000000 F20.0(Penetrate)
G02 X-20.288276 Y85.736100 Z-1.000000 I0.000000 J0.961379 F100.000000
G02 X-20.514546 Y85.873720 Z-1.000000 I0.213332 J0.605576
G02 X-20.664220 Y86.095423 Z-1.000000 I0.453144 J0.467298
G02 X-20.719184 Y86.376010 Z-1.000000 I0.688708 J0.280587
G01 X-20.545552 Y87.641050 Z-1.000000
G02 X-20.349187 Y88.913334 Z-1.000000 I27.985741 J-3.668046
G02 X-20.099067 Y90.152530 Z-1.000000 I26.798400 J-4.764156
G03 X-19.898788 Y91.067161 Z-1.000000 I-25.060627 J5.966830
G03 X-19.820014 Y91.547790 Z-1.000000 I-6.835166 J1.367038
G02 X-19.713060 Y91.857074 Z-1.000000 I0.864145 J-0.125697
G02 X-19.485151 Y92.130700 Z-1.000000 I0.896595 J-0.515065
G02 X-19.170686 Y92.316211 Z-1.000000 I0.690743 J-0.811612
G02 X-18.827827 Y92.378750 Z-1.000000 I0.342859 J-0.908565
G02 X-18.527119 Y92.325032 Z-1.000000 I0.000000 J-0.868525
G02 X-18.306928 Y92.186510 Z-1.000000 I-0.218085 J-0.590928
G02 X-18.158280 Y91.970047 Z-1.000000 I-0.421596 J-0.448786
G02 X-18.102290 Y91.684220 Z-1.000000 I-0.701571 J-0.285827
G02 X-18.125455 Y91.438804 Z-1.000000 I-1.311602 J-0.000000
G02 X-18.375141 Y90.251750 Z-1.000000 I-31.199448 J5.942743
G03 X-18.619991 Y89.062298 Z-1.000000 I25.288024 J-5.825492
G03 X-18.790620 Y87.963510 Z-1.000000 I21.407123 J-3.886922
G02 X-18.937439 Y86.861379 Z-1.000000 I-58.307989 J7.206608
G02 X-19.001460 Y86.487630 Z-1.000000 I-6.764684 J0.966383
G02 X-19.127202 Y86.150481 Z-1.000000 I-1.012613 J0.185638
G02 X-19.348725 Y85.898520 Z-1.000000 I-0.770951 J0.454455
G02 X-19.641032 Y85.737190 Z-1.000000 I-0.622808 J0.782963
G02 X-19.968843 Y85.681480 Z-1.000000 I-0.327811 J0.936609
G01 X-19.968843 Y85.681480 Z-1.000000
G00 Z2.000000

(End cutting path id: path99)


(Start cutting path id: path99)
(Change tool to Cylindrical cutter)

G00 Z2.000000
G00 X-19.968843 Y85.681480

G01 Z-2.000000 F20.0(Penetrate)
G02 X-20.288276 Y85.736100 Z-2.000000 I0.000000 J0.961379 F100.000000
G02 X-20.514546 Y85.873720 Z-2.000000 I0.213332 J0.605576
G02 X-20.664220 Y86.095423 Z-2.000000 I0.453144 J0.467298
G02 X-20.719184 Y86.376010 Z-2.000000 I0.688708 J0.280587
G01 X-20.545552 Y87.641050 Z-2.000000
G02 X-20.349187 Y88.913334 Z-2.000000 I27.985741 J-3.668046
G02 X-20.099067 Y90.152530 Z-2.000000 I26.798400 J-4.764156
G03 X-19.898788 Y91.067161 Z-2.000000 I-25.060627 J5.966830
G03 X-19.820014 Y91.547790 Z-2.000000 I-6.835166 J1.367038
G02 X-19.713060 Y91.857074 Z-2.000000 I0.864145 J-0.125697
G02 X-19.485151 Y92.130700 Z-2.000000 I0.896595 J-0.515065
G02 X-19.170686 Y92.316211 Z-2.000000 I0.690743 J-0.811612
G02 X-18.827827 Y92.378750 Z-2.000000 I0.342859 J-0.908565
G02 X-18.527119 Y92.325032 Z-2.000000 I0.000000 J-0.868525
G02 X-18.306928 Y92.186510 Z-2.000000 I-0.218085 J-0.590928
G02 X-18.158280 Y91.970047 Z-2.000000 I-0.421596 J-0.448786
G02 X-18.102290 Y91.684220 Z-2.000000 I-0.701571 J-0.285827
G02 X-18.125455 Y91.438804 Z-2.000000 I-1.311602 J-0.000000
G02 X-18.375141 Y90.251750 Z-2.000000 I-31.199448 J5.942743
G03 X-18.619991 Y89.062298 Z-2.000000 I25.288024 J-5.825492
G03 X-18.790620 Y87.963510 Z-2.000000 I21.407123 J-3.886922
G02 X-18.937439 Y86.861379 Z-2.000000 I-58.307989 J7.206608
G02 X-19.001460 Y86.487630 Z-2.000000 I-6.764684 J0.966383
G02 X-19.127202 Y86.150481 Z-2.000000 I-1.012613 J0.185638
G02 X-19.348725 Y85.898520 Z-2.000000 I-0.770951 J0.454455
G02 X-19.641032 Y85.737190 Z-2.000000 I-0.622808 J0.782963
G02 X-19.968843 Y85.681480 Z-2.000000 I-0.327811 J0.936609
G01 X-19.968843 Y85.681480 Z-2.000000
G00 Z2.000000

(End cutting path id: path99)


(Start cutting path id: path99)
(Change tool to Cylindrical cutter)

G00 Z2.000000
G00 X-19.968843 Y85.681480

G01 Z-2.800000 F20.0(Penetrate)
G02 X-20.288276 Y85.736100 Z-2.800000 I0.000000 J0.961379 F100.000000
G02 X-20.514546 Y85.873720 Z-2.800000 I0.213332 J0.605576
G02 X-20.664220 Y86.095423 Z-2.800000 I0.453144 J0.467298
G02 X-20.719184 Y86.376010 Z-2.800000 I0.688708 J0.280587
G01 X-20.545552 Y87.641050 Z-2.800000
G02 X-20.349187 Y88.913334 Z-2.800000 I27.985741 J-3.668046
G02 X-20.099067 Y90.152530 Z-2.800000 I26.798400 J-4.764156
G03 X-19.898788 Y91.067161 Z-2.800000 I-25.060627 J5.966830
G03 X-19.820014 Y91.547790 Z-2.800000 I-6.835166 J1.367038
G02 X-19.713060 Y91.857074 Z-2.800000 I0.864145 J-0.125697
G02 X-19.485151 Y92.130700 Z-2.800000 I0.896595 J-0.515065
G02 X-19.170686 Y92.316211 Z-2.800000 I0.690743 J-0.811612
G02 X-18.827827 Y92.378750 Z-2.800000 I0.342859 J-0.908565
G02 X-18.527119 Y92.325032 Z-2.800000 I0.000000 J-0.868525
G02 X-18.306928 Y92.186510 Z-2.800000 I-0.218085 J-0.590928
G02 X-18.158280 Y91.970047 Z-2.800000 I-0.421596 J-0.448786
G02 X-18.102290 Y91.684220 Z-2.800000 I-0.701571 J-0.285827
G02 X-18.125455 Y91.438804 Z-2.800000 I-1.311602 J-0.000000
G02 X-18.375141 Y90.251750 Z-2.800000 I-31.199448 J5.942743
G03 X-18.619991 Y89.062298 Z-2.800000 I25.288024 J-5.825492
G03 X-18.790620 Y87.963510 Z-2.800000 I21.407123 J-3.886922
G02 X-18.937439 Y86.861379 Z-2.800000 I-58.307989 J7.206608
G02 X-19.001460 Y86.487630 Z-2.800000 I-6.764684 J0.966383
G02 X-19.127202 Y86.150481 Z-2.800000 I-1.012613 J0.185638
G02 X-19.348725 Y85.898520 Z-2.800000 I-0.770951 J0.454455
G02 X-19.641032 Y85.737190 Z-2.800000 I-0.622808 J0.782963
G02 X-19.968843 Y85.681480 Z-2.800000 I-0.327811 J0.936609
G01 X-19.968843 Y85.681480 Z-2.800000
G00 Z2.000000

(End cutting path id: path99)


(Start cutting path id: path97)
(Change tool to Cylindrical cutter)

G00 Z2.000000
G00 X-26.201022 Y85.631870

G01 Z-1.000000 F20.0(Penetrate)
G01 X-26.597897 Y83.108000 Z-1.000000 F100.000000
G02 X-26.711928 Y82.774731 Z-1.000000 I-0.981679 J0.149746
G02 X-26.932760 Y82.506480 Z-1.000000 I-0.844248 J0.469988
G02 X-27.235189 Y82.327305 Z-1.000000 I-0.645712 J0.745070
G02 X-27.583883 Y82.264640 Z-1.000000 I-0.348694 J0.938815
G02 X-27.901520 Y82.321202 Z-1.000000 I0.000000 J0.920170
G02 X-28.123385 Y82.463070 Z-1.000000 I0.211623 J0.575372
G02 X-28.268248 Y82.678001 Z-1.000000 I0.436251 J0.450316
G02 X-28.321823 Y82.952970 Z-1.000000 I0.678838 J0.274969
G02 X-28.308223 Y83.125447 Z-1.000000 I1.100478 J0.000000
G02 X-27.931149 Y85.414830 Z-1.000000 I195.472719 J-31.019680
G03 X-27.408034 Y88.981317 Z-1.000000 I-106.600884 J17.457296
G03 X-27.199410 Y91.057900 Z-1.000000 I-35.910499 J4.656528
G02 X-27.055986 Y91.802583 Z-1.000000 I2.991007 J-0.189907
G02 X-26.802535 Y92.267130 Z-1.000000 I1.386555 J-0.455074
G02 X-26.402295 Y92.595702 Z-1.000000 I1.040872 J-0.859851
G02 X-26.008785 Y92.695010 Z-1.000000 I0.393510 J-0.729992
G02 X-25.691984 Y92.629530 Z-1.000000 I-0.000000 J-0.799107
G02 X-25.463082 Y92.459360 Z-1.000000 I-0.246277 J-0.570313
G02 X-25.331740 Y92.210409 Z-1.000000 I-0.471759 J-0.408012
G02 X-25.314254 Y91.895060 Z-1.000000 I-0.759329 J-0.200265
G01 X-25.339064 Y91.833060 Z-1.000000
G02 X-24.409181 Y92.181915 Z-1.000000 I2.124177 J-4.248312
G02 X-23.596535 Y92.285750 Z-1.000000 I0.812646 J-3.128098
G02 X-22.141422 Y91.626263 Z-1.000000 I0.000000 J-1.935047
G02 X-21.481935 Y89.873490 Z-1.000000 I-1.999501 J-1.752773
G02 X-21.810396 Y87.874729 Z-1.000000 I-6.245692 J0.000000
G02 X-22.579542 Y86.624080 Z-1.000000 I-3.108953 J1.050163
G02 X-23.787634 Y85.785157 Z-1.000000 I-2.789094 J2.727119
G02 X-25.097218 Y85.507870 Z-1.000000 I-1.309584 J2.953842
G02 X-25.688551 Y85.540986 Z-1.000000 I0.000000 J5.296127
G02 X-26.201027 Y85.631890 Z-1.000000 I0.456677 J4.064543
G01 X-26.201022 Y85.631870 Z-1.000000
G00 Z2.000000

(End cutting path id: path97)


(Start cutting path id: path97)
(Change tool to Cylindrical cutter)

G00 Z2.000000
G00 X-26.201022 Y85.631870

G01 Z-2.000000 F20.0(Penetrate)
G01 X-26.597897 Y83.108000 Z-2.000000 F100.000000
G02 X-26.711928 Y82.774731 Z-2.000000 I-0.981679 J0.149746
G02 X-26.932760 Y82.506480 Z-2.000000 I-0.844248 J0.469988
G02 X-27.235189 Y82.327305 Z-2.000000 I-0.645712 J0.745070
G02 X-27.583883 Y82.264640 Z-2.000000 I-0.348694 J0.938815
G02 X-27.901520 Y82.321202 Z-2.000000 I0.000000 J0.920170
G02 X-28.123385 Y82.463070 Z-2.000000 I0.211623 J0.575372
G02 X-28.268248 Y82.678001 Z-2.000000 I0.436251 J0.450316
G02 X-28.321823 Y82.952970 Z-2.000000 I0.678838 J0.274969
G02 X-28.308223 Y83.125447 Z-2.000000 I1.100478 J0.000000
G02 X-27.931149 Y85.414830 Z-2.000000 I195.472719 J-31.019680
G03 X-27.408034 Y88.981317 Z-2.000000 I-106.600884 J17.457296
G03 X-27.199410 Y91.057900 Z-2.000000 I-35.910499 J4.656528
G02 X-27.055986 Y91.802583 Z-2.000000 I2.991007 J-0.189907
G02 X-26.802535 Y92.267130 Z-2.000000 I1.386555 J-0.455074
G02 X-26.402295 Y92.595702 Z-2.000000 I1.040872 J-0.859851
G02 X-26.008785 Y92.695010 Z-2.000000 I0.393510 J-0.729992
G02 X-25.691984 Y92.629530 Z-2.000000 I-0.000000 J-0.799107
G02 X-25.463082 Y92.459360 Z-2.000000 I-0.246277 J-0.570313
G02 X-25.331740 Y92.210409 Z-2.000000 I-0.471759 J-0.408012
G02 X-25.314254 Y91.895060 Z-2.000000 I-0.759329 J-0.200265
G01 X-25.339064 Y91.833060 Z-2.000000
G02 X-24.409181 Y92.181915 Z-2.000000 I2.124177 J-4.248312
G02 X-23.596535 Y92.285750 Z-2.000000 I0.812646 J-3.128098
G02 X-22.141422 Y91.626263 Z-2.000000 I0.000000 J-1.935047
G02 X-21.481935 Y89.873490 Z-2.000000 I-1.999501 J-1.752773
G02 X-21.810396 Y87.874729 Z-2.000000 I-6.245692 J0.000000
G02 X-22.579542 Y86.624080 Z-2.000000 I-3.108953 J1.050163
G02 X-23.787634 Y85.785157 Z-2.000000 I-2.789094 J2.727119
G02 X-25.097218 Y85.507870 Z-2.000000 I-1.309584 J2.953842
G02 X-25.688551 Y85.540986 Z-2.000000 I0.000000 J5.296127
G02 X-26.201027 Y85.631890 Z-2.000000 I0.456677 J4.064543
G01 X-26.201022 Y85.631870 Z-2.000000
G00 Z2.000000

(End cutting path id: path97)


(Start cutting path id: path97)
(Change tool to Cylindrical cutter)

G00 Z2.000000
G00 X-26.201022 Y85.631870

G01 Z-2.800000 F20.0(Penetrate)
G01 X-26.597897 Y83.108000 Z-2.800000 F100.000000
G02 X-26.711928 Y82.774731 Z-2.800000 I-0.981679 J0.149746
G02 X-26.932760 Y82.506480 Z-2.800000 I-0.844248 J0.469988
G02 X-27.235189 Y82.327305 Z-2.800000 I-0.645712 J0.745070
G02 X-27.583883 Y82.264640 Z-2.800000 I-0.348694 J0.938815
G02 X-27.901520 Y82.321202 Z-2.800000 I0.000000 J0.920170
G02 X-28.123385 Y82.463070 Z-2.800000 I0.211623 J0.575372
G02 X-28.268248 Y82.678001 Z-2.800000 I0.436251 J0.450316
G02 X-28.321823 Y82.952970 Z-2.800000 I0.678838 J0.274969
G02 X-28.308223 Y83.125447 Z-2.800000 I1.100478 J0.000000
G02 X-27.931149 Y85.414830 Z-2.800000 I195.472719 J-31.019680
G03 X-27.408034 Y88.981317 Z-2.800000 I-106.600884 J17.457296
G03 X-27.199410 Y91.057900 Z-2.800000 I-35.910499 J4.656528
G02 X-27.055986 Y91.802583 Z-2.800000 I2.991007 J-0.189907
G02 X-26.802535 Y92.267130 Z-2.800000 I1.386555 J-0.455074
G02 X-26.402295 Y92.595702 Z-2.800000 I1.040872 J-0.859851
G02 X-26.008785 Y92.695010 Z-2.800000 I0.393510 J-0.729992
G02 X-25.691984 Y92.629530 Z-2.800000 I-0.000000 J-0.799107
G02 X-25.463082 Y92.459360 Z-2.800000 I-0.246277 J-0.570313
G02 X-25.331740 Y92.210409 Z-2.800000 I-0.471759 J-0.408012
G02 X-25.314254 Y91.895060 Z-2.800000 I-0.759329 J-0.200265
G01 X-25.339064 Y91.833060 Z-2.800000
G02 X-24.409181 Y92.181915 Z-2.800000 I2.124177 J-4.248312
G02 X-23.596535 Y92.285750 Z-2.800000 I0.812646 J-3.128098
G02 X-22.141422 Y91.626263 Z-2.800000 I0.000000 J-1.935047
G02 X-21.481935 Y89.873490 Z-2.800000 I-1.999501 J-1.752773
G02 X-21.810396 Y87.874729 Z-2.800000 I-6.245692 J0.000000
G02 X-22.579542 Y86.624080 Z-2.800000 I-3.108953 J1.050163
G02 X-23.787634 Y85.785157 Z-2.800000 I-2.789094 J2.727119
G02 X-25.097218 Y85.507870 Z-2.800000 I-1.309584 J2.953842
G02 X-25.688551 Y85.540986 Z-2.800000 I0.000000 J5.296127
G02 X-26.201027 Y85.631890 Z-2.800000 I0.456677 J4.064543
G01 X-26.201022 Y85.631870 Z-2.800000
G00 Z2.000000

(End cutting path id: path97)


(Start cutting path id: path97)
(Change tool to Cylindrical cutter)

G00 Z2.000000
G00 X-25.568502 Y89.898280

G01 Z-1.000000 F20.0(Penetrate)
G02 X-25.689704 Y88.919736 Z-1.000000 I-49.995992 J5.695713 F100.000000
G02 X-25.909567 Y87.349600 Z-1.000000 I-128.948441 J17.255913
G03 X-25.381025 Y87.215319 Z-1.000000 I1.065119 J3.085073
G03 X-24.830563 Y87.169760 Z-1.000000 I0.550462 J3.302660
G03 X-24.094865 Y87.375562 Z-1.000000 I-0.000000 J1.417883
G03 X-23.584127 Y87.926310 Z-1.000000 I-0.711207 J1.171732
G03 X-23.298830 Y88.708452 Z-1.000000 I-2.922242 J1.509033
G03 X-23.193453 Y89.650230 Z-1.000000 I-4.155767 J0.941778
G03 X-23.422605 Y90.407068 Z-1.000000 I-1.364412 J-0.000000
G03 X-23.850778 Y90.636220 Z-1.000000 I-0.428173 J-0.285448
G03 X-24.585645 Y90.485049 Z-1.000000 I-0.000000 J-1.861742
G03 X-25.568502 Y89.898280 Z-1.000000 I1.710661 J-3.981955
G01 X-25.568502 Y89.898280 Z-1.000000
G00 Z2.000000

(End cutting path id: path97)


(Start cutting path id: path97)
(Change tool to Cylindrical cutter)

G00 Z2.000000
G00 X-25.568502 Y89.898280

G01 Z-2.000000 F20.0(Penetrate)
G02 X-25.689704 Y88.919736 Z-2.000000 I-49.995992 J5.695713 F100.000000
G02 X-25.909567 Y87.349600 Z-2.000000 I-128.948441 J17.255913
G03 X-25.381025 Y87.215319 Z-2.000000 I1.065119 J3.085073
G03 X-24.830563 Y87.169760 Z-2.000000 I0.550462 J3.302660
G03 X-24.094865 Y87.375562 Z-2.000000 I-0.000000 J1.417883
G03 X-23.584127 Y87.926310 Z-2.000000 I-0.711207 J1.171732
G03 X-23.298830 Y88.708452 Z-2.000000 I-2.922242 J1.509033
G03 X-23.193453 Y89.650230 Z-2.000000 I-4.155767 J0.941778
G03 X-23.422605 Y90.407068 Z-2.000000 I-1.364412 J-0.000000
G03 X-23.850778 Y90.636220 Z-2.000000 I-0.428173 J-0.285448
G03 X-24.585645 Y90.485049 Z-2.000000 I-0.000000 J-1.861742
G03 X-25.568502 Y89.898280 Z-2.000000 I1.710661 J-3.981955
G01 X-25.568502 Y89.898280 Z-2.000000
G00 Z2.000000

(End cutting path id: path97)


(Start cutting path id: path97)
(Change tool to Cylindrical cutter)

G00 Z2.000000
G00 X-25.568502 Y89.898280

G01 Z-2.800000 F20.0(Penetrate)
G02 X-25.689704 Y88.919736 Z-2.800000 I-49.995992 J5.695713 F100.000000
G02 X-25.909567 Y87.349600 Z-2.800000 I-128.948441 J17.255913
G03 X-25.381025 Y87.215319 Z-2.800000 I1.065119 J3.085073
G03 X-24.830563 Y87.169760 Z-2.800000 I0.550462 J3.302660
G03 X-24.094865 Y87.375562 Z-2.800000 I-0.000000 J1.417883
G03 X-23.584127 Y87.926310 Z-2.800000 I-0.711207 J1.171732
G03 X-23.298830 Y88.708452 Z-2.800000 I-2.922242 J1.509033
G03 X-23.193453 Y89.650230 Z-2.800000 I-4.155767 J0.941778
G03 X-23.422605 Y90.407068 Z-2.800000 I-1.364412 J-0.000000
G03 X-23.850778 Y90.636220 Z-2.800000 I-0.428173 J-0.285448
G03 X-24.585645 Y90.485049 Z-2.800000 I-0.000000 J-1.861742
G03 X-25.568502 Y89.898280 Z-2.800000 I1.710661 J-3.981955
G01 X-25.568502 Y89.898280 Z-2.800000
G00 Z2.000000

(End cutting path id: path97)


(Start cutting path id: path95)
(Change tool to Cylindrical cutter)

G00 Z2.000000
G00 X-30.876704 Y86.090760

G01 Z-1.000000 F20.0(Penetrate)
G02 X-32.117439 Y85.620441 Z-1.000000 I-4.166795 J9.120578 F100.000000
G02 X-32.706050 Y85.532650 Z-1.000000 I-0.588611 J1.929319
G02 X-34.544101 Y86.249482 Z-1.000000 I0.000000 J2.714920
G02 X-35.260933 Y87.882900 Z-1.000000 I1.502590 J1.633418
G02 X-34.895361 Y89.675633 Z-1.000000 I4.578486 J0.000000
G02 X-33.896675 Y91.088900 Z-1.000000 I3.768864 J-1.603775
G02 X-32.412324 Y92.040499 Z-1.000000 I3.430913 J-3.718225
G02 X-30.876704 Y92.347740 Z-1.000000 I1.535620 J-3.683969
G02 X-30.286657 Y92.270589 Z-1.000000 I-0.000000 J-2.294900
G02 X-29.524849 Y91.988070 Z-1.000000 I-1.100034 J-4.134587
G02 X-28.917021 Y91.544209 Z-1.000000 I-0.846935 J-1.797914
G02 X-28.774507 Y91.181920 Z-1.000000 I-0.389235 J-0.362289
G02 X-28.824509 Y90.922283 Z-1.000000 I-0.699088 J-0.000000
G02 X-28.972945 Y90.685830 Z-1.000000 I-0.723654 J0.289464
G03 X-29.143140 Y90.178076 Z-1.000000 I3.144684 J-1.336475
G03 X-29.332613 Y89.247160 Z-1.000000 I10.432002 J-2.608004
G03 X-29.451618 Y88.302803 Z-1.000000 I18.960947 J-2.869086
G03 X-29.475240 Y87.833290 Z-1.000000 I4.654310 J-0.469513
G03 X-29.462170 Y87.562561 Z-1.000000 I2.810359 J-0.000000
G03 X-29.438030 Y87.448820 Z-1.000000 I0.514786 J0.049822
G01 X-29.251994 Y86.841100 Z-1.000000
G02 X-29.122331 Y86.355539 Z-1.000000 I-9.344286 J-2.755356
G02 X-29.109368 Y86.245790 Z-1.000000 I-0.458082 J-0.109749
G02 X-29.163896 Y86.033086 Z-1.000000 I-0.442126 J0.000000
G02 X-29.388420 Y85.737290 Z-1.000000 I-1.108593 J0.608368
G02 X-29.697033 Y85.536954 Z-1.000000 I-0.652588 J0.667424
G02 X-30.076750 Y85.464440 Z-1.000000 I-0.379717 J0.957928
G02 X-30.306757 Y85.543770 Z-1.000000 I-0.000000 J0.373101
G02 X-30.876701 Y86.090760 Z-1.000000 I2.424674 J3.096852
G01 X-30.876704 Y86.090760 Z-1.000000
G00 Z2.000000

(End cutting path id: path95)


(Start cutting path id: path95)
(Change tool to Cylindrical cutter)

G00 Z2.000000
G00 X-30.876704 Y86.090760

G01 Z-2.000000 F20.0(Penetrate)
G02 X-32.117439 Y85.620441 Z-2.000000 I-4.166795 J9.120578 F100.000000
G02 X-32.706050 Y85.532650 Z-2.000000 I-0.588611 J1.929319
G02 X-34.544101 Y86.249482 Z-2.000000 I0.000000 J2.714920
G02 X-35.260933 Y87.882900 Z-2.000000 I1.502590 J1.633418
G02 X-34.895361 Y89.675633 Z-2.000000 I4.578486 J0.000000
G02 X-33.896675 Y91.088900 Z-2.000000 I3.768864 J-1.603775
G02 X-32.412324 Y92.040499 Z-2.000000 I3.430913 J-3.718225
G02 X-30.876704 Y92.347740 Z-2.000000 I1.535620 J-3.683969
G02 X-30.286657 Y92.270589 Z-2.000000 I-0.000000 J-2.294900
G02 X-29.524849 Y91.988070 Z-2.000000 I-1.100034 J-4.134587
G02 X-28.917021 Y91.544209 Z-2.000000 I-0.846935 J-1.797914
G02 X-28.774507 Y91.181920 Z-2.000000 I-0.389235 J-0.362289
G02 X-28.824509 Y90.922283 Z-2.000000 I-0.699088 J-0.000000
G02 X-28.972945 Y90.685830 Z-2.000000 I-0.723654 J0.289464
G03 X-29.143140 Y90.178076 Z-2.000000 I3.144684 J-1.336475
G03 X-29.332613 Y89.247160 Z-2.000000 I10.432002 J-2.608004
G03 X-29.451618 Y88.302803 Z-2.000000 I18.960947 J-2.869086
G03 X-29.475240 Y87.833290 Z-2.000000 I4.654310 J-0.469513
G03 X-29.462170 Y87.562561 Z-2.000000 I2.810359 J-0.000000
G03 X-29.438030 Y87.448820 Z-2.000000 I0.514786 J0.049822
G01 X-29.251994 Y86.841100 Z-2.000000
G02 X-29.122331 Y86.355539 Z-2.000000 I-9.344286 J-2.755356
G02 X-29.109368 Y86.245790 Z-2.000000 I-0.458082 J-0.109749
G02 X-29.163896 Y86.033086 Z-2.000000 I-0.442126 J0.000000
G02 X-29.388420 Y85.737290 Z-2.000000 I-1.108593 J0.608368
G02 X-29.697033 Y85.536954 Z-2.000000 I-0.652588 J0.667424
G02 X-30.076750 Y85.464440 Z-2.000000 I-0.379717 J0.957928
G02 X-30.306757 Y85.543770 Z-2.000000 I-0.000000 J0.373101
G02 X-30.876701 Y86.090760 Z-2.000000 I2.424674 J3.096852
G01 X-30.876704 Y86.090760 Z-2.000000
G00 Z2.000000

(End cutting path id: path95)


(Start cutting path id: path95)
(Change tool to Cylindrical cutter)

